; generated by PrusaSlicer 2.9.3 on 2025-10-27 at 02:45:51 UTC


;
;
; 

; external perimeters extrusion width = 0.45mm
; perimeters extrusion width = 0.45mm
; infill extrusion width = 0.45mm
; solid infill extrusion width = 0.45mm
; top infill extrusion width = 0.40mm
; support material extrusion width = 0.35mm
; first layer extrusion width = 0.42mm

M73 P0 R174
M73 Q0 S174
M201 X1000 Y1000 Z200 E5000 ; sets maximum accelerations, mm/sec^2
M203 X200 Y200 Z12 E120 ; sets maximum feedrates, mm / sec
M204 S1250 T1250 ; sets acceleration (S) and retract acceleration (R), mm/sec^2
M205 X8.00 Y8.00 Z0.40 E4.50 ; sets the jerk limits, mm/sec
M205 S0 T0 ; sets the minimum extruding and travel feed rate, mm/sec

; printing object sofle_pico_backplate_v3.4_no_tenting_puck.stl id:0 copy 0
; stop printing object sofle_pico_backplate_v3.4_no_tenting_puck.stl id:0 copy 0

;TYPE:Custom
M862.3 P "MK3S" ; printer model check
M862.1 P0.4 ; nozzle diameter check
M115 U3.14.1 ; tell printer latest fw version
G90 ; use absolute coordinates
M83 ; extruder relative mode
M104 S215 ; set extruder temp
M140 S60 ; set bed temp
M190 S60 ; wait for bed temp
M109 S215 ; wait for extruder temp
G28 W ; home all without mesh bed level
G80 X49.2455 Y44.0552 W159.975 H130.855 ; mesh bed levelling

G1 Z0.2 F720
G1 Y-3 F1000 ; go outside print area
G92 E0
G1 X60 E9 F1000 ; intro line
G1 X100 E12.5 F1000 ; intro line

G92 E0
M221 S95

; Don't change E values below. Excessive value can damage the printer.
M907 E430 ; set extruder motor current
G21 ; set units to millimeters
G90 ; use absolute coordinates
M83 ; use relative distances for extrusion

M900 K0.05 ; Filament gcode LA 1.5
M900 K30 ; Filament gcode LA 1.0




M107
;LAYER_CHANGE
;Z:0.2
;HEIGHT:0.2
G1 E-.8 F2100
G1 Z.6 F720
G1 X61.924 Y47.732 F10800
G1 Z.2 F720
M73 P0 R173
G1 E.8 F2100
M204 S800
;TYPE:Skirt/Brim
;WIDTH:0.42
G1 F1200
G1 X62.618 Y46.907 E.0338
G1 X63.445 Y46.143 E.0353
G1 X64.117 Y45.656 E.02602
G1 X65.096 Y45.099 E.03532
G1 X65.861 Y44.776 E.02604
G1 X67.51 Y44.346 E.05343
G1 X68.632 Y44.248 E.03531
G1 X69.463 Y44.267 E.02606
G1 X164.034 Y59.989 E3.0059
G1 X203.678 Y74.576 E1.32448
G1 X205.121 Y75.329 E.05103
G1 X206.005 Y75.987 E.03455
G1 X207.213 Y77.243 E.05464
G1 X207.857 Y78.195 E.03604
G1 X208.25 Y78.946 E.02658
G1 X208.657 Y80.021 E.03604
G1 X208.867 Y80.843 E.0266
G1 X209.032 Y82.397 E.049
G1 X209.032 Y158.876 E2.39795
G1 X208.901 Y160.237 E.04287
G1 X208.625 Y161.351 E.03598
G1 X207.895 Y163.015 E.05697
G1 X207.06 Y164.219 E.04594
G1 X205.758 Y165.488 E.05701
G1 X204.811 Y166.137 E.036
G1 X203.159 Y166.894 E.05698
G1 X201.759 Y167.23 E.04514
G1 X143.585 Y174.718 E1.83905
G1 X57.868 Y174.722 E2.6876
G1 X56.404 Y174.57 E.04615
G1 X55.206 Y174.249 E.03889
G1 X54.019 Y173.737 E.04053
G1 X53.202 Y173.244 E.02992
G1 X52.403 Y172.63 E.03159
G1 X51.526 Y171.754 E.03887
G1 X50.754 Y170.716 E.04056
G1 X50.293 Y169.881 E.02991
G1 X49.907 Y168.95 E.0316
G1 X49.642 Y168.033 E.02993
G1 X49.434 Y166.287 E.05513
G1 X49.434 Y74.004 E2.89347
G1 X49.495 Y73.012 E.03116
G1 X49.777 Y71.644 E.04379
G1 X50.327 Y70.238 E.04734
G1 X61.242 Y48.817 E.75381
G1 X61.892 Y47.783 E.03829
M204 S1000
;WIPE_START
G1 F8640
G1 X61.924 Y47.732 E-.0139
G1 X62.618 Y46.907 E-.24893
G1 X63.445 Y46.143 E-.25997
G1 X64.117 Y45.656 E-.19163
G1 X64.439 Y45.473 E-.08557
;WIPE_END
G1 Z.6 F720
G1 X63.906 Y49.29 F10800
G1 Z.2 F720
G1 E.8 F2100
M204 S800
G1 F1200
G1 X64.417 Y48.606 E.02677
G1 X65.176 Y47.939 E.03168
G1 X66.011 Y47.41 E.03099
G1 X67.65 Y46.84 E.05441
G1 X69.429 Y46.748 E.05585
G1 X70.372 Y46.918 E.03004
G1 X124.885 Y62.272 E1.77572
G1 X163.591 Y62.427 E1.21361
G1 X202.824 Y76.899 E1.31114
G1 X204.446 Y77.911 E.05994
G1 X205.305 Y78.831 E.03947
G1 X205.968 Y79.921 E.04
G1 X206.39 Y81.123 E.03994
G1 X206.557 Y82.405 E.04054
G1 X206.557 Y158.895 E2.39829
G1 X206.263 Y160.614 E.05468
M73 Q0 S173
G1 X205.84 Y161.605 E.03378
G1 X205.255 Y162.517 E.03397
G1 X203.546 Y164.012 E.07119
G1 X202.462 Y164.51 E.0374
G1 X201.316 Y164.795 E.03703
G1 X143.429 Y172.247 E1.82998
G1 X57.847 Y172.247 E2.68336
G1 X56 Y171.905 E.0589
G1 X54.948 Y171.415 E.03639
G1 X53.997 Y170.741 E.03655
G1 X52.51 Y168.788 E.07696
G1 X52.082 Y167.566 E.0406
G1 X51.909 Y166.272 E.04093
G1 X51.945 Y73.389 E2.91228
G1 X52.147 Y72.367 E.03266
G1 X52.528 Y71.37 E.03347
G1 X63.565 Y49.745 E.76124
G1 X63.87 Y49.338 E.01595
M204 S1000
G1 X64.172 Y49.562 F10800
M204 S800
G1 F1200
G1 X64.682 Y48.876 E.0268
G1 X65.391 Y48.249 E.02968
G1 X66.194 Y47.74 E.02981
G1 X67.747 Y47.206 E.05149
G1 X69.384 Y47.123 E.05139
G1 X70.279 Y47.283 E.02851
G1 X124.833 Y62.649 E1.77706
G1 X163.492 Y62.792 E1.21213
G1 X202.675 Y77.246 E1.30948
G1 X204.188 Y78.187 E.05587
G1 X205.016 Y79.074 E.03805
G1 X205.635 Y80.099 E.03754
G1 X206.027 Y81.228 E.03747
G1 X206.18 Y82.416 E.03756
G1 X206.18 Y158.88 E2.39748
G1 X205.907 Y160.486 E.05108
M73 P0 R172
G1 X205.499 Y161.442 E.03259
G1 X204.952 Y162.29 E.03164
G1 X203.363 Y163.682 E.06624
G1 X202.353 Y164.149 E.03489
G1 X201.257 Y164.422 E.03541
G1 X143.417 Y171.87 E1.82851
G1 X57.864 Y171.87 E2.68245
G1 X56.137 Y171.553 E.05505
G1 X55.123 Y171.081 E.03507
G1 X54.239 Y170.451 E.03404
G1 X52.856 Y168.635 E.07157
G1 X52.444 Y167.46 E.03904
G1 X52.286 Y166.26 E.03795
G1 X52.317 Y73.448 E2.91006
G1 X52.505 Y72.486 E.03073
G1 X52.869 Y71.532 E.03202
G1 X63.878 Y49.957 E.75945
G1 X64.136 Y49.61 E.01356
M204 S1000
G1 X64.438 Y49.833 F10800
M204 S800
G1 F1200
G1 X64.947 Y49.145 E.02683
G1 X65.629 Y48.542 E.02854
G1 X66.377 Y48.071 E.02772
G1 X67.794 Y47.581 E.04701
G1 X69.34 Y47.499 E.04854
G1 X70.186 Y47.649 E.02694
G1 X124.78 Y63.026 E1.77836
G1 X163.392 Y63.158 E1.21066
G1 X202.527 Y77.593 E1.30786
G1 X203.93 Y78.463 E.05176
G1 X204.704 Y79.287 E.03545
G1 X205.286 Y80.243 E.03509
G1 X205.656 Y81.296 E.03499
G1 X205.802 Y82.429 E.03582
G1 X205.802 Y158.864 E2.39657
G1 X205.551 Y160.36 E.04756
G1 X205.173 Y161.252 E.03038
G1 X204.65 Y162.063 E.03026
G1 X203.181 Y163.351 E.06126
G1 X202.211 Y163.799 E.0335
G1 X201.198 Y164.05 E.03272
G1 X143.405 Y171.493 E1.82702
G1 X57.881 Y171.493 E2.68154
G1 X56.273 Y171.2 E.05125
M73 Q0 S172
G1 X55.327 Y170.763 E.03267
G1 X54.48 Y170.16 E.0326
G1 X53.202 Y168.482 E.06613
G1 X52.815 Y167.39 E.03633
G1 X52.663 Y166.247 E.03615
G1 X52.693 Y73.482 E2.90858
G1 X52.872 Y72.575 E.02899
M73 P1 R172
M73 Q1 S172
G1 X53.209 Y71.695 E.02955
G1 X64.19 Y50.168 E.75771
G1 X64.402 Y49.881 E.01119
M204 S1000
G1 X64.705 Y50.104 F10800
M204 S800
G1 F1200
G1 X65.212 Y49.413 E.02687
G1 X65.843 Y48.853 E.02645
G1 X66.559 Y48.402 E.02653
G1 X67.891 Y47.946 E.04414
G1 X69.295 Y47.874 E.04408
G1 X70.093 Y48.014 E.0254
G1 X124.727 Y63.403 E1.77967
G1 X163.293 Y63.523 E1.20922
G1 X202.379 Y77.94 E1.30622
G1 X203.673 Y78.74 E.0477
G1 X204.394 Y79.501 E.03287
G1 X204.937 Y80.387 E.03258
G1 X205.293 Y81.402 E.03373
G1 X205.425 Y82.44 E.03281
G1 X205.425 Y158.849 E2.39575
G1 X205.195 Y160.235 E.04405
G1 X204.847 Y161.062 E.02813
G1 X204.347 Y161.837 E.02892
G1 X202.997 Y163.02 E.05628
G1 X202.102 Y163.437 E.03096
G1 X201.139 Y163.677 E.03112
G1 X143.393 Y171.116 E1.82555
G1 X57.898 Y171.116 E2.68064
G1 X56.408 Y170.848 E.04747
M73 P1 R171
G1 X55.531 Y170.445 E.03026
G1 X54.722 Y169.869 E.03114
G1 X53.547 Y168.327 E.06079
G1 X53.186 Y167.32 E.03354
G1 X53.04 Y166.235 E.03433
G1 X53.069 Y73.517 E2.90711
G1 X53.239 Y72.665 E.02724
G1 X53.549 Y71.857 E.02713
G1 X64.503 Y50.379 E.75595
G1 X64.67 Y50.152 E.00884
M204 S1000
G1 X64.974 Y50.374 F10800
M204 S800
G1 F1200
G1 X65.478 Y49.681 E.02687
G1 X66.082 Y49.145 E.02532
G1 X66.741 Y48.733 E.02437
G1 X67.938 Y48.321 E.03969
G1 X69.252 Y48.249 E.04126
G1 X70 Y48.38 E.02381
G1 X124.675 Y63.78 E1.781
G1 X163.194 Y63.888 E1.20774
G1 X202.231 Y78.288 E1.3046
G1 X203.418 Y79.018 E.04369
G1 X204.083 Y79.716 E.03023
G1 X204.605 Y80.566 E.03128
G1 X204.93 Y81.506 E.03118
G1 X205.048 Y82.452 E.02989
G1 X205.048 Y158.834 E2.3949
G1 X204.839 Y160.109 E.04051
G1 X204.506 Y160.9 E.02691
G1 X204.045 Y161.61 E.02654
G1 X202.812 Y162.691 E.05141
G1 X201.992 Y163.076 E.0284
G1 X201.08 Y163.304 E.02948
G1 X143.381 Y170.739 E1.82407
G1 X57.914 Y170.739 E2.67976
G1 X56.544 Y170.495 E.04363
G1 X55.705 Y170.11 E.02894
G1 X54.965 Y169.58 E.02854
G1 X53.892 Y168.172 E.05551
G1 X53.548 Y167.212 E.03197
G1 X53.417 Y166.222 E.03131
G1 X53.445 Y73.551 E2.90563
G1 X53.596 Y72.785 E.02448
G1 X53.89 Y72.02 E.0257
G1 X64.817 Y50.589 E.75426
G1 X64.938 Y50.422 E.00647
M204 S1000
G1 X65.243 Y50.643 F10800
M204 S800
G1 F1200
G1 X65.745 Y49.948 E.02688
G1 X66.296 Y49.456 E.02316
G1 X66.922 Y49.064 E.02316
G1 X68.034 Y48.686 E.03683
G1 X69.208 Y48.624 E.03686
G1 X69.907 Y48.745 E.02224
G1 X124.622 Y64.157 E1.78231
G1 X163.094 Y64.253 E1.20627
M73 Q1 S171
G1 X202.083 Y78.635 E1.30299
G1 X203.163 Y79.297 E.03972
G1 X203.773 Y79.932 E.02761
G1 X204.256 Y80.711 E.02874
G1 X204.559 Y81.574 E.02868
G1 X204.671 Y82.464 E.02813
G1 X204.671 Y158.819 E2.39406
G1 X204.482 Y159.985 E.03704
G1 X204.181 Y160.709 E.02458
G1 X203.743 Y161.382 E.02518
G1 X202.628 Y162.361 E.04652
G1 X201.849 Y162.727 E.02699
G1 X201.021 Y162.932 E.02675
G1 X143.369 Y170.362 E1.82259
G1 X57.93 Y170.362 E2.67888
G1 X56.677 Y170.141 E.03989
G1 X55.91 Y169.793 E.02641
G1 X55.207 Y169.29 E.0271
G1 X54.236 Y168.017 E.0502
G1 X53.919 Y167.142 E.02918
G1 X53.795 Y166.21 E.02948
G1 X53.82 Y73.585 E2.90419
G1 X53.963 Y72.875 E.02271
G1 X54.23 Y72.182 E.02329
G1 X65.131 Y50.797 E.7526
G1 X65.208 Y50.691 E.00411
M204 S1000
G1 X65.514 Y50.91 F10800
M204 S800
G1 F1200
G1 X66.013 Y50.214 E.02685
G1 X66.51 Y49.767 E.02096
G1 X67.104 Y49.395 E.02198
G1 X68.082 Y49.061 E.0324
G1 X69.166 Y48.999 E.03404
G1 X69.814 Y49.111 E.02062
G1 X124.57 Y64.534 E1.78364
G1 X162.995 Y64.619 E1.20479
M73 P1 R170
G1 X201.936 Y78.982 E1.30137
G1 X202.909 Y79.577 E.03576
G1 X203.465 Y80.15 E.02503
G1 X203.908 Y80.858 E.02619
G1 X204.187 Y81.642 E.02609
G1 X204.294 Y82.476 E.02636
G1 X204.294 Y158.804 E2.39321
G1 X204.125 Y159.861 E.03356
G1 X203.839 Y160.547 E.0233
G1 X203.442 Y161.154 E.02274
G1 X202.442 Y162.032 E.04172
G1 X201.739 Y162.366 E.0244
G1 X200.962 Y162.559 E.0251
G1 X143.356 Y169.985 E1.82114
G1 X57.946 Y169.985 E2.67797
G1 X56.811 Y169.788 E.03612
G1 X56.083 Y169.458 E.02506
G1 X55.451 Y169.001 E.02445
G1 X54.58 Y167.859 E.04503
G1 X54.29 Y167.07 E.02636
G1 X54.172 Y166.197 E.02762
G1 X54.196 Y73.621 E2.90266
G1 X54.329 Y72.966 E.02096
G1 X54.57 Y72.345 E.02089
G1 X65.446 Y51.005 E.75099
G1 X65.479 Y50.959 E.00178
M73 P2 R170
M73 Q2 S171
M204 S1000
G1 X65.787 Y51.177 F10800
M204 S800
G1 F1200
G1 X66.281 Y50.48 E.02679
G1 X66.75 Y50.059 E.01976
G1 X67.283 Y49.728 E.01967
G1 X68.178 Y49.427 E.02961
G1 X69.123 Y49.374 E.02968
G1 X69.722 Y49.477 E.01906
G1 X124.517 Y64.911 E1.78491
G1 X162.896 Y64.984 E1.20335
G1 X201.788 Y79.33 E1.29975
G1 X202.656 Y79.857 E.03184
G1 X203.18 Y80.397 E.02359
G1 X203.576 Y81.038 E.02362
G1 X203.825 Y81.747 E.02356
G1 X203.917 Y82.488 E.02341
G1 X203.917 Y158.789 E2.39236
G1 X203.768 Y159.739 E.03015
G1 X203.514 Y160.356 E.02092
G1 X203.141 Y160.926 E.02136
G1 X202.256 Y161.702 E.0369
G1 X201.594 Y162.017 E.02299
G1 X200.903 Y162.187 E.02231
G1 X143.344 Y169.607 E1.81966
G1 X57.962 Y169.607 E2.67709
M73 Q2 S170
G1 X56.943 Y169.434 E.03241
G1 X56.288 Y169.14 E.02251
G1 X55.694 Y168.711 E.02297
G1 X54.924 Y167.703 E.03977
G1 X54.651 Y166.96 E.02482
G1 X54.549 Y166.185 E.02451
G1 X54.572 Y73.656 E2.90118
G1 X54.687 Y73.087 E.0182
G1 X54.911 Y72.508 E.01947
G1 X65.754 Y51.228 E.74884
M204 S1000
G1 X66.09 Y51.399 F10800
M204 S800
G1 F1200
G1 X66.092 Y51.395 E.00014
G1 X66.551 Y50.745 E.02495
G1 X66.963 Y50.37 E.01747
G1 X67.462 Y50.06 E.01842
G1 X68.271 Y49.793 E.02671
G1 X69.081 Y49.75 E.02543
G1 X69.629 Y49.842 E.01742
G1 X124.465 Y65.288 E1.78625
G1 X162.796 Y65.349 E1.20184
G1 X201.641 Y79.678 E1.29818
G1 X202.404 Y80.139 E.02795
G1 X202.872 Y80.616 E.02095
G1 X203.228 Y81.185 E.02104
G1 X203.453 Y81.816 E.021
G1 X203.54 Y82.5 E.02162
G1 X203.54 Y158.775 E2.39155
G1 X203.41 Y159.616 E.02668
G1 X203.172 Y160.195 E.01963
G1 X202.84 Y160.697 E.01887
G1 X202.069 Y161.374 E.03217
G1 X201.484 Y161.656 E.02036
G1 X200.844 Y161.814 E.02067
G1 X143.332 Y169.23 E1.81818
G1 X57.977 Y169.23 E2.67625
M73 P2 R169
G1 X57.075 Y169.08 E.02867
G1 X56.461 Y168.805 E.02109
G1 X55.939 Y168.423 E.02028
G1 X55.267 Y167.544 E.03469
G1 X55.022 Y166.888 E.02196
G1 X54.926 Y166.172 E.02265
G1 X54.947 Y73.692 E2.89965
G1 X55.251 Y72.671 E.0334
G1 X66.063 Y51.452 E.7467
M204 S1000
G1 X66.399 Y51.623 F10800
M204 S800
G1 F1200
G1 X66.422 Y51.578 E.00158
G1 X66.82 Y51.01 E.02175
G1 X67.641 Y50.393 E.0322
G1 X68.319 Y50.168 E.0224
G1 X69.04 Y50.125 E.02265
G1 X69.537 Y50.208 E.0158
G1 X124.413 Y65.665 E1.78755
G1 X162.697 Y65.715 E1.20037
G1 X201.494 Y80.025 E1.29656
G1 X202.153 Y80.422 E.02412
G1 X202.565 Y80.836 E.01831
G1 X202.88 Y81.332 E.01842
G1 X203.091 Y81.922 E.01965
G1 X203.163 Y82.511 E.01861
G1 X203.163 Y158.761 E2.39077
G1 X203.052 Y159.496 E.02331
G1 X202.847 Y160.003 E.01715
G1 X202.54 Y160.468 E.01747
G1 X201.881 Y161.047 E.0275
G1 X201.373 Y161.295 E.01772
G1 X200.785 Y161.441 E.019
G1 X143.32 Y168.853 E1.8167
G1 X57.992 Y168.853 E2.6754
G1 X57.204 Y168.725 E.02503
G1 X56.666 Y168.488 E.01843
G1 X56.184 Y168.135 E.01873
G1 X55.611 Y167.386 E.02957
G1 X55.383 Y166.776 E.02042
G1 X55.303 Y166.16 E.01948
G1 X55.323 Y73.728 E2.89814
G1 X55.591 Y72.834 E.02926
M73 Q2 S169
G1 X66.372 Y51.677 E.74452
M204 S1000
G1 X66.708 Y51.848 F10800
M204 S800
G1 F1200
G1 X66.752 Y51.76 E.00308
G1 X67.091 Y51.272 E.01863
G1 X67.818 Y50.727 E.02849
G1 X68.412 Y50.534 E.01958
G1 X68.999 Y50.5 E.01844
G1 X69.445 Y50.574 E.01418
G1 X124.36 Y66.042 E1.78882
G1 X162.598 Y66.08 E1.19893
G1 X201.348 Y80.373 E1.29499
G1 X201.905 Y80.706 E.02035
G1 X202.259 Y81.057 E.01563
G1 X202.55 Y81.515 E.01701
G1 X202.728 Y82.026 E.01697
G1 X202.786 Y82.521 E.01563
G1 X202.786 Y158.748 E2.39004
G1 X202.694 Y159.376 E.0199
G1 X202.505 Y159.843 E.0158
G1 X202.241 Y160.237 E.01487
G1 X201.692 Y160.719 E.02291
G1 X201.226 Y160.947 E.01627
G1 X200.727 Y161.069 E.01611
G1 X143.308 Y168.476 E1.81525
G1 X58.006 Y168.476 E2.67458
G1 X57.333 Y168.37 E.02136
G1 X56.839 Y168.152 E.01693
G1 X56.43 Y167.848 E.01598
G1 X55.953 Y167.225 E.0246
G1 X55.753 Y166.704 E.0175
G1 X55.68 Y166.148 E.01758
G1 X55.698 Y73.765 E2.8966
G1 X55.931 Y72.998 E.02513
G1 X66.68 Y51.901 E.74239
M204 S1000
G1 X67.016 Y52.073 F10800
M73 P2 R168
M204 S800
G1 F1200
G1 X67.083 Y51.942 E.00461
G1 X67.363 Y51.535 E.01549
G1 X67.994 Y51.061 E.02474
G1 X68.46 Y50.908 E.01538
G1 X68.961 Y50.876 E.01574
G1 X124.308 Y66.419 E1.8025
G1 X162.499 Y66.445 E1.19745
G1 X201.201 Y80.721 E1.2934
G1 X201.658 Y80.992 E.01666
M73 P3 R168
M73 Q3 S169
G1 X202.203 Y81.664 E.02713
G1 X202.356 Y82.092 E.01425
G1 X202.409 Y82.533 E.01393
G1 X202.409 Y158.736 E2.38929
G1 X202.335 Y159.26 E.01659
G1 X201.941 Y160.006 E.02645
G1 X201.502 Y160.393 E.01835
G1 X200.668 Y160.696 E.02782
G1 X143.296 Y168.099 E1.81377
G1 X58.02 Y168.099 E2.67377
G1 X57.459 Y168.014 E.01779
G1 X57.045 Y167.835 E.01414
G1 X56.676 Y167.561 E.01441
G1 X56.293 Y167.062 E.01972
G1 X56.124 Y166.63 E.01454
G1 X56.057 Y166.135 E.01566
G1 X56.074 Y73.802 E2.89504
G1 X56.271 Y73.161 E.02103
G1 X66.989 Y52.126 E.74022
M204 S1000
G1 X67.325 Y52.297 F10800
M204 S800
G1 F1200
G1 X67.414 Y52.123 E.00613
G1 X67.637 Y51.794 E.01246
G1 X68.168 Y51.396 E.02081
G1 X68.551 Y51.275 E.01259
G1 X69.262 Y51.306 E.02231
G1 X124.256 Y66.796 E1.79139
G1 X162.4 Y66.811 E1.19598
G1 X201.056 Y81.069 E1.29185
G1 X201.412 Y81.278 E.01294
G1 X201.872 Y81.846 E.02292
G1 X202.032 Y82.543 E.02242
G1 X202.032 Y158.724 E2.3886
G1 X201.976 Y159.143 E.01325
M73 Q3 S168
G1 X201.644 Y159.773 E.02233
G1 X201.311 Y160.067 E.01393
G1 X200.61 Y160.323 E.0234
G1 X143.284 Y167.722 E1.81233
G1 X58.033 Y167.722 E2.67299
G1 X57.585 Y167.657 E.01419
G1 X56.925 Y167.277 E.02388
G1 X56.635 Y166.899 E.01494
G1 X56.434 Y166.124 E.0251
G1 X56.449 Y73.841 E2.89347
G1 X56.61 Y73.325 E.01695
G1 X67.298 Y52.351 E.73809
M204 S1000
