; generated by PrusaSlicer 2.9.3 on 2025-10-25 at 17:04:01 UTC


;
;
; 

; external perimeters extrusion width = 0.45mm
; perimeters extrusion width = 0.45mm
; infill extrusion width = 0.45mm
; solid infill extrusion width = 0.45mm
; top infill extrusion width = 0.40mm
; support material extrusion width = 0.35mm
; first layer extrusion width = 0.42mm

M73 P0 R170
M73 Q0 S171
M201 X1000 Y1000 Z200 E5000 ; sets maximum accelerations, mm/sec^2
M203 X200 Y200 Z12 E120 ; sets maximum feedrates, mm / sec
M204 S1250 T1250 ; sets acceleration (S) and retract acceleration (R), mm/sec^2
M205 X8.00 Y8.00 Z0.40 E4.50 ; sets the jerk limits, mm/sec
M205 S0 T0 ; sets the minimum extruding and travel feed rate, mm/sec

; printing object sofle_pico_backplate_v3.4_no_tenting_puck.stl id:0 copy 0
; stop printing object sofle_pico_backplate_v3.4_no_tenting_puck.stl id:0 copy 0

;TYPE:Custom
M862.3 P "MK3S" ; printer model check
M862.1 P0.4 ; nozzle diameter check
M115 U3.14.1 ; tell printer latest fw version
G90 ; use absolute coordinates
M83 ; extruder relative mode
M104 S215 ; set extruder temp
M140 S60 ; set bed temp
M190 S60 ; wait for bed temp
M109 S215 ; wait for extruder temp
G28 W ; home all without mesh bed level
G80 X42.3817 Y38.2773 W165.608 H133.962 ; mesh bed levelling

G1 Z0.2 F720
G1 Y-3 F1000 ; go outside print area
G92 E0
G1 X60 E9 F1000 ; intro line
G1 X100 E12.5 F1000 ; intro line

G92 E0
M221 S95

; Don't change E values below. Excessive value can damage the printer.
M907 E430 ; set extruder motor current
G21 ; set units to millimeters
G90 ; use absolute coordinates
M83 ; use relative distances for extrusion

M900 K0.05 ; Filament gcode LA 1.5
M900 K30 ; Filament gcode LA 1.0




M107
;LAYER_CHANGE
;Z:0.2
;HEIGHT:0.2
G1 E-.8 F2100
G1 Z.6 F720
G1 X55.011 Y42.482 F10800
G1 Z.2 F720
G1 E.8 F2100
M204 S800
;TYPE:Skirt/Brim
;WIDTH:0.42
G1 F1200
G1 X55.791 Y41.534 E.03849
G1 X56.549 Y40.808 E.03291
G1 X57.528 Y40.068 E.03848
G1 X58.434 Y39.538 E.03291
G1 X59.56 Y39.047 E.03852
G1 X60.81 Y38.686 E.04079
G1 X61.846 Y38.52 E.0329
G1 X63.073 Y38.468 E.03851
G1 X64.761 Y38.653 E.05324
G1 X199.243 Y67.464 E4.31227
G1 X200.488 Y67.836 E.04074
G1 X201.449 Y68.256 E.03288
G1 X202.509 Y68.875 E.03849
G1 X203.537 Y69.673 E.0408
G1 X204.856 Y71.109 E.06114
G1 X205.401 Y71.919 E.03061
G1 X205.892 Y72.846 E.03289
G1 X206.528 Y74.69 E.06116
G1 X206.782 Y76.623 E.06113
G1 X207.801 Y155.625 E2.47726
G1 X207.612 Y157.492 E.05884
G1 X207.16 Y159.053 E.05095
G1 X206.453 Y160.517 E.05098
G1 X205.464 Y161.899 E.05328
G1 X204.052 Y163.243 E.06112
G1 X202.399 Y164.277 E.06113
G1 X200.572 Y164.959 E.06115
G1 X198.656 Y165.261 E.06082
G1 X53.046 Y172.046 E4.57045
G1 X51.35 Y171.947 E.05327
M73 Q0 S170
G1 X49.529 Y171.494 E.05884
G1 X47.766 Y170.661 E.06114
G1 X46.393 Y169.66 E.05328
G1 X45.061 Y168.236 E.06114
G1 X44.041 Y166.575 E.06112
G1 X43.374 Y164.742 E.06116
G1 X43.088 Y162.814 E.06111
G1 X42.57 Y68.037 E2.97171
G1 X42.641 Y66.726 E.04117
G1 X43.047 Y64.894 E.05883
G1 X43.68 Y63.396 E.05099
G1 X54.31 Y43.607 E.70432
G1 X54.979 Y42.533 E.03967
M204 S1000
;WIPE_START
G1 F8640
G1 X55.011 Y42.482 E-.0139
G1 X55.791 Y41.534 E-.28347
G1 X56.549 Y40.808 E-.24235
G1 X57.448 Y40.129 E-.26028
;WIPE_END
G1 Z.6 F720
; printing object sofle_pico_backplate_v3.4_no_tenting_puck.stl id:0 copy 0
G1 X100.902 Y101.477 F10800
G1 Z.2 F720
G1 E.8 F2100
M204 S800
;TYPE:Perimeter
;WIDTH:0.419999
G1 F1200
G1 X100.832 Y101.503 E.00234
G1 X100.342 Y101.548 E.01543
G1 X99.857 Y101.465 E.01543
G1 X99.41 Y101.258 E.01545
G1 X99.073 Y100.992 E.01346
G1 X98.769 Y100.588 E.01585
G1 X98.582 Y100.112 E.01604
G1 X98.53 Y99.606 E.01595
G1 X98.614 Y99.107 E.01587
G1 X98.799 Y98.702 E.01396
G1 X99.113 Y98.298 E.01604
G1 X99.525 Y98.001 E.01592
G1 X100 Y97.825 E.01588
G1 X100.44 Y97.783 E.01386
G1 X100.953 Y97.854 E.01624
G1 X101.422 Y98.069 E.01618
G1 X101.801 Y98.384 E.01545
G1 X102.085 Y98.786 E.01543
G1 X102.255 Y99.247 E.01541
G1 X102.3 Y99.738 E.01546
G1 X102.217 Y100.223 E.01543
G1 X102.011 Y100.67 E.01543
G1 X101.696 Y101.048 E.01543
G1 X101.294 Y101.332 E.01543
G1 X100.959 Y101.456 E.0112
M204 S1000
G1 X100.807 Y101.12 F10800
M204 S800
;TYPE:External perimeter
G1 F1200
G1 X100.783 Y101.129 E.0008
G1 X100.391 Y101.174 E.01237
G1 X99.912 Y101.079 E.01531
G1 X99.64 Y100.959 E.00932
G1 X99.345 Y100.73 E.01171
G1 X99.088 Y100.38 E.01361
G1 X98.948 Y100.01 E.0124
G1 X98.906 Y99.639 E.01171
G1 X98.964 Y99.249 E.01236
G1 X99.104 Y98.924 E.0111
G1 X99.365 Y98.579 E.01356
G1 X99.682 Y98.343 E.01239
G1 X100.049 Y98.198 E.01237
G1 X100.4 Y98.158 E.01108
G1 X100.83 Y98.211 E.01358
G1 X101.193 Y98.368 E.0124
G1 X101.501 Y98.613 E.01234
G1 X101.736 Y98.93 E.01237
G1 X101.881 Y99.297 E.01237
G1 X101.926 Y99.688 E.01234
G1 X101.869 Y100.078 E.01236
G1 X101.712 Y100.44 E.01237
G1 X101.467 Y100.749 E.01236
G1 X101.06 Y101.021 E.01535
G1 X100.862 Y101.098 E.00666
M204 S1000
;WIPE_START
G1 F8640
G1 X100.807 Y101.12 E-.01368
G1 X100.783 Y101.129 E-.00592
G1 X100.391 Y101.174 E-.09111
G1 X99.912 Y101.079 E-.11276
G1 X99.64 Y100.959 E-.06865
G1 X99.345 Y100.73 E-.08623
G1 X99.088 Y100.38 E-.10026
G1 X98.948 Y100.01 E-.09135
G1 X98.906 Y99.639 E-.08621
G1 X98.964 Y99.249 E-.09104
G1 X99.054 Y99.039 E-.05279
;WIPE_END
G1 Z.6 F720
G1 X76.512 Y108.347 F10800
G1 Z.2 F720
G1 E.8 F2100
M204 S800
;TYPE:Perimeter
G1 F1200
G1 X76.443 Y108.373 E.00231
G1 X75.952 Y108.418 E.01546
G1 X75.467 Y108.334 E.01543
G1 X75.065 Y108.151 E.01385
G1 X74.663 Y107.84 E.01594
G1 X74.358 Y107.412 E.01648
G1 X74.187 Y106.95 E.01545
G1 X74.142 Y106.46 E.01543
G1 X74.225 Y105.975 E.01543
G1 X74.431 Y105.528 E.01543
G1 X74.746 Y105.149 E.01545
G1 X75.148 Y104.865 E.01543
G1 X75.61 Y104.695 E.01544
G1 X76.05 Y104.653 E.01386
G1 X76.562 Y104.724 E.01621
G1 X77.021 Y104.93 E.01577
G1 X77.411 Y105.253 E.01588
G1 X77.703 Y105.675 E.01609
G1 X77.868 Y106.137 E.01538
G1 X77.91 Y106.607 E.0148
G1 X77.827 Y107.093 E.01546
G1 X77.621 Y107.54 E.01543
G1 X77.306 Y107.918 E.01543
G1 X76.904 Y108.202 E.01543
G1 X76.569 Y108.326 E.0112
M204 S1000
G1 X76.417 Y107.99 F10800
M204 S800
;TYPE:External perimeter
G1 F1200
G1 X76.393 Y107.999 E.0008
G1 X76.002 Y108.044 E.01234
G1 X75.612 Y107.986 E.01236
G1 X75.287 Y107.846 E.0111
G1 X74.941 Y107.584 E.01361
G1 X74.706 Y107.267 E.01237
G1 X74.561 Y106.901 E.01234
G1 X74.516 Y106.509 E.01237
G1 X74.574 Y106.119 E.01236
G1 X74.731 Y105.757 E.01237
G1 X74.976 Y105.448 E.01236
G1 X75.292 Y105.213 E.01235
G1 X75.659 Y105.068 E.01237
G1 X76.01 Y105.028 E.01108
G1 X76.441 Y105.081 E.01362
G1 X76.803 Y105.238 E.01237
G1 X77.112 Y105.483 E.01236
G1 X77.354 Y105.819 E.01298
G1 X77.494 Y106.186 E.01232
G1 X77.537 Y106.558 E.01174
G1 X77.479 Y106.948 E.01236
G1 X77.322 Y107.31 E.01237
G1 X77.077 Y107.619 E.01236
G1 X76.76 Y107.854 E.01237
G1 X76.473 Y107.968 E.00968
M204 S1000
;WIPE_START
G1 F8640
G1 X76.417 Y107.99 E-.01389
G1 X76.393 Y107.999 E-.00592
G1 X76.002 Y108.044 E-.09088
G1 X75.612 Y107.986 E-.09104
G1 X75.287 Y107.846 E-.08171
G1 X74.941 Y107.584 E-.10021
G1 X74.706 Y107.267 E-.09112
G1 X74.561 Y106.901 E-.0909
G1 X74.516 Y106.509 E-.09111
G1 X74.574 Y106.119 E-.09104
G1 X74.664 Y105.912 E-.05218
;WIPE_END
G1 Z.6 F720
G1 X54.722 Y96.61 F10800
G1 Z.2 F720
G1 E.8 F2100
M204 S800
;TYPE:Perimeter
G1 F1200
G1 X54.696 Y96.54 E.00234
G1 X54.651 Y96.05 E.01543
G1 X54.735 Y95.565 E.01543
G1 X54.941 Y95.118 E.01543
G1 X55.255 Y94.739 E.01543
G1 X55.657 Y94.455 E.01543
G1 X56.119 Y94.285 E.01544
G1 X56.56 Y94.243 E.01389
G1 X57.094 Y94.323 E.01693
G1 X57.555 Y94.539 E.01596
G1 X57.92 Y94.844 E.01491
G1 X58.204 Y95.246 E.01543
G1 X58.347 Y95.593 E.01177
G1 X58.424 Y96.1 E.01608
G1 X58.351 Y96.643 E.01718
G1 X58.144 Y97.112 E.01607
G1 X57.825 Y97.501 E.01577
G1 X57.414 Y97.792 E.01579
G1 X56.952 Y97.963 E.01545
G1 X56.462 Y98.008 E.01543
G1 X55.977 Y97.925 E.01543
G1 X55.53 Y97.719 E.01543
G1 X55.151 Y97.404 E.01545
G1 X54.867 Y97.002 E.01543
G1 X54.743 Y96.666 E.01123
M204 S1000
G1 X55.08 Y96.514 F10800
M204 S800
;TYPE:External perimeter
G1 F1200
G1 X55.07 Y96.491 E.00079
G1 X55.025 Y96.099 E.01237
G1 X55.083 Y95.709 E.01236
G1 X55.24 Y95.347 E.01237
G1 X55.485 Y95.038 E.01236
G1 X55.802 Y94.803 E.01237
G1 X56.168 Y94.659 E.01233
G1 X56.52 Y94.618 E.01111
G1 X56.95 Y94.671 E.01358
G1 X57.325 Y94.838 E.01287
G1 X57.621 Y95.073 E.01185
G1 X57.856 Y95.39 E.01237
G1 X57.992 Y95.719 E.01116
G1 X58.046 Y96.148 E.01356
G1 X57.988 Y96.538 E.01236
G1 X57.831 Y96.9 E.01237
G1 X57.586 Y97.209 E.01236
G1 X57.269 Y97.444 E.01237
G1 X56.903 Y97.589 E.01234
G1 X56.511 Y97.634 E.01237
G1 X56.121 Y97.576 E.01236
G1 X55.759 Y97.419 E.01237
G1 X55.45 Y97.174 E.01236
G1 X55.215 Y96.858 E.01235
G1 X55.102 Y96.57 E.0097
M204 S1000
;WIPE_START
G1 F8640
G1 X55.08 Y96.514 E-.01389
G1 X55.07 Y96.491 E-.00579
G1 X55.025 Y96.099 E-.09111
G1 X55.083 Y95.709 E-.09104
G1 X55.24 Y95.347 E-.09111
G1 X55.485 Y95.038 E-.09105
G1 X55.802 Y94.803 E-.09112
G1 X56.168 Y94.659 E-.09082
G1 X56.52 Y94.618 E-.08183
G1 X56.95 Y94.671 E-.10004
G1 X57.157 Y94.763 E-.0522
;WIPE_END
G1 Z.6 F720
G1 X72.851 Y77.533 F10800
G1 Z.2 F720
G1 E.8 F2100
M204 S800
;TYPE:Perimeter
G1 F1200
G1 X72.808 Y77.472 E.00234
G1 X72.637 Y77.01 E.01545
G1 X72.592 Y76.52 E.01543
G1 X72.675 Y76.035 E.01543
M73 P0 R169
G1 X72.881 Y75.588 E.01543
G1 X73.196 Y75.209 E.01545
G1 X73.598 Y74.925 E.01543
G1 X74.06 Y74.755 E.01544
G1 X74.5 Y74.713 E.01386
G1 X74.997 Y74.779 E.01572
G1 X75.482 Y74.999 E.0167
G1 X75.861 Y75.314 E.01545
G1 X76.145 Y75.716 E.01543
G1 X76.315 Y76.178 E.01544
G1 X76.36 Y76.668 E.01543
G1 X76.277 Y77.153 E.01543
G1 X76.071 Y77.6 E.01543
G1 X75.756 Y77.978 E.01543
G1 X75.354 Y78.262 E.01543
G1 X74.893 Y78.433 E.01542
G1 X74.402 Y78.478 E.01546
G1 X73.917 Y78.395 E.01543
G1 X73.47 Y78.189 E.01543
G1 X73.092 Y77.874 E.01543
G1 X72.885 Y77.582 E.01122
M204 S1000
G1 X73.171 Y77.348 F10800
M204 S800
;TYPE:External perimeter
G1 F1200
G1 X73.156 Y77.328 E.00078
G1 X73.011 Y76.961 E.01237
G1 X72.975 Y76.504 E.01437
G1 X73.024 Y76.179 E.01031
G1 X73.181 Y75.817 E.01237
G1 X73.426 Y75.509 E.01234
G1 X73.742 Y75.274 E.01235
G1 X74.109 Y75.129 E.01237
G1 X74.46 Y75.088 E.01108
G1 X74.891 Y75.141 E.01362
G1 X75.253 Y75.298 E.01237
G1 X75.562 Y75.543 E.01236
G1 X75.797 Y75.86 E.01237
G1 X75.941 Y76.227 E.01236
G1 X75.987 Y76.618 E.01234
G1 X75.929 Y77.009 E.01239
G1 X75.772 Y77.37 E.01234
G1 X75.527 Y77.679 E.01236
G1 X75.21 Y77.914 E.01237
G1 X74.843 Y78.059 E.01237
G1 X74.452 Y78.104 E.01234
G1 X74.062 Y78.046 E.01236
G1 X73.7 Y77.889 E.01237
G1 X73.391 Y77.644 E.01236
G1 X73.207 Y77.396 E.00968
M204 S1000
;WIPE_START
G1 F8640
G1 X73.171 Y77.348 E-.01385
G1 X73.156 Y77.328 E-.00577
G1 X73.011 Y76.961 E-.09112
G1 X72.975 Y76.504 E-.10585
G1 X73.024 Y76.179 E-.07589
G1 X73.181 Y75.817 E-.09111
G1 X73.426 Y75.509 E-.09087
G1 X73.742 Y75.274 E-.09093
G1 X74.109 Y75.129 E-.09112
G1 X74.46 Y75.088 E-.0816
G1 X74.726 Y75.121 E-.06189
;WIPE_END
G1 Z.6 F720
G1 X100.812 Y135.797 F10800
G1 Z.2 F720
G1 E.8 F2100
M204 S800
;TYPE:Perimeter
G1 F1200
G1 X100.864 Y135.804 E.00165
G1 X101.332 Y136.019 E.01615
G1 X101.711 Y136.333 E.01543
G1 X101.995 Y136.735 E.01543
G1 X102.165 Y137.197 E.01544
G1 X102.21 Y137.687 E.01543
G1 X102.127 Y138.172 E.01543
G1 X101.921 Y138.619 E.01543
G1 X101.606 Y138.998 E.01545
G1 X101.204 Y139.282 E.01543
G1 X100.743 Y139.452 E.01541
G1 X100.252 Y139.498 E.01546
G1 X99.767 Y139.414 E.01543
G1 X99.32 Y139.208 E.01543
G1 X98.942 Y138.893 E.01543
G1 X98.658 Y138.492 E.01541
G1 X98.487 Y138.03 E.01545
G1 X98.442 Y137.54 E.01543
G1 X98.525 Y137.054 E.01546
G1 X98.731 Y136.607 E.01543
G1 X99.046 Y136.229 E.01543
G1 X99.448 Y135.945 E.01543
G1 X99.91 Y135.774 E.01545
G1 X100.35 Y135.732 E.01386
G1 X100.753 Y135.789 E.01276
M204 S1000
G1 X100.716 Y136.158 F10800
M204 S800
;TYPE:External perimeter
G1 F1200
G1 X100.741 Y136.161 E.00079
G1 X101.103 Y136.318 E.01237
G1 X101.412 Y136.563 E.01236
G1 X101.646 Y136.88 E.01235
G1 X101.791 Y137.246 E.01234
G1 X101.836 Y137.638 E.01237
G1 X101.779 Y138.028 E.01236
G1 X101.622 Y138.39 E.01237
G1 X101.377 Y138.699 E.01236
G1 X101.06 Y138.934 E.01237
G1 X100.693 Y139.079 E.01237
G1 X100.302 Y139.124 E.01234
G1 X99.911 Y139.066 E.01239
G1 X99.55 Y138.909 E.01234
G1 X99.241 Y138.664 E.01236
G1 X99.006 Y138.347 E.01237
G1 X98.861 Y137.981 E.01234
G1 X98.816 Y137.589 E.01237
G1 X98.874 Y137.199 E.01236
G1 X99.031 Y136.837 E.01237
G1 X99.276 Y136.528 E.01236
G1 X99.592 Y136.293 E.01235
G1 X100.049 Y136.136 E.01515
G1 X100.31 Y136.107 E.00823
G1 X100.656 Y136.15 E.01093
M204 S1000
;WIPE_START
G1 F8640
G1 X100.716 Y136.158 E-.01398
G1 X100.741 Y136.161 E-.00581
G1 X101.103 Y136.318 E-.09111
G1 X101.412 Y136.563 E-.09105
G1 X101.646 Y136.88 E-.09098
G1 X101.791 Y137.246 E-.0909
G1 X101.836 Y137.638 E-.09111
G1 X101.779 Y138.028 E-.09101
G1 X101.622 Y138.39 E-.09111
G1 X101.377 Y138.699 E-.09105
G1 X101.196 Y138.833 E-.05189
;WIPE_END
G1 Z.6 F720
G1 X84.224 Y158.678 F10800
G1 Z.2 F720
G1 E.8 F2100
M204 S800
;TYPE:Perimeter
G1 F1200
G1 X84.281 Y158.726 E.00234
G1 X84.565 Y159.128 E.01543
G1 X84.735 Y159.589 E.01541
G1 X84.78 Y160.08 E.01546
G1 X84.697 Y160.565 E.01543
G1 X84.491 Y161.012 E.01543
G1 X84.281 Y161.286 E.01082
G1 X83.902 Y161.601 E.01545
;WIDTH:0.456718
G1 X83.623 Y161.739 E.01071
;WIDTH:0.493437
G1 X83.343 Y161.877 E.01169
G1 X82.819 Y161.914 E.01968
;WIDTH:0.490742
G1 X82.475 Y161.88 E.01287
G1 X82.247 Y161.777 E.00932
;WIDTH:0.455371
G1 X82.018 Y161.674 E.00861
;WIDTH:0.419999
G1 X81.616 Y161.39 E.01543
G1 X81.302 Y161.012 E.01541
G1 X81.095 Y160.565 E.01545
G1 X81.012 Y160.08 E.01543
G1 X81.057 Y159.59 E.01543
G1 X81.265 Y159.054 E.01803
G1 X81.591 Y158.642 E.01647
G1 X82 Y158.345 E.01585
G1 X82.48 Y158.167 E.01605
G1 X82.92 Y158.125 E.01386
G1 X83.432 Y158.196 E.01621
G1 X83.902 Y158.411 E.01621
G1 X84.177 Y158.64 E.01122
M204 S1000
G1 X83.962 Y158.94 F10800
M204 S800
;TYPE:External perimeter
G1 F1200
G1 X83.982 Y158.955 E.00078
G1 X84.217 Y159.272 E.01237
G1 X84.362 Y159.639 E.01237
G1 X84.407 Y160.03 E.01234
G1 X84.349 Y160.42 E.01236
G1 X84.192 Y160.782 E.01237
G1 X83.982 Y161.056 E.01082
G1 X83.63 Y161.326 E.01391
G1 X83.263 Y161.471 E.01237
G1 X82.872 Y161.516 E.01234
G1 X82.482 Y161.458 E.01236
G1 X82.12 Y161.301 E.01237
G1 X81.811 Y161.056 E.01236
G1 X81.576 Y160.74 E.01235
G1 X81.431 Y160.373 E.01237
G1 X81.386 Y159.981 E.01237
G1 X81.444 Y159.591 E.01236
G1 X81.601 Y159.229 E.01237
G1 X81.846 Y158.92 E.01236
G1 X82.162 Y158.686 E.01233
G1 X82.529 Y158.541 E.01237
G1 X82.88 Y158.5 E.01108
G1 X83.311 Y158.553 E.01362
G1 X83.673 Y158.71 E.01237
G1 X83.915 Y158.902 E.00969
M204 S1000
;WIPE_START
G1 F8640
G1 X83.962 Y158.94 E-.01396
G1 X83.982 Y158.955 E-.00577
G1 X84.217 Y159.272 E-.09112
G1 X84.362 Y159.639 E-.09112
G1 X84.407 Y160.03 E-.09088
G1 X84.349 Y160.42 E-.09104
G1 X84.192 Y160.782 E-.09111
G1 X83.982 Y161.056 E-.07971
G1 X83.63 Y161.326 E-.10243
G1 X83.263 Y161.471 E-.09112
G1 X83.04 Y161.497 E-.05174
;WIPE_END
G1 Z.6 F720
G1 X176.237 Y136.839 F10800
G1 Z.2 F720
G1 E.8 F2100
M204 S800
;TYPE:Perimeter
G1 F1200
G1 X176.17 Y136.808 E.00231
G1 X175.791 Y136.493 E.01545
G1 X175.507 Y136.092 E.01541
G1 X175.336 Y135.63 E.01545
G1 X175.291 Y135.14 E.01543
G1 X175.375 Y134.654 E.01546
G1 X175.581 Y134.207 E.01543
G1 X175.895 Y133.829 E.01541
G1 X176.297 Y133.545 E.01543
G1 X176.759 Y133.374 E.01545
G1 X177.2 Y133.332 E.01389
G1 X177.708 Y133.402 E.01608
G1 X178.15 Y133.596 E.01513
G1 X178.56 Y133.933 E.01664
G1 X178.844 Y134.335 E.01543
G1 X179.015 Y134.797 E.01545
G1 X179.06 Y135.287 E.01543
G1 X178.976 Y135.772 E.01543
G1 X178.77 Y136.219 E.01543
G1 X178.456 Y136.598 E.01543
G1 X178.054 Y136.882 E.01543
G1 X177.592 Y137.052 E.01544
G1 X177.102 Y137.098 E.01543
G1 X176.617 Y137.014 E.01543
G1 X176.292 Y136.865 E.01121
M204 S1000
G1 X176.422 Y136.519 F10800
M204 S800
;TYPE:External perimeter
G1 F1200
G1 X176.399 Y136.509 E.00079
G1 X176.09 Y136.264 E.01236
G1 X175.855 Y135.947 E.01237
G1 X175.71 Y135.58 E.01237
G1 X175.665 Y135.189 E.01234
G1 X175.723 Y134.799 E.01236
