; generated by PrusaSlicer 2.9.3 on 2025-10-23 at 20:53:14 UTC


;
;
; 

; external perimeters extrusion width = 0.45mm
; perimeters extrusion width = 0.45mm
; infill extrusion width = 0.45mm
; solid infill extrusion width = 0.45mm
; top infill extrusion width = 0.40mm
; support material extrusion width = 0.35mm
; first layer extrusion width = 0.42mm

M73 P0 R168
M73 Q0 S169
M201 X1000 Y1000 Z200 E5000 ; sets maximum accelerations, mm/sec^2
M203 X200 Y200 Z12 E120 ; sets maximum feedrates, mm / sec
M204 S1250 T1250 ; sets acceleration (S) and retract acceleration (R), mm/sec^2
M205 X8.00 Y8.00 Z0.40 E4.50 ; sets the jerk limits, mm/sec
M205 S0 T0 ; sets the minimum extruding and travel feed rate, mm/sec

; printing object sofle_pico_backplate_v3.4_no_tenting_puck.stl id:0 copy 0
; stop printing object sofle_pico_backplate_v3.4_no_tenting_puck.stl id:0 copy 0

;TYPE:Custom
M862.3 P "MK3S" ; printer model check
M862.1 P0.4 ; nozzle diameter check
M115 U3.14.1 ; tell printer latest fw version
G90 ; use absolute coordinates
M83 ; extruder relative mode
M104 S215 ; set extruder temp
M140 S60 ; set bed temp
M190 S60 ; wait for bed temp
M109 S215 ; wait for extruder temp
G28 W ; home all without mesh bed level
G80 X45.0558 Y44.4811 W150.175 H121.044 ; mesh bed levelling

G1 Z0.2 F720
G1 Y-3 F1000 ; go outside print area
G92 E0
G1 X60 E9 F1000 ; intro line
G1 X100 E12.5 F1000 ; intro line

G92 E0
M221 S95

; Don't change E values below. Excessive value can damage the printer.
M907 E430 ; set extruder motor current
G21 ; set units to millimeters
G90 ; use absolute coordinates
M83 ; use relative distances for extrusion

M900 K0.05 ; Filament gcode LA 1.5
M900 K30 ; Filament gcode LA 1.0




M107
;LAYER_CHANGE
;Z:0.2
;HEIGHT:0.2
G1 E-.8 F2100
M73 Q0 S168
G1 Z.6 F720
G1 X46.535 Y75.254 F10800
G1 Z.2 F720
G1 E.8 F2100
M204 S800
;TYPE:Skirt/Brim
;WIDTH:0.42
G1 F1200
G1 X47.581 Y74.618 E.03838
G1 X86.673 Y60.24 E1.30598
G1 X179.787 Y44.745 E2.95967
G1 X180.658 Y44.67 E.02741
G1 X181.801 Y44.889 E.03649
G1 X182.55 Y45.263 E.02625
G1 X183.195 Y45.796 E.02624
G1 X183.703 Y46.461 E.02624
G1 X194.64 Y67.893 E.75443
G1 X194.915 Y68.62 E.02437
G1 X195.022 Y69.21 E.0188
G1 X195.042 Y161.648 E2.89833
G1 X194.972 Y162.322 E.02125
G1 X194.674 Y163.236 E.03014
G1 X194.15 Y164.041 E.03012
G1 X193.746 Y164.445 E.01791
G1 X193.435 Y164.684 E.0123
G1 X192.579 Y165.119 E.03011
G1 X191.353 Y165.337 E.03904
G1 X106.082 Y165.337 E2.67361
G1 X48.489 Y157.92 E1.8207
G1 X47.899 Y157.791 E.01894
G1 X47.079 Y157.436 E.02802
G1 X46.369 Y156.896 E.02797
G1 X46.017 Y156.5 E.01661
G1 X45.432 Y155.39 E.03934
G1 X45.244 Y154.248 E.03629
G1 X45.244 Y78.049 E2.38917
G1 X45.299 Y77.449 E.01889
G1 X45.536 Y76.627 E.02682
G1 X45.955 Y75.882 E.0268
G1 X46.494 Y75.298 E.02492
M204 S1000
;WIPE_START
G1 F8640
G1 X46.535 Y75.254 E-.01389
G1 X47.581 Y74.618 E-.28267
G1 X49.627 Y73.865 E-.50344
;WIPE_END
G1 Z.6 F720
; printing object sofle_pico_backplate_v3.4_no_tenting_puck.stl id:0 copy 0
G1 X146.054 Y98.336 F10800
G1 Z.2 F720
G1 E.8 F2100
M204 S800
;TYPE:Perimeter
;WIDTH:0.419999
G1 F1200
G1 X146.112 Y98.384 E.00236
G1 X146.396 Y98.786 E.01543
G1 X146.566 Y99.247 E.01541
G1 X146.611 Y99.738 E.01546
G1 X146.528 Y100.223 E.01543
G1 X146.322 Y100.67 E.01543
G1 X146.007 Y101.048 E.01543
G1 X145.605 Y101.332 E.01543
G1 X145.143 Y101.503 E.01545
G1 X144.653 Y101.548 E.01543
G1 X144.168 Y101.465 E.01543
G1 X143.721 Y101.258 E.01545
G1 X143.343 Y100.944 E.01541
G1 X143.088 Y100.603 E.01335
G1 X142.904 Y100.127 E.016
G1 X142.839 Y99.628 E.01578
G1 X142.92 Y99.12 E.01613
G1 X143.129 Y98.662 E.01578
G1 X143.447 Y98.279 E.01561
G1 X143.849 Y97.995 E.01543
G1 X144.311 Y97.825 E.01544
G1 X144.751 Y97.783 E.01386
G1 X145.248 Y97.849 E.01572
G1 X145.717 Y98.057 E.01609
G1 X146.008 Y98.298 E.01185
M204 S1000
G1 X145.793 Y98.598 F10800
M204 S800
;TYPE:External perimeter
G1 F1200
G1 X145.812 Y98.613 E.00076
G1 X146.047 Y98.93 E.01237
G1 X146.192 Y99.297 E.01237
G1 X146.237 Y99.688 E.01234
G1 X146.179 Y100.078 E.01236
G1 X146.023 Y100.44 E.01236
G1 X145.778 Y100.749 E.01236
G1 X145.461 Y100.984 E.01237
G1 X145.094 Y101.129 E.01237
G1 X144.702 Y101.174 E.01237
G1 X144.312 Y101.116 E.01236
G1 X143.951 Y100.959 E.01234
G1 X143.642 Y100.714 E.01236
G1 X143.417 Y100.418 E.01166
G1 X143.276 Y100.069 E.0118
G1 X143.217 Y99.639 E.01361
G1 X143.275 Y99.249 E.01236
G1 X143.431 Y98.887 E.01236
G1 X143.677 Y98.578 E.01238
G1 X143.993 Y98.343 E.01235
G1 X144.36 Y98.198 E.01237
G1 X144.711 Y98.158 E.01108
G1 X145.141 Y98.211 E.01358
G1 X145.504 Y98.368 E.0124
G1 X145.746 Y98.56 E.00969
M204 S1000
;WIPE_START
G1 F8640
G1 X145.793 Y98.598 E-.01396
G1 X145.812 Y98.613 E-.00559
G1 X146.047 Y98.93 E-.09112
G1 X146.192 Y99.297 E-.09112
G1 X146.237 Y99.688 E-.09088
G1 X146.179 Y100.078 E-.09104
G1 X146.023 Y100.44 E-.09102
G1 X145.778 Y100.749 E-.09105
G1 X145.461 Y100.984 E-.09112
G1 X145.094 Y101.129 E-.09112
G1 X144.871 Y101.155 E-.05198
;WIPE_END
G1 Z.6 F720
G1 X170.931 Y106.047 F10800
G1 Z.2 F720
G1 E.8 F2100
M204 S800
;TYPE:Perimeter
G1 F1200
G1 X170.94 Y106.07 E.00077
G1 X171.001 Y106.607 E.01695
G1 X170.918 Y107.093 E.01546
G1 X170.712 Y107.54 E.01543
G1 X170.397 Y107.918 E.01543
G1 X169.995 Y108.202 E.01543
G1 X169.533 Y108.373 E.01545
G1 X169.043 Y108.418 E.01543
G1 X168.659 Y108.366 E.01215
M73 P0 R167
G1 X168.188 Y108.178 E.0159
G1 X167.776 Y107.865 E.01622
G1 X167.473 Y107.463 E.01578
G1 X167.286 Y106.997 E.01574
G1 X167.229 Y106.494 E.01587
G1 X167.31 Y105.99 E.01601
G1 X167.522 Y105.528 E.01594
G1 X167.837 Y105.149 E.01545
G1 X168.239 Y104.865 E.01543
G1 X168.701 Y104.695 E.01544
G1 X169.141 Y104.653 E.01386
G1 X169.652 Y104.724 E.01618
G1 X170.123 Y104.939 E.01623
G1 X170.501 Y105.254 E.01543
G1 X170.785 Y105.655 E.01541
G1 X170.911 Y105.991 E.01125
M204 S1000
G1 X170.57 Y106.145 F10800
M204 S800
;TYPE:External perimeter
G1 F1200
G1 X170.627 Y106.558 E.01307
G1 X170.569 Y106.948 E.01236
G1 X170.412 Y107.31 E.01237
G1 X170.167 Y107.619 E.01236
G1 X169.851 Y107.854 E.01235
G1 X169.484 Y107.999 E.01237
G1 X169.092 Y108.044 E.01237
G1 X168.736 Y107.996 E.01126
G1 X168.34 Y107.829 E.01348
G1 X168.031 Y107.584 E.01236
G1 X167.797 Y107.267 E.01235
G1 X167.652 Y106.901 E.01234
G1 X167.607 Y106.509 E.01237
G1 X167.664 Y106.119 E.01236
G1 X167.821 Y105.757 E.01237
G1 X168.066 Y105.448 E.01236
G1 X168.383 Y105.213 E.01237
G1 X168.75 Y105.068 E.01237
G1 X169.101 Y105.028 E.01108
G1 X169.531 Y105.081 E.01358
G1 X169.893 Y105.238 E.01237
G1 X170.202 Y105.483 E.01236
G1 X170.437 Y105.8 E.01237
G1 X170.551 Y106.088 E.00971
M204 S1000
;WIPE_START
G1 F8640
G1 X170.57 Y106.145 E-.01387
G1 X170.627 Y106.558 E-.09627
G1 X170.569 Y106.948 E-.09104
G1 X170.412 Y107.31 E-.09111
G1 X170.167 Y107.619 E-.09105
G1 X169.851 Y107.854 E-.09093
G1 X169.484 Y107.999 E-.09112
G1 X169.092 Y108.044 E-.09111
G1 X168.736 Y107.996 E-.08295
G1 X168.495 Y107.894 E-.06055
;WIPE_END
G1 Z.6 F720
G1 X189.094 Y97.937 F10800
G1 Z.2 F720
G1 E.8 F2100
M204 S800
;TYPE:Perimeter
G1 F1200
G1 X189.024 Y97.963 E.00234
G1 X188.534 Y98.008 E.01543
G1 X188.049 Y97.925 E.01543
G1 X187.602 Y97.719 E.01543
G1 X187.223 Y97.404 E.01545
G1 X186.939 Y97.002 E.01543
G1 X186.769 Y96.54 E.01544
G1 X186.723 Y96.05 E.01543
G1 X186.807 Y95.565 E.01543
G1 X186.946 Y95.228 E.01143
G1 X187.247 Y94.815 E.01602
G1 X187.678 Y94.48 E.01712
G1 X188.191 Y94.285 E.01721
G1 X188.632 Y94.243 E.01389
G1 X189.166 Y94.323 E.01693
G1 X189.614 Y94.529 E.01546
G1 X189.992 Y94.844 E.01543
G1 X190.276 Y95.246 E.01543
G1 X190.447 Y95.707 E.01542
G1 X190.492 Y96.198 E.01546
G1 X190.408 Y96.683 E.01543
G1 X190.202 Y97.13 E.01543
G1 X189.888 Y97.508 E.01541
G1 X189.486 Y97.792 E.01543
G1 X189.15 Y97.916 E.01123
M204 S1000
G1 X188.998 Y97.58 F10800
M204 S800
;TYPE:External perimeter
G1 F1200
G1 X188.975 Y97.589 E.00077
G1 X188.583 Y97.634 E.01237
G1 X188.193 Y97.576 E.01236
G1 X187.831 Y97.419 E.01237
G1 X187.522 Y97.174 E.01236
G1 X187.287 Y96.858 E.01235
G1 X187.142 Y96.491 E.01237
G1 X187.097 Y96.099 E.01237
G1 X187.155 Y95.709 E.01236
G1 X187.29 Y95.384 E.01103
G1 X187.557 Y95.038 E.0137
G1 X187.874 Y94.803 E.01237
G1 X188.24 Y94.659 E.01233
G1 X188.592 Y94.618 E.01111
G1 X189.022 Y94.671 E.01358
G1 X189.384 Y94.828 E.01237
G1 X189.693 Y95.073 E.01236
G1 X189.928 Y95.39 E.01237
G1 X190.073 Y95.757 E.01237
G1 X190.118 Y96.148 E.01234
G1 X190.06 Y96.538 E.01236
G1 X189.903 Y96.9 E.01237
G1 X189.658 Y97.209 E.01236
G1 X189.341 Y97.444 E.01237
G1 X189.054 Y97.558 E.00968
M204 S1000
;WIPE_START
G1 F8640
G1 X188.998 Y97.58 E-.01389
G1 X188.975 Y97.589 E-.0057
G1 X188.583 Y97.634 E-.09111
G1 X188.193 Y97.576 E-.09104
G1 X187.831 Y97.419 E-.09111
G1 X187.522 Y97.174 E-.09105
G1 X187.287 Y96.858 E-.09093
G1 X187.142 Y96.491 E-.09112
G1 X187.097 Y96.099 E-.09111
G1 X187.155 Y95.709 E-.09104
G1 X187.241 Y95.502 E-.0519
;WIPE_END
G1 Z.6 F720
G1 X171.995 Y77.921 F10800
G1 Z.2 F720
G1 E.8 F2100
M204 S800
;TYPE:Perimeter
G1 F1200
G1 X171.947 Y77.978 E.00234
G1 X171.587 Y78.243 E.01402
G1 X171.119 Y78.427 E.01577
G1 X170.593 Y78.478 E.01657
G1 X170.108 Y78.395 E.01543
G1 X169.661 Y78.189 E.01543
G1 X169.282 Y77.874 E.01545
G1 X168.998 Y77.472 E.01543
G1 X168.828 Y77.01 E.01544
G1 X168.783 Y76.52 E.01543
G1 X168.866 Y76.035 E.01543
G1 X169.072 Y75.588 E.01543
G1 X169.387 Y75.209 E.01545
G1 X169.789 Y74.925 E.01543
G1 X170.251 Y74.755 E.01544
G1 X170.691 Y74.713 E.01386
G1 X171.189 Y74.779 E.01575
G1 X171.673 Y74.999 E.01667
G1 X172.051 Y75.314 E.01543
G1 X172.335 Y75.716 E.01543
G1 X172.506 Y76.177 E.01542
G1 X172.551 Y76.668 E.01546
G1 X172.468 Y77.153 E.01543
G1 X172.262 Y77.6 E.01543
G1 X172.033 Y77.875 E.01122
M204 S1000
G1 X171.723 Y77.65 F10800
M204 S800
;TYPE:External perimeter
G1 F1200
G1 X171.66 Y77.723 E.00302
G1 X171.415 Y77.908 E.00963
G1 X171.034 Y78.059 E.01285
G1 X170.642 Y78.104 E.01237
G1 X170.252 Y78.046 E.01236
G1 X169.89 Y77.889 E.01237
G1 X169.581 Y77.644 E.01236
G1 X169.347 Y77.328 E.01233
G1 X169.202 Y76.961 E.01237
G1 X169.157 Y76.569 E.01237
G1 X169.214 Y76.179 E.01236
G1 X169.371 Y75.817 E.01237
G1 X169.616 Y75.509 E.01234
G1 X169.933 Y75.274 E.01237
G1 X170.3 Y75.129 E.01237
G1 X170.651 Y75.088 E.01108
G1 X171.081 Y75.141 E.01358
G1 X171.443 Y75.298 E.01237
G1 X171.752 Y75.543 E.01236
G1 X172.012 Y75.919 E.01433
G1 X172.132 Y76.227 E.01036
G1 X172.177 Y76.618 E.01234
G1 X172.119 Y77.009 E.01239
G1 X171.962 Y77.37 E.01234
G1 X171.762 Y77.604 E.00965
M204 S1000
;WIPE_START
G1 F8640
G1 X171.723 Y77.65 E-.01393
G1 X171.66 Y77.723 E-.02227
G1 X171.415 Y77.908 E-.07089
G1 X171.034 Y78.059 E-.09463
G1 X170.642 Y78.104 E-.09111
G1 X170.252 Y78.046 E-.09104
G1 X169.89 Y77.889 E-.09111
G1 X169.581 Y77.644 E-.09105
G1 X169.347 Y77.328 E-.09079
G1 X169.202 Y76.961 E-.09112
G1 X169.176 Y76.737 E-.05206
;WIPE_END
G1 Z.6 F720
G1 X145.303 Y135.796 F10800
G1 Z.2 F720
G1 E.8 F2100
M204 S800
;TYPE:Perimeter
G1 F1200
G1 X145.351 Y135.803 E.00152
G1 X145.823 Y136.019 E.01628
G1 X146.201 Y136.333 E.01541
G1 X146.449 Y136.662 E.01292
G1 X146.644 Y137.132 E.01595
G1 X146.706 Y137.631 E.01577
G1 X146.629 Y138.142 E.0162
G1 X146.417 Y138.613 E.01619
G1 X146.097 Y138.998 E.0157
G1 X145.695 Y139.282 E.01543
G1 X145.233 Y139.452 E.01544
G1 X144.743 Y139.498 E.01543
G1 X144.258 Y139.414 E.01543
G1 X143.811 Y139.208 E.01543
G1 X143.432 Y138.893 E.01545
G1 X143.148 Y138.492 E.01541
G1 X142.978 Y138.03 E.01544
G1 X142.933 Y137.54 E.01543
G1 X143.016 Y137.054 E.01546
G1 X143.222 Y136.607 E.01543
G1 X143.537 Y136.229 E.01543
G1 X143.939 Y135.945 E.01543
G1 X144.401 Y135.774 E.01545
G1 X144.841 Y135.732 E.01386
G1 X145.244 Y135.788 E.01276
M204 S1000
G1 X145.204 Y136.168 F10800
M204 S800
;TYPE:External perimeter
G1 F1200
G1 X145.274 Y136.179 E.00222
G1 X145.593 Y136.318 E.01091
G1 X145.902 Y136.563 E.01236
G1 X146.125 Y136.855 E.01152
G1 X146.282 Y137.246 E.01321
G1 X146.327 Y137.638 E.01237
G1 X146.269 Y138.028 E.01236
G1 X146.113 Y138.39 E.01236
G1 X145.867 Y138.699 E.01238
G1 X145.551 Y138.934 E.01235
G1 X145.184 Y139.079 E.01237
G1 X144.792 Y139.124 E.01237
G1 X144.402 Y139.066 E.01236
G1 X144.04 Y138.909 E.01237
G1 X143.732 Y138.664 E.01234
G1 X143.497 Y138.347 E.01237
G1 X143.352 Y137.981 E.01234
G1 X143.307 Y137.589 E.01237
G1 X143.364 Y137.199 E.01236
G1 X143.521 Y136.837 E.01237
G1 X143.766 Y136.528 E.01236
G1 X144.083 Y136.293 E.01237
G1 X144.45 Y136.148 E.01237
G1 X144.801 Y136.107 E.01108
G1 X145.145 Y136.159 E.01091
M204 S1000
;WIPE_START
G1 F8640
G1 X145.204 Y136.168 E-.01378
G1 X145.274 Y136.179 E-.01636
G1 X145.593 Y136.318 E-.08035
G1 X145.902 Y136.563 E-.09105
G1 X146.125 Y136.855 E-.08484
G1 X146.282 Y137.246 E-.09729
G1 X146.327 Y137.638 E-.09111
G1 X146.269 Y138.028 E-.09104
G1 X146.113 Y138.39 E-.09102
G1 X145.867 Y138.699 E-.0912
G1 X145.686 Y138.833 E-.05196
;WIPE_END
G1 Z.6 F720
G1 X160.435 Y159.52 F10800
G1 Z.2 F720
G1 E.8 F2100
M204 S800
;TYPE:Perimeter
G1 F1200
G1 X160.615 Y159.054 E.01566
G1 X160.926 Y158.656 E.01584
G1 X161.085 Y158.531 E.00634
G1 X161.369 Y158.337 E.01078
G1 X161.83 Y158.167 E.01541
G1 X162.271 Y158.125 E.01389
G1 X162.771 Y158.192 E.01582
G1 X163.235 Y158.398 E.01592
G1 X163.631 Y158.726 E.01612
G1 X163.915 Y159.128 E.01543
G1 X164.086 Y159.59 E.01545
G1 X164.131 Y160.08 E.01543
G1 X164.048 Y160.565 E.01543
G1 X163.842 Y161.012 E.01543
G1 X163.527 Y161.39 E.01543
G1 X163.125 Y161.674 E.01543
;WIDTH:0.455388
G1 X162.896 Y161.777 E.00861
;WIDTH:0.490776
G1 X162.668 Y161.88 E.00932
G1 X162.17 Y161.914 E.01859
G1 X161.826 Y161.88 E.01287
G1 X161.597 Y161.777 E.00935
;WIDTH:0.455387
G1 X161.369 Y161.674 E.00858
;WIDTH:0.419999
G1 X160.967 Y161.39 E.01543
G1 X160.652 Y161.012 E.01543
G1 X160.446 Y160.565 E.01543
G1 X160.363 Y160.08 E.01543
G1 X160.408 Y159.589 E.01546
G1 X160.413 Y159.576 E.00044
M204 S1000
G1 X160.791 Y159.616 F10800
M204 S800
;TYPE:External perimeter
G1 F1200
G1 X160.794 Y159.591 E.00079
G1 X160.951 Y159.229 E.01237
G1 X161.196 Y158.92 E.01236
G1 X161.314 Y158.83 E.00465
G1 X161.645 Y158.631 E.01211
G1 X161.997 Y158.525 E.01153
G1 X162.231 Y158.5 E.00738
G1 X162.661 Y158.553 E.01358
G1 X163.023 Y158.71 E.01237
G1 X163.332 Y158.955 E.01236
G1 X163.567 Y159.272 E.01237
G1 X163.712 Y159.639 E.01237
G1 X163.757 Y160.03 E.01234
G1 X163.699 Y160.42 E.01236
G1 X163.542 Y160.782 E.01237
G1 X163.297 Y161.091 E.01236
G1 X162.981 Y161.326 E.01235
G1 X162.614 Y161.471 E.01237
G1 X162.222 Y161.516 E.01237
G1 X161.832 Y161.458 E.01236
G1 X161.47 Y161.301 E.01237
G1 X161.161 Y161.056 E.01236
G1 X160.927 Y160.74 E.01233
G1 X160.782 Y160.373 E.01237
G1 X160.736 Y159.981 E.01238
G1 X160.782 Y159.675 E.0097
M204 S1000
;WIPE_START
G1 F8640
G1 X160.791 Y159.616 E-.01378
G1 X160.794 Y159.591 E-.00581
G1 X160.951 Y159.229 E-.09111
G1 X161.196 Y158.92 E-.09105
G1 X161.314 Y158.83 E-.03427
G1 X161.645 Y158.631 E-.08918
G1 X161.997 Y158.525 E-.08488
G1 X162.231 Y158.5 E-.05434
G1 X162.661 Y158.553 E-.10004
G1 X163.023 Y158.71 E-.09111
G1 X163.332 Y158.955 E-.09105
G1 X163.47 Y159.141 E-.05338
;WIPE_END
G1 Z.6 F720
G1 X68.454 Y133.397 F10800
G1 Z.2 F720
G1 E.8 F2100
M204 S800
;TYPE:Perimeter
G1 F1200
G1 X68.505 Y133.404 E.00161
G1 X68.846 Y133.545 E.01157
G1 X69.26 Y133.839 E.01592
G1 X69.578 Y134.228 E.01575
G1 X69.781 Y134.689 E.01579
G1 X69.856 Y135.184 E.0157
G1 X69.796 Y135.688 E.01591
G1 X69.598 Y136.168 E.01628
G1 X69.278 Y136.573 E.01618
G1 X68.846 Y136.882 E.01665
G1 X68.384 Y137.052 E.01544
G1 X67.894 Y137.098 E.01543
G1 X67.409 Y137.014 E.01543
G1 X66.961 Y136.808 E.01546
G1 X66.583 Y136.493 E.01543
G1 X66.299 Y136.092 E.01541
G1 X66.128 Y135.63 E.01545
G1 X66.083 Y135.14 E.01543
G1 X66.167 Y134.654 E.01546
G1 X66.373 Y134.207 E.01543
G1 X66.687 Y133.829 E.01541
G1 X67.089 Y133.545 E.01543
G1 X67.551 Y133.374 E.01545
G1 X67.992 Y133.332 E.01389
G1 X68.394 Y133.389 E.01273
M204 S1000
G1 X68.356 Y133.762 F10800
M204 S800
;TYPE:External perimeter
G1 F1200
G1 X68.398 Y133.767 E.00133
G1 X68.701 Y133.893 E.01029
G1 X69.067 Y134.181 E.0146
G1 X69.288 Y134.48 E.01166
G1 X69.433 Y134.846 E.01234
G1 X69.478 Y135.238 E.01237
