; generated by PrusaSlicer 2.9.3 on 2025-10-24 at 04:45:51 UTC


;
;
; 

; external perimeters extrusion width = 0.45mm
; perimeters extrusion width = 0.45mm
; infill extrusion width = 0.45mm
; solid infill extrusion width = 0.45mm
; top infill extrusion width = 0.40mm
; first layer extrusion width = 0.42mm

M73 P0 R155
M73 Q0 S156
M201 X1000 Y1000 Z200 E5000 ; sets maximum accelerations, mm/sec^2
M203 X200 Y200 Z12 E120 ; sets maximum feedrates, mm / sec
M204 S1250 T1250 ; sets acceleration (S) and retract acceleration (R), mm/sec^2
M205 X8.00 Y8.00 Z0.40 E4.50 ; sets the jerk limits, mm/sec
M205 S0 T0 ; sets the minimum extruding and travel feed rate, mm/sec

; printing object sofle_pico_keyplate_notched_RH_no_tenting_puck.stl id:0 copy 0
; stop printing object sofle_pico_keyplate_notched_RH_no_tenting_puck.stl id:0 copy 0

;TYPE:Custom
M862.3 P "MK3S" ; printer model check
M862.1 P0.4 ; nozzle diameter check
M115 U3.14.1 ; tell printer latest fw version
G90 ; use absolute coordinates
M83 ; extruder relative mode
M104 S215 ; set extruder temp
M140 S60 ; set bed temp
M190 S60 ; wait for bed temp
M109 S215 ; wait for extruder temp
G28 W ; home all without mesh bed level
G80 X60.6929 Y44.4812 W150.175 H121.044 ; mesh bed levelling

G1 Z0.2 F720
G1 Y-3 F1000 ; go outside print area
G92 E0
G1 X60 E9 F1000 ; intro line
G1 X100 E12.5 F1000 ; intro line

G92 E0
M221 S95

; Don't change E values below. Excessive value can damage the printer.
M907 E430 ; set extruder motor current
G21 ; set units to millimeters
G90 ; use absolute coordinates
M83 ; use relative distances for extrusion

M900 K0.05 ; Filament gcode LA 1.5
M900 K30 ; Filament gcode LA 1.0




M107
;LAYER_CHANGE
;Z:0.2
;HEIGHT:0.2
G1 E-.8 F2100
G1 Z.6 F720
G1 X62.172 Y75.254 F10800
G1 Z.2 F720
G1 E.8 F2100
M204 S800
;TYPE:Skirt/Brim
;WIDTH:0.42
G1 F1200
G1 X63.218 Y74.618 E.03838
G1 X102.31 Y60.24 E1.30598
G1 X195.424 Y44.745 E2.95967
G1 X196.624 Y44.695 E.03766
G1 X197.438 Y44.889 E.02624
G1 X198.187 Y45.263 E.02625
G1 X198.832 Y45.796 E.02624
G1 X199.466 Y46.676 E.03401
G1 X210.277 Y67.893 E.74663
G1 X210.552 Y68.62 E.02437
G1 X210.679 Y69.594 E.0308
G1 X210.66 Y99.962 E.95217
G1 X210.358 Y101.061 E.03574
G1 X182.749 Y163.533 E2.14153
G1 X182.325 Y164.188 E.02446
G1 X181.921 Y164.592 E.01791
G1 X180.977 Y165.136 E.03416
G1 X179.881 Y165.337 E.03494
G1 X121.439 Y165.319 E1.83241
G1 X64.126 Y157.92 E1.81192
G1 X63.537 Y157.791 E.01891
G1 X62.717 Y157.436 E.02802
G1 X62.28 Y157.137 E.0166
G1 X61.654 Y156.5 E.028
G1 X61.069 Y155.39 E.03934
G1 X60.881 Y154.248 E.03629
G1 X60.881 Y78.049 E2.38917
G1 X60.937 Y77.449 E.01889
G1 X61.173 Y76.627 E.02681
G1 X61.592 Y75.882 E.0268
G1 X62.131 Y75.298 E.02492
M204 S1000
;WIPE_START
G1 F8640
G1 X62.172 Y75.254 E-.01389
G1 X63.218 Y74.618 E-.28267
G1 X65.264 Y73.865 E-.50344
;WIPE_END
G1 Z.6 F720
; printing object sofle_pico_keyplate_notched_RH_no_tenting_puck.stl id:0 copy 0
G1 X142.693 Y119.139 F10800
G1 Z.2 F720
G1 E.8 F2100
M204 S800
;TYPE:Perimeter
;WIDTH:0.419999
G1 F1200
G1 X142.62 Y119.084 E.00287
G1 X142.516 Y118.843 E.00823
G1 X142.507 Y118.745 E.00309
G1 X142.507 Y106.034 E.39854
G1 X142.507 Y104.302 E.05431
G1 X142.581 Y104.023 E.00905
G1 X142.733 Y103.85 E.00722
G1 X143.023 Y103.739 E.00974
G1 X157.516 Y103.737 E.45442
G1 X157.773 Y103.798 E.00828
G1 X157.955 Y103.946 E.00736
G1 X158.033 Y104.073 E.00467
G1 X158.081 Y104.302 E.00734
G1 X158.081 Y118.745 E.45285
G1 X158.008 Y119.024 E.00904
G1 X157.855 Y119.198 E.00726
G1 X157.714 Y119.275 E.00504
G1 X157.516 Y119.311 E.00631
G1 X143.073 Y119.311 E.45285
G1 X142.874 Y119.275 E.00634
G1 X142.741 Y119.175 E.00522
M204 S1000
G1 X142.97 Y118.882 F10800
M204 S800
;TYPE:External perimeter
G1 F1200
G1 X142.922 Y118.858 E.00168
G1 X142.884 Y118.745 E.00374
G1 X142.884 Y106.034 E.39854
G1 X142.884 Y104.302 E.05431
G1 X142.949 Y104.16 E.0049
G1 X143.073 Y104.114 E.00415
G1 X157.516 Y104.114 E.45285
G1 X157.662 Y104.183 E.00506
G1 X157.704 Y104.302 E.00396
G1 X157.704 Y118.745 E.45285
G1 X157.639 Y118.888 E.00493
G1 X157.516 Y118.934 E.00412
G1 X143.073 Y118.934 E.45285
G1 X143.024 Y118.909 E.00172
M204 S1000
;WIPE_START
G1 F8640
G1 X142.97 Y118.882 E-.01394
G1 X142.922 Y118.858 E-.01239
G1 X142.884 Y118.745 E-.02753
G1 X142.884 Y115.514 E-.74614
;WIPE_END
G1 Z.6 F720
G1 X157.898 Y100.08 F10800
G1 Z.2 F720
G1 E.8 F2100
M204 S800
;TYPE:Perimeter
;WIDTH:0.420809
G1 F1200
G1 X157.771 Y100.2 E.00549
;WIDTH:0.419999
G1 X157.536 Y100.26 E.0076
G1 X143.073 Y100.261 E.45348
G1 X142.874 Y100.225 E.00634
G1 X142.62 Y100.035 E.00995
G1 X142.516 Y99.793 E.00826
G1 X142.507 Y99.695 E.00309
G1 X142.507 Y85.252 E.45285
G1 X142.581 Y84.973 E.00905
G1 X142.733 Y84.8 E.00722
G1 X143.023 Y84.689 E.00974
G1 X143.073 Y84.687 E.00157
G1 X157.516 Y84.687 E.45285
G1 X157.714 Y84.723 E.00631
G1 X157.968 Y84.913 E.00995
G1 X158.051 Y85.069 E.00554
G1 X158.081 Y85.252 E.00581
G1 X158.081 Y98.663 E.42049
;WIDTH:0.454339
G1 X158.098 Y99.218 E.019
G1 X158.086 Y99.733 E.01762
;WIDTH:0.431494
G1 X158.006 Y99.977 E.0083
;WIDTH:0.420809
G1 X157.941 Y100.039 E.00282
M204 S1000
G1 X157.663 Y99.796 F10800
M204 S800
;TYPE:External perimeter
;WIDTH:0.419999
G1 F1200
G1 X157.649 Y99.828 E.0011
G1 X157.522 Y99.884 E.00435
G1 X143.073 Y99.884 E.45304
G1 X142.922 Y99.808 E.0053
G1 X142.884 Y99.695 E.00374
G1 X142.884 Y85.252 E.45285
G1 X142.949 Y85.11 E.0049
G1 X143.073 Y85.064 E.00415
G1 X157.516 Y85.064 E.45285
G1 X157.667 Y85.139 E.00529
G1 X157.704 Y85.252 E.00373
G1 X157.704 Y99.695 E.45285
G1 X157.685 Y99.741 E.00156
M204 S1000
G1 X158.482 Y99.664 F10800
M204 S800
;TYPE:Perimeter
;WIDTH:0.431694
G1 F1200
G1 X158.474 Y99.589 E.00244
;WIDTH:0.436204
G1 X158.556 Y99.102 E.01615
G1 X158.769 Y98.658 E.0161
;WIDTH:0.419999
G1 X159.084 Y98.279 E.01545
G1 X159.486 Y97.995 E.01543
G1 X159.948 Y97.825 E.01544
G1 X160.388 Y97.783 E.01386
G1 X160.923 Y97.863 E.01696
;WIDTH:0.455173
G1 X161.083 Y97.918 E.0058
;WIDTH:0.490347
G1 X161.243 Y97.972 E.00628
;WIDTH:0.52552
G1 X161.402 Y98.027 E.00675
G1 X161.667 Y98.25 E.0139
;WIDTH:0.49425
G1 X161.813 Y98.454 E.00941
;WIDTH:0.457125
G1 X161.959 Y98.658 E.00864
;WIDTH:0.419999
G1 X162.151 Y99.071 E.01428
G1 X162.246 Y99.576 E.01611
G1 X162.203 Y100.08 E.01586
G1 X162.033 Y100.542 E.01544
G1 X161.744 Y100.94 E.01542
;WIDTH:0.417676
G1 X161.242 Y101.331 E.01983
;WIDTH:0.419999
G1 X160.781 Y101.503 E.01543
G1 X160.29 Y101.548 E.01546
G1 X159.805 Y101.465 E.01543
G1 X159.358 Y101.259 E.01543
G1 X158.977 Y100.94 E.01558
G1 X158.696 Y100.542 E.01528
;WIDTH:0.420809
G1 X158.525 Y100.08 E.01548
;WIDTH:0.431694
G1 X158.488 Y99.724 E.01157
M204 S1000
G1 X158.857 Y99.664 F10800
M204 S800
;TYPE:External perimeter
;WIDTH:0.419999
G1 F1200
G1 X158.854 Y99.639 E.00079
G1 X158.912 Y99.249 E.01236
G1 X159.069 Y98.887 E.01237
G1 X159.314 Y98.578 E.01236
G1 X159.63 Y98.343 E.01235
G1 X160.095 Y98.186 E.01539
G1 X160.348 Y98.158 E.00798
G1 X160.779 Y98.211 E.01362
G1 X161.192 Y98.408 E.01435
G1 X161.49 Y98.666 E.01236
G1 X161.684 Y98.93 E.01027
G1 X161.815 Y99.259 E.0111
G1 X161.875 Y99.688 E.01358
G1 X161.817 Y100.078 E.01236
G1 X161.66 Y100.44 E.01237
G1 X161.352 Y100.797 E.01478
G1 X161.098 Y100.984 E.00989
G1 X160.731 Y101.129 E.01237
G1 X160.34 Y101.174 E.01234
G1 X159.95 Y101.116 E.01236
G1 X159.588 Y100.959 E.01237
G1 X159.276 Y100.71 E.01252
G1 X159.044 Y100.398 E.01219
G1 X158.899 Y100.031 E.01237
G1 X158.864 Y99.724 E.00969
M204 S1000
;WIPE_START
G1 F8640
G1 X158.857 Y99.664 E-.01395
G1 X158.854 Y99.639 E-.00581
G1 X158.912 Y99.249 E-.09104
G1 X159.069 Y98.887 E-.09111
G1 X159.314 Y98.578 E-.09105
G1 X159.63 Y98.343 E-.09093
G1 X160.095 Y98.186 E-.11332
G1 X160.348 Y98.158 E-.05878
G1 X160.779 Y98.211 E-.10027
G1 X161.192 Y98.408 E-.10566
G1 X161.317 Y98.516 E-.03808
;WIPE_END
G1 Z.6 F720
G1 X161.743 Y116.639 F10800
G1 Z.2 F720
G1 E.8 F2100
M204 S800
;TYPE:Perimeter
G1 F1200
G1 X161.67 Y116.584 E.00287
G1 X161.566 Y116.343 E.00823
G1 X161.557 Y116.245 E.00309
G1 X161.557 Y101.802 E.45285
G1 X161.648 Y101.508 E.00965
;WIDTH:0.406315
G1 X161.836 Y101.329 E.00784
;WIDTH:0.419999
G1 X162.123 Y101.237 E.00945
G1 X163.218 Y101.237 E.03433
G1 X176.566 Y101.237 E.41852
G1 X176.794 Y101.285 E.00731
G1 X177.019 Y101.464 E.00901
G1 X177.12 Y101.691 E.00779
G1 X177.131 Y102.712 E.03201
G1 X177.131 Y116.245 E.42432
G1 X177.093 Y116.45 E.00654
G1 X176.992 Y116.617 E.00612
G1 X176.73 Y116.786 E.00978
G1 X176.566 Y116.811 E.0052
G1 X162.123 Y116.811 E.45285
G1 X161.924 Y116.775 E.00634
G1 X161.791 Y116.675 E.00522
M204 S1000
G1 X162.02 Y116.382 F10800
M204 S800
;TYPE:External perimeter
G1 F1200
G1 X161.972 Y116.358 E.00168
G1 X161.934 Y116.245 E.00374
G1 X161.934 Y101.802 E.45285
G1 X162.008 Y101.653 E.00522
G1 X162.123 Y101.614 E.00381
G1 X163.218 Y101.614 E.03433
G1 X176.566 Y101.614 E.41852
G1 X176.69 Y101.661 E.00416
G1 X176.754 Y101.802 E.00486
G1 X176.754 Y116.245 E.45285
G1 X176.708 Y116.369 E.00415
G1 X176.566 Y116.434 E.0049
G1 X162.123 Y116.434 E.45285
G1 X162.074 Y116.409 E.00172
M204 S1000
;WIPE_START
G1 F8640
G1 X162.02 Y116.382 E-.01394
G1 X161.972 Y116.358 E-.01239
G1 X161.934 Y116.245 E-.02753
G1 X161.934 Y113.014 E-.74614
;WIPE_END
G1 Z.6 F720
G1 X197.81 Y99.439 F10800
G1 Z.2 F720
G1 E.8 F2100
M204 S800
G1 F1200
G1 X197.715 Y99.534 E.00421
G1 X181.673 Y99.534 E.50298
G1 X181.528 Y99.466 E.00502
G1 X181.496 Y99.412 E.00197
G1 X181.484 Y85.902 E.4236
G1 X181.551 Y85.759 E.00495
G1 X181.673 Y85.714 E.00408
G1 X197.715 Y85.714 E.50298
G1 X197.853 Y85.774 E.00472
M73 P0 R154
G1 X197.904 Y85.902 E.00432
G1 X197.904 Y99.345 E.4215
G1 X197.852 Y99.397 E.00231
M204 S1000
;WIPE_START
G1 F8640
G1 X197.81 Y99.439 E-.01371
G1 X197.715 Y99.534 E-.03102
G1 X194.444 Y99.534 E-.75527
;WIPE_END
G1 Z.6 F720
G1 X183.017 Y104.796 F10800
G1 Z.2 F720
G1 E.8 F2100
M204 S800
G1 F1200
G1 X183.503 Y104.415 E.01936
G1 X184.093 Y104.164 E.0201
G1 X184.685 Y104.079 E.01875
G1 X185.363 Y104.15 E.02137
G1 X185.963 Y104.391 E.02027
G1 X186.476 Y104.777 E.02013
G1 X186.872 Y105.282 E.02012
G1 X187.124 Y105.873 E.02014
G1 X187.214 Y106.509 E.02014
G1 X187.137 Y107.147 E.02015
G1 X186.897 Y107.742 E.02012
G1 X186.511 Y108.256 E.02015
G1 X185.958 Y108.676 E.02177
;WIDTH:0.435144
G1 X185.409 Y108.898 E.01931
;WIDTH:0.43828
G1 X185.377 Y108.909 E.00111
G1 X184.842 Y108.946 E.01763
;WIDTH:0.432933
G1 X184.154 Y108.91 E.02234
G1 X183.55 Y108.676 E.02101
;WIDTH:0.419999
G1 X183.032 Y108.291 E.02024
M73 Q0 S155
G1 X182.636 Y107.785 E.02015
G1 X182.384 Y107.194 E.02014
G1 X182.294 Y106.558 E.02014
G1 X182.371 Y105.921 E.02012
G1 X182.594 Y105.366 E.01875
G1 X182.976 Y104.84 E.02038
M204 S1000
;WIPE_START
G1 F8640
G1 X183.017 Y104.796 E-.01389
G1 X183.503 Y104.415 E-.14259
G1 X184.093 Y104.164 E-.14805
G1 X184.685 Y104.079 E-.1381
G1 X185.363 Y104.15 E-.15741
G1 X185.963 Y104.391 E-.1493
G1 X186.138 Y104.523 E-.05066
;WIPE_END
G1 Z.6 F720
G1 X201.515 Y95.392 F10800
G1 Z.2 F720
G1 E.8 F2100
M204 S800
;TYPE:Perimeter
G1 F1200
G1 X201.753 Y94.771 E.02085
G1 X202.189 Y94.172 E.02323
G1 X202.764 Y93.706 E.02321
G1 X203.44 Y93.405 E.0232
G1 X204.127 Y93.295 E.02181
G1 X204.897 Y93.366 E.02425
G1 X205.598 Y93.632 E.02351
G1 X206.197 Y94.067 E.02321
G1 X206.662 Y94.643 E.02321
;WIDTH:0.45157
G1 X206.827 Y94.975 E.0126
;WIDTH:0.48314
G1 X206.992 Y95.307 E.01357
;WIDTH:0.516752
G1 X207.023 Y95.355 E.00225
;WIDTH:0.550364
G1 X207.053 Y95.403 E.00239
;WIDTH:0.583975
G1 X207.083 Y95.451 E.00255
G1 X207.141 Y96.042 E.02672
G1 X207.083 Y96.797 E.03407
G1 X206.996 Y96.967 E.00859
;WIDTH:0.542981
G1 X206.909 Y97.137 E.00794
;WIDTH:0.501987
G1 X206.823 Y97.307 E.00727
;WIDTH:0.460993
G1 X206.736 Y97.477 E.00664
;WIDTH:0.419999
G1 X206.301 Y98.076 E.02321
G1 X205.726 Y98.541 E.02319
G1 X205.05 Y98.842 E.0232
G1 X204.319 Y98.958 E.02321
G1 X203.583 Y98.88 E.02321
G1 X202.892 Y98.615 E.0232
G1 X202.293 Y98.18 E.02321
G1 X201.827 Y97.605 E.02321
G1 X201.526 Y96.929 E.0232
G1 X201.492 Y96.81 E.00388
G1 X201.411 Y96.198 E.01936
G1 X201.488 Y95.462 E.0232
G1 X201.493 Y95.448 E.00047
M204 S1000
G1 X201.871 Y95.487 F10800
M204 S800
;TYPE:External perimeter
G1 F1200
G1 X202.102 Y94.915 E.01934
G1 X202.488 Y94.401 E.02015
G1 X202.993 Y94.005 E.02012
G1 X203.584 Y93.754 E.02013
G1 X204.176 Y93.669 E.01875
G1 X204.854 Y93.74 E.02137
G1 X205.454 Y93.981 E.02027
G1 X205.967 Y94.367 E.02013
G1 X206.363 Y94.872 E.02012
G1 X206.615 Y95.463 E.02014
G1 X206.705 Y96.099 E.02014
G1 X206.628 Y96.737 E.02015
G1 X206.388 Y97.333 E.02015
G1 X206.002 Y97.846 E.02013
G1 X205.496 Y98.242 E.02015
G1 X204.905 Y98.494 E.02014
G1 X204.269 Y98.584 E.02014
G1 X203.632 Y98.507 E.02012
G1 X203.036 Y98.267 E.02015
G1 X202.522 Y97.881 E.02015
G1 X202.126 Y97.375 E.02015
G1 X201.863 Y96.745 E.02141
G1 X201.784 Y96.148 E.01888
G1 X201.858 Y95.545 E.01905
M204 S1000
;WIPE_START
G1 F8640
G1 X201.871 Y95.487 E-.01372
G1 X202.102 Y94.915 E-.14244
G1 X202.488 Y94.401 E-.14842
G1 X202.993 Y94.005 E-.14818
G1 X203.584 Y93.754 E-.14826
G1 X204.176 Y93.669 E-.1381
G1 X204.438 Y93.697 E-.06088
;WIPE_END
G1 Z.6 F720
G1 X184.678 Y77.533 F10800
G1 Z.2 F720
G1 E.8 F2100
M204 S800
;TYPE:Perimeter
G1 F1200
G1 X184.635 Y77.472 E.00234
G1 X184.465 Y77.01 E.01544
G1 X184.42 Y76.52 E.01543
G1 X184.503 Y76.035 E.01543
G1 X184.687 Y75.633 E.01386
G1 X185.024 Y75.21 E.01696
G1 X185.426 Y74.925 E.01545
G1 X185.888 Y74.755 E.01544
G1 X186.328 Y74.713 E.01386
G1 X186.863 Y74.793 E.01696
G1 X187.325 Y75.01 E.016
G1 X187.688 Y75.314 E.01485
G1 X187.973 Y75.716 E.01545
G1 X188.127 Y76.13 E.01385
G1 X188.188 Y76.667 E.01695
G1 X188.105 Y77.153 E.01546
G1 X187.899 Y77.6 E.01543
G1 X187.584 Y77.978 E.01543
G1 X187.182 Y78.263 E.01545
G1 X186.768 Y78.417 E.01385
G1 X186.23 Y78.478 E.01698
G1 X185.745 Y78.395 E.01543
G1 X185.298 Y78.189 E.01543
G1 X184.92 Y77.874 E.01543
G1 X184.713 Y77.582 E.01122
M204 S1000
G1 X184.999 Y77.348 F10800
M204 S800
;TYPE:External perimeter
G1 F1200
G1 X184.984 Y77.328 E.00078
G1 X184.839 Y76.961 E.01237
G1 X184.794 Y76.569 E.01237
G1 X184.852 Y76.179 E.01236
G1 X184.992 Y75.855 E.01107
G1 X185.253 Y75.509 E.01359
G1 X185.57 Y75.274 E.01237
G1 X185.937 Y75.129 E.01237
G1 X186.288 Y75.088 E.01108
G1 X186.718 Y75.141 E.01358
G1 X187.095 Y75.31 E.01295
G1 X187.389 Y75.543 E.01176
G1 X187.624 Y75.86 E.01237
G1 X187.755 Y76.189 E.0111
G1 X187.814 Y76.618 E.01358
G1 X187.756 Y77.009 E.01239
G1 X187.6 Y77.37 E.01233
G1 X187.355 Y77.679 E.01236
G1 X187.038 Y77.914 E.01237
G1 X186.709 Y78.045 E.0111
G1 X186.28 Y78.104 E.01358
G1 X185.889 Y78.046 E.01239
G1 X185.528 Y77.89 E.01233
G1 X185.219 Y77.644 E.01238
G1 X185.034 Y77.396 E.0097
M204 S1000
;WIPE_START
G1 F8640
G1 X184.999 Y77.348 E-.01372
G1 X184.984 Y77.328 E-.00577
G1 X184.839 Y76.961 E-.09112
G1 X184.794 Y76.569 E-.09111
G1 X184.852 Y76.179 E-.09104
G1 X184.992 Y75.855 E-.0815
G1 X185.253 Y75.509 E-.10007
G1 X185.57 Y75.274 E-.09112
G1 X185.937 Y75.129 E-.09112
G1 X186.288 Y75.088 E-.0816
G1 X186.554 Y75.121 E-.06183
;WIPE_END
G1 Z.6 F720
G1 X203.339 Y66.604 F10800
G1 Z.2 F720
G1 E.8 F2100
M204 S800
;TYPE:Perimeter
G1 F1200
G1 X203.319 Y66.688 E.00271
G1 X203.199 Y66.851 E.00635
G1 X202.673 Y67.144 E.01888
G1 X190.199 Y73.5 E.43896
G1 X189.964 Y73.561 E.00761
G1 X189.814 Y73.547 E.00472
G1 X189.575 Y73.427 E.00839
G1 X189.43 Y73.236 E.00752
G1 X182.881 Y60.384 E.45227
G1 X182.822 Y60.177 E.00675
G1 X182.853 Y59.936 E.00762
G1 X183.001 Y59.712 E.00842
G1 X183.129 Y59.623 E.00489
G1 X195.997 Y53.066 E.45283
G1 X196.219 Y53.006 E.00721
G1 X196.407 Y53.026 E.00593
G1 X196.605 Y53.126 E.00695
G1 X196.758 Y53.314 E.0076
G1 X203.315 Y66.182 E.45283
G1 X203.376 Y66.45 E.00862
G1 X203.353 Y66.545 E.00306
M204 S1000
G1 X202.98 Y66.468 F10800
M204 S800
;TYPE:External perimeter
G1 F1200
G1 X202.98 Y66.522 E.00169
G1 X202.897 Y66.607 E.00372
G1 X190.028 Y73.164 E.45285
G1 X189.899 Y73.18 E.00408
G1 X189.774 Y73.082 E.00498
G1 X183.217 Y60.213 E.45285
G1 X183.208 Y60.064 E.00468
G1 X183.3 Y59.959 E.00438
G1 X196.168 Y53.402 E.45283
G1 X196.305 Y53.389 E.00431
G1 X196.422 Y53.485 E.00475
G1 X202.979 Y66.353 E.45283
