; generated by PrusaSlicer 2.9.3 on 2025-10-25 at 17:16:35 UTC


;
;
; 

; external perimeters extrusion width = 0.45mm
; perimeters extrusion width = 0.45mm
; infill extrusion width = 0.45mm
; solid infill extrusion width = 0.45mm
; top infill extrusion width = 0.40mm
; first layer extrusion width = 0.42mm

M73 P0 R157
M73 Q0 S158
M201 X1000 Y1000 Z200 E5000 ; sets maximum accelerations, mm/sec^2
M203 X200 Y200 Z12 E120 ; sets maximum feedrates, mm / sec
M204 S1250 T1250 ; sets acceleration (S) and retract acceleration (R), mm/sec^2
M205 X8.00 Y8.00 Z0.40 E4.50 ; sets the jerk limits, mm/sec
M205 S0 T0 ; sets the minimum extruding and travel feed rate, mm/sec

; printing object sofle_pico_keyplate_notched_RH_no_tenting_puck.stl id:0 copy 0
; stop printing object sofle_pico_keyplate_notched_RH_no_tenting_puck.stl id:0 copy 0

;TYPE:Custom
M862.3 P "MK3S" ; printer model check
M862.1 P0.4 ; nozzle diameter check
M115 U3.14.1 ; tell printer latest fw version
G90 ; use absolute coordinates
M83 ; extruder relative mode
M104 S215 ; set extruder temp
M140 S60 ; set bed temp
M190 S60 ; wait for bed temp
M109 S215 ; wait for extruder temp
G28 W ; home all without mesh bed level
G80 X39.385 Y34.8005 W170.914 H141.736 ; mesh bed levelling

G1 Z0.2 F720
G1 Y-3 F1000 ; go outside print area
G92 E0
G1 X60 E9 F1000 ; intro line
G1 X100 E12.5 F1000 ; intro line

G92 E0
M221 S95

; Don't change E values below. Excessive value can damage the printer.
M907 E430 ; set extruder motor current
G21 ; set units to millimeters
G90 ; use absolute coordinates
M83 ; use relative distances for extrusion

M900 K0.05 ; Filament gcode LA 1.5
M900 K30 ; Filament gcode LA 1.0




M107
;LAYER_CHANGE
;Z:0.2
;HEIGHT:0.2
G1 E-.8 F2100
G1 Z.6 F720
G1 X44.551 Y67.578 F10800
G1 Z.2 F720
G1 E.8 F2100
M204 S800
;TYPE:Skirt/Brim
;WIDTH:0.42
G1 F1200
G1 X45.448 Y67.032 E.03293
G1 X46.634 Y66.496 E.04081
G1 X47.854 Y66.13 E.03994
G1 X184.507 Y35.235 E4.3928
G1 X185.746 Y35.034 E.03936
G1 X186.795 Y34.99 E.03292
G1 X188.34 Y35.133 E.04865
G1 X189.674 Y35.464 E.04309
G1 X191.107 Y36.062 E.04869
G1 X192.486 Y36.924 E.05099
G1 X193.524 Y37.824 E.04308
G1 X194.531 Y39.006 E.04869
G1 X195.255 Y40.174 E.04309
G1 X195.864 Y41.602 E.04868
G1 X209.875 Y100.69 E1.90403
G1 X210.074 Y101.969 E.04058
G1 X210.101 Y103.27 E.0408
G1 X209.889 Y104.881 E.05095
G1 X209.393 Y106.478 E.05243
G1 X183.081 Y170.32 E2.16506
G1 X182.654 Y171.228 E.03146
G1 X182.008 Y172.272 E.03849
G1 X181.354 Y173.093 E.03291
G1 X180.67 Y173.79 E.03062
M73 Q0 S157
G1 X179.11 Y174.959 E.06112
G1 X177.347 Y175.792 E.06114
G1 X175.453 Y176.255 E.06113
G1 X173.528 Y176.331 E.0604
G1 X48.405 Y168.231 E3.93136
G1 X46.732 Y167.933 E.05328
M73 P0 R156
G1 X44.976 Y167.269 E.05886
G1 X43.323 Y166.235 E.06113
G1 X42.078 Y165.08 E.05325
G1 X40.959 Y163.573 E.05885
G1 X40.241 Y162.114 E.05099
G1 X39.777 Y160.556 E.05097
G1 X39.578 Y158.869 E.05326
G1 X40.335 Y75.536 E2.61296
G1 X40.539 Y73.597 E.06113
G1 X41.126 Y71.737 E.06115
G1 X42.075 Y70.034 E.06113
G1 X42.672 Y69.262 E.0306
G1 X43.529 Y68.383 E.03849
G1 X44.504 Y67.615 E.03892
M204 S1000
;WIPE_START
G1 F8640
G1 X44.551 Y67.578 E-.01381
G1 X45.448 Y67.032 E-.24247
G1 X46.634 Y66.496 E-.30052
G1 X47.643 Y66.193 E-.2432
;WIPE_END
G1 Z.6 F720
; printing object sofle_pico_keyplate_notched_RH_no_tenting_puck.stl id:0 copy 0
G1 X127.749 Y87.358 F10800
G1 Z.2 F720
G1 E.8 F2100
M204 S800
;TYPE:Perimeter
;WIDTH:0.419999
G1 F1200
G1 X127.822 Y87.413 E.00287
G1 X127.904 Y87.569 E.00553
G1 X127.935 Y87.752 E.00582
G1 X127.935 Y102.195 E.45285
G1 X127.861 Y102.474 E.00905
G1 X127.709 Y102.648 E.00724
G1 X127.568 Y102.725 E.00504
G1 X127.369 Y102.761 E.00634
G1 X112.927 Y102.761 E.45282
G1 X112.728 Y102.725 E.00634
G1 X112.478 Y102.539 E.00977
G1 X112.373 Y102.31 E.0079
G1 X112.361 Y101.231 E.03383
G1 X112.361 Y87.752 E.42262
G1 X112.391 Y87.569 E.00581
G1 X112.587 Y87.3 E.01044
G1 X112.877 Y87.189 E.00974
G1 X112.927 Y87.187 E.00157
G1 X127.369 Y87.187 E.45282
G1 X127.568 Y87.223 E.00634
G1 X127.701 Y87.322 E.0052
M204 S1000
G1 X127.472 Y87.615 F10800
M204 S800
;TYPE:External perimeter
G1 F1200
G1 X127.52 Y87.639 E.00168
G1 X127.558 Y87.752 E.00374
G1 X127.558 Y102.195 E.45285
G1 X127.482 Y102.346 E.0053
G1 X127.369 Y102.384 E.00374
G1 X112.927 Y102.384 E.45282
G1 X112.777 Y102.31 E.00524
G1 X112.738 Y102.195 E.00381
G1 X112.738 Y87.752 E.45285
G1 X112.813 Y87.601 E.00529
G1 X112.927 Y87.564 E.00376
G1 X127.369 Y87.564 E.45282
G1 X127.418 Y87.588 E.00171
M204 S1000
;WIPE_START
G1 F8640
G1 X127.472 Y87.615 E-.01394
G1 X127.52 Y87.639 E-.01239
G1 X127.558 Y87.752 E-.02753
G1 X127.558 Y90.983 E-.74614
;WIPE_END
G1 Z.6 F720
G1 X127.749 Y106.408 F10800
G1 Z.2 F720
G1 E.8 F2100
M204 S800
;TYPE:Perimeter
G1 F1200
G1 X127.822 Y106.463 E.00287
G1 X127.904 Y106.619 E.00553
G1 X127.935 Y106.802 E.00582
G1 X127.935 Y119.146 E.38704
G1 X127.935 Y121.245 E.06581
G1 X127.861 Y121.524 E.00905
G1 X127.709 Y121.698 E.00724
G1 X127.568 Y121.775 E.00504
G1 X127.369 Y121.811 E.00634
G1 X112.927 Y121.811 E.45282
G1 X112.728 Y121.775 E.00634
G1 X112.478 Y121.589 E.00977
G1 X112.373 Y121.36 E.0079
G1 X112.361 Y120.281 E.03383
G1 X112.361 Y106.802 E.42262
G1 X112.391 Y106.619 E.00581
G1 X112.587 Y106.35 E.01044
G1 X112.877 Y106.239 E.00974
G1 X112.927 Y106.237 E.00157
G1 X127.369 Y106.237 E.45282
G1 X127.568 Y106.273 E.00634
G1 X127.701 Y106.372 E.0052
M204 S1000
G1 X127.472 Y106.665 F10800
M204 S800
;TYPE:External perimeter
G1 F1200
G1 X127.52 Y106.689 E.00168
G1 X127.558 Y106.802 E.00374
G1 X127.558 Y119.146 E.38704
G1 X127.558 Y121.245 E.06581
G1 X127.493 Y121.388 E.00493
G1 X127.369 Y121.434 E.00415
G1 X112.927 Y121.434 E.45282
G1 X112.777 Y121.36 E.00524
G1 X112.738 Y121.245 E.00381
G1 X112.738 Y106.802 E.45285
G1 X112.813 Y106.651 E.00529
G1 X112.927 Y106.614 E.00376
G1 X127.369 Y106.614 E.45282
G1 X127.418 Y106.638 E.00171
M204 S1000
;WIPE_START
G1 F8640
G1 X127.472 Y106.665 E-.01394
G1 X127.52 Y106.689 E-.01239
G1 X127.558 Y106.802 E-.02753
G1 X127.558 Y110.033 E-.74614
;WIPE_END
G1 Z.6 F720
G1 X146.806 Y103.903 F10800
G1 Z.2 F720
G1 E.8 F2100
M204 S800
;TYPE:Perimeter
G1 F1200
G1 X146.858 Y103.946 E.00212
G1 X146.937 Y104.073 E.00469
G1 X146.985 Y104.302 E.00734
G1 X146.985 Y118.745 E.45285
G1 X146.911 Y119.024 E.00905
G1 X146.759 Y119.198 E.00724
G1 X146.618 Y119.275 E.00504
G1 X146.419 Y119.311 E.00634
G1 X131.976 Y119.311 E.45285
G1 X131.778 Y119.275 E.00631
G1 X131.524 Y119.084 E.00996
G1 X131.441 Y118.928 E.00554
G1 X131.411 Y118.745 E.00581
G1 X131.411 Y104.302 E.45285
G1 X131.484 Y104.023 E.00904
G1 X131.637 Y103.85 E.00724
G1 X131.927 Y103.739 E.00974
G1 X131.976 Y103.737 E.00154
G1 X146.419 Y103.737 E.45285
G1 X146.677 Y103.798 E.00831
G1 X146.759 Y103.866 E.00334
M204 S1000
G1 X146.522 Y104.162 F10800
M204 S800
;TYPE:External perimeter
G1 F1200
G1 X146.566 Y104.183 E.00153
G1 X146.608 Y104.302 E.00396
G1 X146.608 Y118.745 E.45285
G1 X146.543 Y118.888 E.00493
G1 X146.419 Y118.934 E.00415
G1 X131.976 Y118.934 E.45285
G1 X131.826 Y118.858 E.00527
G1 X131.798 Y118.806 E.00185
G1 X131.788 Y104.302 E.45476
G1 X131.853 Y104.16 E.0049
G1 X131.976 Y104.114 E.00412
G1 X146.419 Y104.114 E.45285
G1 X146.468 Y104.137 E.0017
M204 S1000
;WIPE_START
G1 F8640
G1 X146.522 Y104.162 E-.01374
G1 X146.566 Y104.183 E-.01126
G1 X146.608 Y104.302 E-.02914
G1 X146.608 Y107.532 E-.74586
;WIPE_END
G1 Z.6 F720
G1 X127.749 Y125.458 F10800
G1 Z.2 F720
G1 E.8 F2100
M204 S800
;TYPE:Perimeter
G1 F1200
G1 X127.822 Y125.513 E.00287
G1 X127.904 Y125.669 E.00553
G1 X127.935 Y125.852 E.00582
G1 X127.935 Y140.295 E.45285
G1 X127.861 Y140.574 E.00905
G1 X127.709 Y140.747 E.00722
G1 X127.568 Y140.824 E.00504
G1 X127.369 Y140.86 E.00634
G1 X112.927 Y140.86 E.45282
G1 X112.728 Y140.824 E.00634
G1 X112.478 Y140.639 E.00975
G1 X112.373 Y140.41 E.0079
G1 X112.361 Y139.331 E.03383
G1 X112.361 Y125.852 E.42262
G1 X112.391 Y125.669 E.00581
G1 X112.587 Y125.4 E.01044
G1 X112.877 Y125.289 E.00974
G1 X112.927 Y125.286 E.00157
G1 X127.369 Y125.286 E.45282
G1 X127.568 Y125.322 E.00634
G1 X127.701 Y125.422 E.00522
M204 S1000
G1 X127.472 Y125.715 F10800
M204 S800
;TYPE:External perimeter
G1 F1200
G1 X127.52 Y125.739 E.00168
G1 X127.558 Y125.852 E.00374
G1 X127.558 Y140.295 E.45285
G1 X127.493 Y140.438 E.00493
G1 X127.369 Y140.483 E.00414
G1 X112.927 Y140.483 E.45282
G1 X112.777 Y140.41 E.00523
G1 X112.738 Y140.295 E.00381
G1 X112.738 Y125.852 E.45285
G1 X112.813 Y125.701 E.00529
G1 X112.927 Y125.664 E.00376
G1 X127.369 Y125.664 E.45282
G1 X127.418 Y125.688 E.00171
M204 S1000
;WIPE_START
G1 F8640
G1 X127.472 Y125.715 E-.01394
G1 X127.52 Y125.739 E-.01239
G1 X127.558 Y125.852 E-.02753
G1 X127.558 Y129.083 E-.74614
;WIPE_END
G1 Z.6 F720
G1 X108.698 Y122.956 F10800
G1 Z.2 F720
G1 E.8 F2100
M204 S800
;TYPE:Perimeter
G1 F1200
G1 X108.769 Y123.008 E.00276
G1 X108.873 Y123.237 E.00789
G1 X108.885 Y124.316 E.03383
G1 X108.885 Y137.795 E.42262
G1 X108.855 Y137.978 E.00581
G1 X108.659 Y138.247 E.01044
G1 X108.518 Y138.325 E.00505
G1 X108.32 Y138.361 E.00631
G1 X93.877 Y138.361 E.45285
G1 X93.678 Y138.324 E.00635
G1 X93.424 Y138.134 E.00995
G1 X93.32 Y137.893 E.00823
G1 X93.311 Y123.352 E.45592
G1 X93.342 Y123.169 E.00582
G1 X93.537 Y122.9 E.01042
G1 X93.827 Y122.789 E.00974
G1 X108.32 Y122.786 E.45442
G1 X108.518 Y122.822 E.00631
G1 X108.65 Y122.92 E.00515
M204 S1000
G1 X108.422 Y123.214 F10800
M204 S800
;TYPE:External perimeter
G1 F1200
G1 X108.469 Y123.237 E.00164
G1 X108.508 Y123.352 E.00381
G1 X108.508 Y137.795 E.45285
G1 X108.433 Y137.946 E.00529
G1 X108.32 Y137.983 E.00373
G1 X93.877 Y137.983 E.45285
G1 X93.726 Y137.908 E.00529
G1 X93.688 Y137.795 E.00374
G1 X93.688 Y123.352 E.45285
G1 X93.764 Y123.201 E.0053
G1 X93.86 Y123.164 E.00323
G1 X108.32 Y123.164 E.45338
G1 X108.368 Y123.188 E.00168
M204 S1000
;WIPE_START
G1 F8640
G1 X108.422 Y123.214 E-.01384
G1 X108.469 Y123.237 E-.01208
G1 X108.508 Y123.352 E-.02804
G1 X108.508 Y126.583 E-.74604
;WIPE_END
G1 Z.6 F720
G1 X89.647 Y99.007 F10800
G1 Z.2 F720
G1 E.8 F2100
M204 S800
;TYPE:Perimeter
G1 F1200
G1 X89.722 Y99.063 E.00293
G1 X89.805 Y99.219 E.00554
G1 X89.835 Y100.096 E.02751
G1 X89.835 Y113.845 E.43109
G1 X89.805 Y114.029 E.00585
G1 X89.609 Y114.298 E.01044
G1 X89.468 Y114.375 E.00504
G1 X89.27 Y114.411 E.00631
G1 X74.827 Y114.411 E.45285
G1 X74.574 Y114.351 E.00815
G1 X74.374 Y114.184 E.00817
G1 X74.278 Y113.982 E.00701
G1 X74.261 Y113.845 E.00433
G1 X74.261 Y99.402 E.45285
G1 X74.289 Y99.229 E.00549
G1 X74.394 Y99.039 E.00681
G1 X74.653 Y98.864 E.0098
G1 X75.521 Y98.837 E.02723
G1 X89.27 Y98.837 E.43109
G1 X89.468 Y98.873 E.00631
G1 X89.599 Y98.971 E.00513
M204 S1000
G1 X89.373 Y99.265 F10800
M204 S800
;TYPE:External perimeter
G1 F1200
G1 X89.421 Y99.289 E.00168
G1 X89.458 Y99.402 E.00373
G1 X89.458 Y113.845 E.45285
G1 X89.383 Y113.996 E.00529
G1 X89.27 Y114.034 E.00374
G1 X74.827 Y114.034 E.45285
G1 X74.694 Y113.978 E.00452
G1 X74.638 Y113.845 E.00452
G1 X74.638 Y99.402 E.45285
G1 X74.712 Y99.253 E.00522
G1 X74.827 Y99.214 E.00381
G1 X89.27 Y99.214 E.45285
G1 X89.319 Y99.238 E.00171
M204 S1000
;WIPE_START
G1 F8640
G1 X89.373 Y99.265 E-.01394
G1 X89.421 Y99.289 E-.01239
G1 X89.458 Y99.402 E-.02746
G1 X89.458 Y102.634 E-.74621
;WIPE_END
G1 Z.6 F720
G1 X108.698 Y103.906 F10800
G1 Z.2 F720
G1 E.8 F2100
M204 S800
;TYPE:Perimeter
G1 F1200
G1 X108.769 Y103.958 E.00276
G1 X108.873 Y104.188 E.00791
G1 X108.885 Y105.267 E.03383
G1 X108.885 Y118.745 E.42259
G1 X108.855 Y118.928 E.00581
G1 X108.659 Y119.198 E.01046
G1 X108.518 Y119.275 E.00504
G1 X108.32 Y119.311 E.00631
G1 X93.877 Y119.311 E.45285
G1 X93.678 Y119.275 E.00634
G1 X93.424 Y119.084 E.00996
G1 X93.32 Y118.843 E.00823
G1 X93.311 Y104.302 E.45592
G1 X93.342 Y104.119 E.00582
G1 X93.537 Y103.85 E.01042
G1 X93.678 Y103.773 E.00504
G1 X93.877 Y103.737 E.00634
G1 X108.32 Y103.737 E.45285
G1 X108.518 Y103.773 E.00631
G1 X108.65 Y103.87 E.00514
M204 S1000
G1 X108.422 Y104.164 F10800
M204 S800
;TYPE:External perimeter
G1 F1200
G1 X108.469 Y104.188 E.00165
G1 X108.508 Y104.302 E.00378
G1 X108.508 Y118.745 E.45285
G1 X108.433 Y118.896 E.00529
G1 X108.32 Y118.934 E.00374
G1 X93.877 Y118.934 E.45285
G1 X93.726 Y118.858 E.0053
G1 X93.688 Y118.745 E.00374
G1 X93.688 Y104.302 E.45285
G1 X93.764 Y104.151 E.0053
G1 X93.811 Y104.126 E.00167
G1 X108.32 Y104.114 E.45492
G1 X108.368 Y104.138 E.00168
M204 S1000
;WIPE_START
G1 F8640
G1 X108.422 Y104.164 E-.01384
G1 X108.469 Y104.188 E-.01219
G1 X108.508 Y104.302 E-.02782
G1 X108.508 Y107.533 E-.74615
;WIPE_END
G1 Z.6 F720
G1 X55.37 Y114.231 F10800
G1 Z.2 F720
M73 Q0 S156
G1 E.8 F2100
M204 S800
;TYPE:Perimeter
G1 F1200
G1 X55.261 Y114.077 E.00592
G1 X55.211 Y113.845 E.00744
G1 X55.211 Y99.402 E.45285
G1 X55.261 Y99.17 E.00744
G1 X55.387 Y98.993 E.00681
G1 X55.651 Y98.851 E.0094
G1 X55.777 Y98.837 E.00397
G1 X70.22 Y98.837 E.45285
G1 X70.393 Y98.864 E.00549
G1 X70.653 Y99.039 E.00983
G1 X70.758 Y99.229 E.00681
G1 X70.785 Y99.687 E.01439
G1 X70.785 Y113.845 E.44391
G1 X70.726 Y114.098 E.00815
G1 X70.559 Y114.298 E.00817
G1 X70.357 Y114.394 E.00701
G1 X70.22 Y114.411 E.00433
G1 X55.777 Y114.411 E.45285
G1 X55.542 Y114.36 E.00754
G1 X55.413 Y114.272 E.0049
M204 S1000
G1 X55.632 Y113.946 F10800
M204 S800
;TYPE:External perimeter
G1 F1200
G1 X55.588 Y113.845 E.00345
G1 X55.588 Y99.402 E.45285
G1 X55.647 Y99.266 E.00465
G1 X55.777 Y99.214 E.00439
G1 X70.22 Y99.214 E.45285
G1 X70.369 Y99.287 E.0052
M73 P0 R155
G1 X70.408 Y99.402 E.00381
G1 X70.408 Y99.687 E.00894
G1 X70.408 Y113.845 E.44391
G1 X70.353 Y113.978 E.00451
G1 X70.22 Y114.034 E.00452
G1 X55.777 Y114.034 E.45285
G1 X55.667 Y113.99 E.00371
M204 S1000
;WIPE_START
G1 F8640
G1 X55.632 Y113.946 E-.01298
G1 X55.588 Y113.845 E-.02544
G1 X55.588 Y110.547 E-.76158
;WIPE_END
G1 Z.6 F720
G1 X74.394 Y97.099 F10800
G1 Z.2 F720
G1 E.8 F2100
M204 S800
;TYPE:Perimeter
G1 F1200
G1 X74.403 Y97.208 E.00343
G1 X74.324 Y97.658 E.01433
G1 X74.118 Y98.105 E.01543
G1 X73.803 Y98.483 E.01543
G1 X73.346 Y98.79 E.01726
G1 X72.94 Y98.938 E.01355
G1 X72.449 Y98.983 E.01546
G1 X71.964 Y98.9 E.01543
G1 X71.517 Y98.694 E.01543
G1 X71.139 Y98.379 E.01543
G1 X70.832 Y97.921 E.01729
G1 X70.682 Y97.501 E.01398
G1 X70.644 Y96.989 E.0161
G1 X70.722 Y96.54 E.01429
G1 X70.855 Y96.221 E.01084
G1 X71.154 Y95.799 E.01622
G1 X71.517 Y95.504 E.01467
G1 X72.013 Y95.288 E.01696
G1 X72.523 Y95.21 E.01618
G1 X73.082 Y95.298 E.01774
G1 X73.529 Y95.504 E.01543
G1 X73.908 Y95.819 E.01545
G1 X74.215 Y96.277 E.01729
G1 X74.364 Y96.697 E.01397
G1 X74.39 Y97.039 E.01075
M204 S1000
G1 X74.023 Y97.099 F10800
M204 S800
;TYPE:External perimeter
G1 F1200
G1 X74.029 Y97.159 E.00189
G1 X73.976 Y97.513 E.01122
G1 X73.819 Y97.875 E.01237
G1 X73.574 Y98.184 E.01236
G1 X73.201 Y98.442 E.01422
G1 X72.89 Y98.564 E.01047
G1 X72.499 Y98.609 E.01234
G1 X72.109 Y98.551 E.01236
G1 X71.747 Y98.394 E.01237
G1 X71.438 Y98.149 E.01236
G1 X71.18 Y97.777 E.01419
G1 X71.057 Y97.461 E.01063
G1 X71.018 Y97.038 E.01332
G1 X71.071 Y96.684 E.01122
G1 X71.203 Y96.365 E.01082
G1 X71.473 Y96.013 E.01391
G1 X71.822 Y95.766 E.01341
G1 X72.192 Y95.629 E.01237
G1 X72.548 Y95.588 E.01124
G1 X72.938 Y95.646 E.01236
G1 X73.3 Y95.803 E.01237
G1 X73.609 Y96.048 E.01236
G1 X73.867 Y96.421 E.01422
G1 X73.989 Y96.736 E.01059
G1 X74.018 Y97.039 E.00954
M204 S1000
;WIPE_START
G1 F8640
G1 X74.023 Y97.099 E-.0139
G1 X74.029 Y97.159 E-.01392
G1 X73.976 Y97.513 E-.08265
G1 X73.819 Y97.875 E-.09111
G1 X73.574 Y98.184 E-.09105
G1 X73.201 Y98.442 E-.10472
G1 X72.89 Y98.564 E-.07714
G1 X72.499 Y98.609 E-.09088
G1 X72.109 Y98.551 E-.09104
G1 X71.747 Y98.394 E-.09111
G1 X71.569 Y98.253 E-.05248
;WIPE_END
G1 Z.6 F720
G1 X70.622 Y95.172 F10800
G1 Z.2 F720
G1 E.8 F2100
M204 S800
;TYPE:Perimeter
G1 F1200
G1 X70.583 Y95.228 E.00214
G1 X70.393 Y95.334 E.00682
G1 X69.525 Y95.361 E.02723
G1 X55.777 Y95.361 E.43106
G1 X55.542 Y95.31 E.00754
G1 X55.387 Y95.205 E.00587
G1 X55.261 Y95.027 E.00684
G1 X55.211 Y94.795 E.00744
G1 X55.211 Y80.352 E.45285
G1 X55.286 Y80.072 E.00909
G1 X55.448 Y79.893 E.00757
G1 X55.659 Y79.799 E.00724
G1 X56.586 Y79.787 E.02907
