; generated by PrusaSlicer 2.9.3 on 2025-10-25 at 17:16:09 UTC


;
;
; 

; external perimeters extrusion width = 0.45mm
; perimeters extrusion width = 0.45mm
; infill extrusion width = 0.45mm
; solid infill extrusion width = 0.45mm
; top infill extrusion width = 0.40mm
; first layer extrusion width = 0.42mm

M73 P0 R157
M73 Q0 S158
M201 X1000 Y1000 Z200 E5000 ; sets maximum accelerations, mm/sec^2
M203 X200 Y200 Z12 E120 ; sets maximum feedrates, mm / sec
M204 S1250 T1250 ; sets acceleration (S) and retract acceleration (R), mm/sec^2
M205 X8.00 Y8.00 Z0.40 E4.50 ; sets the jerk limits, mm/sec
M205 S0 T0 ; sets the minimum extruding and travel feed rate, mm/sec

; printing object sofle_pico_keyplate_notched_RH_no_tenting_puck.stl id:0 copy 0
; stop printing object sofle_pico_keyplate_notched_RH_no_tenting_puck.stl id:0 copy 0

;TYPE:Custom
M862.3 P "MK3S" ; printer model check
M862.1 P0.4 ; nozzle diameter check
M115 U3.14.1 ; tell printer latest fw version
G90 ; use absolute coordinates
M83 ; extruder relative mode
M104 S215 ; set extruder temp
M140 S60 ; set bed temp
M190 S60 ; wait for bed temp
M109 S215 ; wait for extruder temp
G28 W ; home all without mesh bed level
G80 X39.3849 Y34.8005 W170.914 H141.736 ; mesh bed levelling

G1 Z0.2 F720
G1 Y-3 F1000 ; go outside print area
G92 E0
G1 X60 E9 F1000 ; intro line
G1 X100 E12.5 F1000 ; intro line

G92 E0
M221 S95

; Don't change E values below. Excessive value can damage the printer.
M907 E430 ; set extruder motor current
G21 ; set units to millimeters
G90 ; use absolute coordinates
M83 ; use relative distances for extrusion

M900 K0.05 ; Filament gcode LA 1.5
M900 K30 ; Filament gcode LA 1.0




M107
;LAYER_CHANGE
;Z:0.2
;HEIGHT:0.2
G1 E-.8 F2100
G1 Z.6 F720
G1 X55.303 Y38.803 F10800
G1 Z.2 F720
G1 E.8 F2100
M204 S800
;TYPE:Skirt/Brim
;WIDTH:0.42
G1 F1200
G1 X56.212 Y37.772 E.0431
G1 X57.402 Y36.775 E.04868
G1 X58.577 Y36.062 E.04309
G1 X60.08 Y35.442 E.05098
G1 X61.665 Y35.082 E.05096
G1 X63.215 Y34.991 E.04868
G1 X64.188 Y35.061 E.03059
G1 X201.83 Y66.13 E4.42425
G1 X203.05 Y66.496 E.03994
G1 X204.236 Y67.032 E.04081
G1 X205.133 Y67.578 E.03293
G1 X206.154 Y68.383 E.04077
G1 X207.463 Y69.829 E.06116
G1 X208.455 Y71.507 E.06112
G1 X208.819 Y72.413 E.03061
G1 X209.145 Y73.597 E.0385
G1 X209.349 Y75.536 E.06113
G1 X210.106 Y158.869 E2.61296
G1 X209.907 Y160.556 E.05326
G1 X209.443 Y162.114 E.05097
G1 X208.725 Y163.573 E.05099
G1 X207.606 Y165.08 E.05885
G1 X206.36 Y166.235 E.05327
G1 X204.707 Y167.269 E.06113
G1 X202.952 Y167.933 E.05883
G1 X201.279 Y168.231 E.05328
G1 X76.156 Y176.331 E3.93136
G1 X74.231 Y176.255 E.0604
G1 X72.337 Y175.792 E.06113
G1 X70.574 Y174.959 E.06114
G1 X69.014 Y173.79 E.06112
G1 X68.33 Y173.093 E.03062
G1 X67.676 Y172.272 E.03291
G1 X67.03 Y171.228 E.03849
G1 X66.603 Y170.32 E.03146
G1 X40.29 Y106.478 E2.16508
G1 X39.795 Y104.881 E.05242
G1 X39.583 Y103.27 E.05095
G1 X39.61 Y101.969 E.0408
G1 X39.809 Y100.69 E.04058
G1 X53.82 Y41.602 E1.90403
G1 X54.429 Y40.174 E.04868
G1 X55.271 Y38.854 E.04909
M204 S1000
;WIPE_START
G1 F8640
G1 X55.303 Y38.803 E-.0139
G1 X56.212 Y37.772 E-.31738
G1 X57.402 Y36.775 E-.35847
G1 X57.81 Y36.527 E-.11025
;WIPE_END
G1 Z.6 F720
; printing object sofle_pico_keyplate_notched_RH_no_tenting_puck.stl id:0 copy 0
G1 X137.153 Y102.584 F10800
G1 Z.2 F720
G1 E.8 F2100
M204 S800
;TYPE:Perimeter
;WIDTH:0.419999
G1 F1200
G1 X137.097 Y102.648 E.00267
G1 X136.956 Y102.725 E.00504
G1 X136.757 Y102.761 E.00634
G1 X122.315 Y102.761 E.45282
G1 X122.116 Y102.725 E.00634
G1 X121.866 Y102.539 E.00977
G1 X121.761 Y102.31 E.0079
G1 X121.749 Y101.231 E.03383
G1 X121.749 Y87.752 E.42262
G1 X121.78 Y87.569 E.00582
G1 X121.975 Y87.3 E.01042
G1 X122.265 Y87.189 E.00974
G1 X122.315 Y87.187 E.00157
G1 X136.757 Y87.187 E.45282
G1 X136.956 Y87.223 E.00634
G1 X137.21 Y87.413 E.00995
G1 X137.292 Y87.569 E.00553
G1 X137.323 Y87.752 E.00582
G1 X137.323 Y102.195 E.45285
G1 X137.249 Y102.474 E.00905
G1 X137.193 Y102.539 E.00269
M204 S1000
G1 X136.899 Y102.297 F10800
M204 S800
;TYPE:External perimeter
G1 F1200
G1 X136.881 Y102.338 E.0014
G1 X136.824 Y102.372 E.00208
G1 X122.315 Y102.384 E.45492
G1 X122.165 Y102.31 E.00524
G1 X122.126 Y102.195 E.00381
G1 X122.126 Y87.752 E.45285
G1 X122.201 Y87.601 E.00529
G1 X122.315 Y87.564 E.00376
G1 X136.757 Y87.564 E.45282
G1 X136.908 Y87.639 E.00529
G1 X136.946 Y87.752 E.00374
G1 X136.946 Y102.195 E.45285
G1 X136.924 Y102.243 E.00166
M204 S1000
;WIPE_START
G1 F8640
G1 X136.899 Y102.297 E-.01374
G1 X136.881 Y102.338 E-.01034
G1 X136.824 Y102.372 E-.01533
G1 X133.53 Y102.375 E-.76059
;WIPE_END
G1 Z.6 F720
G1 X140.985 Y119.139 F10800
G1 Z.2 F720
G1 E.8 F2100
M204 S800
;TYPE:Perimeter
G1 F1200
G1 X140.912 Y119.084 E.00287
G1 X140.807 Y118.843 E.00824
G1 X140.799 Y118.745 E.00308
G1 X140.799 Y104.302 E.45285
G1 X140.831 Y104.113 E.00601
G1 X140.994 Y103.874 E.00907
G1 X141.166 Y103.773 E.00625
G1 X141.364 Y103.737 E.00631
G1 X155.807 Y103.737 E.45285
G1 X156.006 Y103.773 E.00634
G1 X156.26 Y103.963 E.00995
G1 X156.342 Y104.119 E.00553
G1 X156.373 Y104.302 E.00582
G1 X156.373 Y118.745 E.45285
G1 X156.342 Y118.928 E.00582
G1 X156.147 Y119.198 E.01044
G1 X156.006 Y119.275 E.00504
G1 X155.807 Y119.311 E.00634
G1 X141.364 Y119.311 E.45285
G1 X141.166 Y119.275 E.00631
G1 X141.033 Y119.175 E.00522
M204 S1000
G1 X141.262 Y118.882 F10800
M204 S800
;TYPE:External perimeter
G1 F1200
G1 X141.213 Y118.858 E.00171
G1 X141.176 Y118.745 E.00373
G1 X141.187 Y104.239 E.45482
G1 X141.298 Y104.126 E.00497
G1 X141.364 Y104.114 E.0021
G1 X155.807 Y104.114 E.45285
G1 X155.958 Y104.189 E.00529
G1 X155.996 Y104.302 E.00374
G1 X155.996 Y118.745 E.45285
G1 X155.92 Y118.896 E.0053
M73 P0 R156
G1 X155.807 Y118.934 E.00374
G1 X141.364 Y118.934 E.45285
G1 X141.315 Y118.909 E.00172
M204 S1000
;WIPE_START
G1 F8640
G1 X141.262 Y118.882 E-.01373
G1 X141.213 Y118.858 E-.0126
G1 X141.176 Y118.745 E-.02746
G1 X141.178 Y115.513 E-.74621
;WIPE_END
G1 Z.6 F720
G1 X156.186 Y100.089 F10800
G1 Z.2 F720
G1 E.8 F2100
M204 S800
;TYPE:Perimeter
G1 F1200
G1 X156.006 Y100.225 E.00707
G1 X155.807 Y100.261 E.00634
G1 X141.364 Y100.261 E.45285
G1 X141.166 Y100.225 E.00631
G1 X140.912 Y100.035 E.00995
G1 X140.807 Y99.793 E.00827
G1 X140.799 Y99.695 E.00308
G1 X140.799 Y85.252 E.45285
G1 X140.872 Y84.973 E.00904
M73 Q0 S157
G1 X141.025 Y84.8 E.00724
G1 X141.315 Y84.689 E.00974
G1 X141.364 Y84.687 E.00154
G1 X155.807 Y84.687 E.45285
G1 X156.006 Y84.723 E.00634
G1 X156.26 Y84.913 E.00995
G1 X156.342 Y85.069 E.00553
G1 X156.373 Y85.252 E.00582
G1 X156.373 Y99.695 E.45285
G1 X156.342 Y99.879 E.00585
G1 X156.26 Y100.035 E.00553
G1 X156.235 Y100.053 E.00097
M204 S1000
G1 X155.91 Y99.832 F10800
M204 S800
;TYPE:External perimeter
G1 F1200
G1 X155.807 Y99.884 E.00362
G1 X141.364 Y99.884 E.45285
G1 X141.213 Y99.808 E.0053
G1 X141.176 Y99.695 E.00373
G1 X141.176 Y85.252 E.45285
G1 X141.241 Y85.11 E.0049
G1 X141.364 Y85.064 E.00412
G1 X155.807 Y85.064 E.45285
G1 X155.958 Y85.139 E.00529
G1 X155.996 Y85.252 E.00374
G1 X155.996 Y99.695 E.45285
G1 X155.96 Y99.802 E.00354
M204 S1000
;WIPE_START
G1 F8640
G1 X155.91 Y99.832 E-.01346
G1 X155.807 Y99.884 E-.02664
G1 X152.516 Y99.884 E-.7599
;WIPE_END
G1 Z.6 F720
G1 X175.252 Y114.23 F10800
G1 Z.2 F720
G1 E.8 F2100
M204 S800
;TYPE:Perimeter
G1 F1200
G1 X175.196 Y114.298 E.00276
G1 X174.994 Y114.394 E.00701
G1 X174.857 Y114.411 E.00433
G1 X160.414 Y114.411 E.45285
G1 X160.216 Y114.375 E.00631
G1 X159.962 Y114.184 E.00996
G1 X159.857 Y113.943 E.00824
G1 X159.849 Y113.845 E.00308
G1 X159.849 Y99.402 E.45285
G1 X159.879 Y99.219 E.00581
G1 X160.075 Y98.95 E.01044
G1 X160.365 Y98.839 E.00974
G1 X160.414 Y98.837 E.00154
G1 X174.857 Y98.837 E.45285
G1 X175.031 Y98.864 E.00552
G1 X175.29 Y99.039 E.0098
G1 X175.395 Y99.229 E.00681
G1 X175.423 Y100.097 E.02723
G1 X175.423 Y113.845 E.43106
G1 X175.363 Y114.098 E.00815
G1 X175.291 Y114.184 E.00352
M204 S1000
G1 X174.958 Y113.992 F10800
M204 S800
;TYPE:External perimeter
G1 F1200
G1 X174.857 Y114.034 E.00343
G1 X160.414 Y114.034 E.45285
G1 X160.263 Y113.958 E.0053
G1 X160.226 Y113.845 E.00373
G1 X160.226 Y99.402 E.45285
G1 X160.301 Y99.251 E.00529
G1 X160.414 Y99.214 E.00373
G1 X174.857 Y99.214 E.45285
G1 X175.007 Y99.287 E.00523
G1 X175.046 Y99.402 E.00381
G1 X175.046 Y113.845 E.45285
G1 X175 Y113.955 E.00374
M204 S1000
;WIPE_START
G1 F8640
G1 X174.958 Y113.992 E-.01292
G1 X174.857 Y114.034 E-.02526
G1 X171.558 Y114.034 E-.76182
;WIPE_END
G1 Z.6 F720
G1 X194.314 Y133.281 F10800
G1 Z.2 F720
G1 E.8 F2100
M204 S800
;TYPE:Perimeter
G1 F1200
G1 X194.297 Y133.305 E.00092
G1 X194.033 Y133.446 E.00938
G1 X193.907 Y133.461 E.00398
G1 X179.464 Y133.461 E.45285
G1 X179.302 Y133.437 E.00513
G1 X179.105 Y133.332 E.007
G1 X178.93 Y133.08 E.00962
G1 X178.899 Y132.635 E.01399
G1 X178.899 Y118.452 E.4447
G1 X178.958 Y118.199 E.00815
G1 X179.125 Y118 E.00815
G1 X179.327 Y117.903 E.00703
G1 X179.464 Y117.886 E.00433
G1 X193.907 Y117.886 E.45285
G1 X194.142 Y117.937 E.00754
G1 X194.297 Y118.042 E.00587
G1 X194.423 Y118.22 E.00684
G1 X194.473 Y118.452 E.00744
G1 X194.473 Y132.895 E.45285
G1 X194.423 Y133.127 E.00744
G1 X194.348 Y133.232 E.00405
M204 S1000
G1 X194.052 Y132.996 F10800
M204 S800
;TYPE:External perimeter
G1 F1200
G1 X194.037 Y133.032 E.00122
G1 X193.907 Y133.083 E.00438
G1 X179.464 Y133.083 E.45285
G1 X179.317 Y133.013 E.0051
G1 X179.276 Y132.895 E.00392
G1 X179.276 Y118.452 E.45285
G1 X179.331 Y118.319 E.00451
G1 X179.464 Y118.264 E.00451
G1 X193.907 Y118.264 E.45285
G1 X194.037 Y118.316 E.00439
G1 X194.096 Y118.452 E.00465
G1 X194.096 Y132.895 E.45285
G1 X194.076 Y132.941 E.00157
M204 S1000
;WIPE_START
G1 F8640
G1 X194.052 Y132.996 E-.01386
G1 X194.037 Y133.032 E-.00901
G1 X193.907 Y133.083 E-.03224
G1 X190.681 Y133.083 E-.74489
;WIPE_END
G1 Z.6 F720
G1 X175.254 Y133.291 F10800
G1 Z.2 F720
G1 E.8 F2100
M204 S800
;TYPE:Perimeter
G1 F1200
G1 X175.201 Y133.344 E.00235
G1 X174.887 Y133.46 E.0105
G1 X160.414 Y133.461 E.45379
G1 X160.216 Y133.425 E.00631
G1 X159.962 Y133.234 E.00996
G1 X159.857 Y132.993 E.00824
G1 X159.849 Y132.895 E.00308
G1 X159.849 Y118.452 E.45285
G1 X159.879 Y118.269 E.00581
G1 X160.075 Y118 E.01044
G1 X160.365 Y117.889 E.00974
G1 X160.414 Y117.886 E.00154
G1 X174.857 Y117.886 E.45285
G1 X175.11 Y117.946 E.00815
G1 X175.31 Y118.113 E.00817
G1 X175.406 Y118.315 E.00701
G1 X175.423 Y118.452 E.00433
G1 X175.423 Y132.895 E.45285
G1 X175.395 Y133.07 E.00556
G1 X175.306 Y133.239 E.00599
G1 X175.296 Y133.249 E.00044
M204 S1000
G1 X174.96 Y133.033 F10800
M204 S800
;TYPE:External perimeter
G1 F1200
G1 X174.857 Y133.083 E.00359
G1 X160.414 Y133.083 E.45285
G1 X160.263 Y133.008 E.00529
G1 X160.226 Y132.895 E.00373
G1 X160.226 Y118.452 E.45285
G1 X160.301 Y118.301 E.00529
G1 X160.414 Y118.264 E.00373
G1 X174.857 Y118.264 E.45285
G1 X174.99 Y118.319 E.00451
G1 X175.046 Y118.452 E.00452
G1 X175.046 Y132.895 E.45285
G1 X175.009 Y133.002 E.00355
M204 S1000
;WIPE_START
G1 F8640
G1 X174.96 Y133.033 E-.01339
G1 X174.857 Y133.083 E-.02644
G1 X171.565 Y133.083 E-.76017
;WIPE_END
G1 Z.6 F720
G1 X175.55 Y134.275 F10800
G1 Z.2 F720
G1 E.8 F2100
M204 S800
;TYPE:Perimeter
G1 F1200
G1 X175.581 Y134.207 E.00234
G1 X175.895 Y133.829 E.01541
G1 X176.358 Y133.52 E.01745
G1 X176.759 Y133.374 E.01338
G1 X177.2 Y133.332 E.01389
G1 X177.734 Y133.413 E.01693
G1 X178.182 Y133.619 E.01546
G1 X178.56 Y133.933 E.01541
G1 X178.858 Y134.368 E.01653
G1 X179.015 Y134.797 E.01432
G1 X179.06 Y135.287 E.01543
G1 X178.976 Y135.772 E.01543
G1 X178.865 Y136.04 E.0091
G1 X178.56 Y136.494 E.01715
G1 X178.182 Y136.808 E.01541
G1 X177.734 Y137.014 E.01546
G1 X177.172 Y137.102 E.01784
G1 X176.617 Y137.014 E.01762
G1 X176.17 Y136.808 E.01543
G1 X175.791 Y136.494 E.01543
G1 X175.507 Y136.092 E.01543
G1 X175.336 Y135.63 E.01545
G1 X175.291 Y135.14 E.01543
G1 X175.375 Y134.654 E.01546
G1 X175.524 Y134.33 E.01118
M204 S1000
G1 X175.87 Y134.46 F10800
M204 S800
;TYPE:External perimeter
G1 F1200
G1 X175.88 Y134.437 E.00079
G1 X176.125 Y134.128 E.01236
G1 X176.502 Y133.868 E.01436
G1 X176.808 Y133.748 E.01031
G1 X177.16 Y133.707 E.01111
G1 X177.59 Y133.761 E.01359
G1 X177.952 Y133.918 E.01237
G1 X178.261 Y134.163 E.01236
G1 X178.509 Y134.512 E.01342
G1 X178.641 Y134.846 E.01126
G1 X178.686 Y135.238 E.01237
G1 X178.628 Y135.628 E.01236
G1 X178.517 Y135.896 E.0091
G1 X178.226 Y136.299 E.01559
G1 X177.858 Y136.555 E.01406
G1 X177.543 Y136.679 E.01061
G1 X177.151 Y136.724 E.01237
G1 X176.761 Y136.666 E.01236
G1 X176.399 Y136.509 E.01237
G1 X176.09 Y136.264 E.01236
G1 X175.823 Y135.868 E.01497
G1 X175.71 Y135.581 E.00967
G1 X175.665 Y135.189 E.01237
G1 X175.723 Y134.799 E.01236
G1 X175.846 Y134.515 E.0097
M204 S1000
;WIPE_START
G1 F8640
G1 X175.87 Y134.46 E-.01386
G1 X175.88 Y134.437 E-.00579
G1 X176.125 Y134.128 E-.09105
G1 X176.502 Y133.868 E-.10574
G1 X176.808 Y133.748 E-.0759
G1 X177.16 Y133.707 E-.08183
G1 X177.59 Y133.761 E-.10007
G1 X177.952 Y133.918 E-.09111
G1 X178.261 Y134.163 E-.09105
G1 X178.509 Y134.512 E-.09886
G1 X178.58 Y134.692 E-.04474
;WIPE_END
G1 Z.6 F720
G1 X160.035 Y152.344 F10800
G1 Z.2 F720
G1 E.8 F2100
M204 S800
;TYPE:Perimeter
G1 F1200
G1 X159.976 Y152.303 E.00225
G1 X159.857 Y152.043 E.00897
G1 X159.849 Y151.945 E.00308
G1 X159.849 Y137.502 E.45285
G1 X159.879 Y137.319 E.00581
G1 X160.075 Y137.049 E.01046
G1 X160.365 Y136.939 E.00972
G1 X160.414 Y136.936 E.00154
G1 X174.857 Y136.936 E.45285
G1 X175.042 Y136.967 E.00588
G1 X175.294 Y137.143 E.00964
G1 X175.399 Y137.34 E.007
G1 X175.423 Y138.225 E.02776
G1 X175.423 Y151.945 E.43018
G1 X175.351 Y152.221 E.00894
G1 X175.234 Y152.366 E.00584
G1 X174.996 Y152.493 E.00846
G1 X174.857 Y152.51 E.00439
G1 X160.414 Y152.51 E.45285
G1 X160.231 Y152.48 E.00581
G1 X160.084 Y152.378 E.00561
M204 S1000
G1 X160.312 Y152.085 F10800
M204 S800
;TYPE:External perimeter
G1 F1200
G1 X160.268 Y152.064 E.00153
G1 X160.226 Y151.945 E.00396
G1 X160.226 Y137.502 E.45285
G1 X160.301 Y137.351 E.00529
G1 X160.414 Y137.313 E.00374
G1 X174.857 Y137.313 E.45285
G1 X175.003 Y137.382 E.00506
G1 X175.046 Y137.502 E.004
G1 X175.046 Y151.945 E.45285
G1 X175.022 Y152.037 E.00298
G1 X174.903 Y152.128 E.0047
G1 X174.857 Y152.133 E.00145
G1 X160.414 Y152.133 E.45285
G1 X160.366 Y152.111 E.00166
M204 S1000
;WIPE_START
G1 F8640
G1 X160.312 Y152.085 E-.01384
G1 X160.268 Y152.064 E-.01126
G1 X160.226 Y151.945 E-.02914
G1 X160.226 Y148.715 E-.74576
;WIPE_END
G1 Z.6 F720
G1 X194.314 Y137.116 F10800
G1 Z.2 F720
G1 E.8 F2100
M204 S800
;TYPE:Perimeter
G1 F1200
G1 X194.423 Y137.27 E.00592
G1 X194.473 Y137.502 E.00744
G1 X194.473 Y151.945 E.45285
G1 X194.396 Y152.228 E.0092
G1 X194.278 Y152.372 E.00584
G1 X194.137 Y152.461 E.00523
G1 X193.907 Y152.51 E.00737
G1 X179.464 Y152.51 E.45285
G1 X179.192 Y152.441 E.0088
G1 X179.031 Y152.308 E.00655
G1 X178.919 Y152.097 E.00749
G1 X178.899 Y151.945 E.00481
G1 X178.899 Y137.502 E.45285
G1 X178.925 Y137.33 E.00545
G1 X179.031 Y137.138 E.00688
G1 X179.293 Y136.963 E.00988
G1 X180.16 Y136.936 E.0272
G1 X193.907 Y136.936 E.43103
G1 X194.142 Y136.987 E.00754
G1 X194.271 Y137.075 E.0049
M204 S1000
G1 X194.052 Y137.401 F10800
M204 S800
;TYPE:External perimeter
G1 F1200
G1 X194.096 Y137.502 E.00345
G1 X194.096 Y151.945 E.45285
G1 X194.031 Y152.087 E.0049
G1 X193.907 Y152.133 E.00415
G1 X179.464 Y152.133 E.45285
G1 X179.32 Y152.066 E.00498
G1 X179.276 Y151.945 E.00404
G1 X179.276 Y137.502 E.45285
G1 X179.349 Y137.352 E.00523
G1 X179.464 Y137.313 E.00381
G1 X193.907 Y137.313 E.45285
G1 X194.017 Y137.357 E.00371
M204 S1000
;WIPE_START
G1 F8640
G1 X194.052 Y137.401 E-.01298
G1 X194.096 Y137.502 E-.02544
G1 X194.096 Y140.8 E-.76158
;WIPE_END
G1 Z.6 F720
G1 X156.21 Y157.234 F10800
G1 Z.2 F720
G1 E.8 F2100
M204 S800
;TYPE:Perimeter
G1 F1200
G1 X156.187 Y157.264 E.00119
G1 X155.975 Y157.385 E.00765
G1 X155.807 Y157.41 E.00533
G1 X141.364 Y157.41 E.45285
G1 X141.101 Y157.346 E.00849
G1 X140.93 Y157.207 E.00691
G1 X140.807 Y156.942 E.00916
G1 X140.799 Y156.845 E.00305
G1 X140.799 Y142.402 E.45285
G1 X140.872 Y142.123 E.00904
G1 X141.025 Y141.949 E.00726
G1 X141.315 Y141.838 E.00974
