; generated by PrusaSlicer 2.9.3 on 2025-10-27 at 02:47:34 UTC


;
;
; 

; external perimeters extrusion width = 0.45mm
; perimeters extrusion width = 0.45mm
; infill extrusion width = 0.45mm
; solid infill extrusion width = 0.45mm
; top infill extrusion width = 0.40mm
; support material extrusion width = 0.35mm
; first layer extrusion width = 0.42mm

M73 P0 R174
M73 Q0 S174
M201 X1000 Y1000 Z200 E5000 ; sets maximum accelerations, mm/sec^2
M203 X200 Y200 Z12 E120 ; sets maximum feedrates, mm / sec
M204 S1250 T1250 ; sets acceleration (S) and retract acceleration (R), mm/sec^2
M205 X8.00 Y8.00 Z0.40 E4.50 ; sets the jerk limits, mm/sec
M205 S0 T0 ; sets the minimum extruding and travel feed rate, mm/sec

; printing object sofle_pico_backplate_v3.4_no_tenting_puck.stl id:0 copy 0
; stop printing object sofle_pico_backplate_v3.4_no_tenting_puck.stl id:0 copy 0

;TYPE:Custom
M862.3 P "MK3S" ; printer model check
M862.1 P0.4 ; nozzle diameter check
M115 U3.14.1 ; tell printer latest fw version
G90 ; use absolute coordinates
M83 ; extruder relative mode
M104 S215 ; set extruder temp
M140 S60 ; set bed temp
M190 S60 ; wait for bed temp
M109 S215 ; wait for extruder temp
G28 W ; home all without mesh bed level
G80 X49.2455 Y44.0552 W159.975 H130.856 ; mesh bed levelling

G1 Z0.2 F720
G1 Y-3 F1000 ; go outside print area
G92 E0
G1 X60 E9 F1000 ; intro line
G1 X100 E12.5 F1000 ; intro line
M73 P0 R173

G92 E0
M221 S95

; Don't change E values below. Excessive value can damage the printer.
M907 E430 ; set extruder motor current
G21 ; set units to millimeters
G90 ; use absolute coordinates
M83 ; use relative distances for extrusion

M900 K0.05 ; Filament gcode LA 1.5
M900 K30 ; Filament gcode LA 1.0




M107
;LAYER_CHANGE
;Z:0.2
;HEIGHT:0.2
G1 E-.8 F2100
G1 Z.6 F720
G1 X53.345 Y75.329 F10800
G1 Z.2 F720
G1 E.8 F2100
M204 S800
;TYPE:Skirt/Brim
;WIDTH:0.42
G1 F1200
G1 X54.787 Y74.576 E.05101
G1 X94.432 Y59.989 E1.32451
G1 X187.988 Y44.409 E2.97378
G1 X189.003 Y44.267 E.03213
G1 X189.834 Y44.248 E.02606
G1 X190.955 Y44.346 E.03528
G1 X191.768 Y44.515 E.02604
G1 X192.838 Y44.864 E.03529
G1 X193.592 Y45.213 E.02605
G1 X194.556 Y45.794 E.03529
G1 X195.211 Y46.304 E.02603
G1 X196.019 Y47.088 E.0353
G1 X196.542 Y47.732 E.02601
G1 X197.224 Y48.817 E.04018
G1 X208.139 Y70.238 E.75381
G1 X208.689 Y71.644 E.04734
G1 X208.97 Y73.012 E.04379
G1 X209.032 Y74.004 E.03116
G1 X209.032 Y166.287 E2.89347
G1 X208.824 Y168.033 E.05513
G1 X208.559 Y168.95 E.02993
G1 X208.173 Y169.881 E.0316
G1 X207.712 Y170.716 E.02991
G1 X206.94 Y171.754 E.04056
G1 X206.063 Y172.63 E.03887
G1 X205.026 Y173.403 E.04055
G1 X204.19 Y173.864 E.02993
G1 X203.26 Y174.249 E.03156
G1 X202.062 Y174.57 E.03889
G1 X200.597 Y174.722 E.04618
G1 X114.881 Y174.718 E2.68756
G1 X56.707 Y167.23 E1.83905
G1 X55.307 Y166.894 E.04514
G1 X53.655 Y166.137 E.05698
G1 X52.708 Y165.488 E.036
G1 X51.406 Y164.219 E.05701
G1 X50.571 Y163.015 E.04594
G1 X49.84 Y161.351 E.05699
G1 X49.565 Y160.237 E.03598
G1 X49.434 Y158.876 E.04287
G1 X49.434 Y82.397 E2.39795
G1 X49.598 Y80.843 E.049
M73 Q0 S173
G1 X49.808 Y80.021 E.0266
G1 X50.215 Y78.946 E.03604
G1 X50.609 Y78.195 E.02659
G1 X51.253 Y77.243 E.03604
G1 X52.461 Y75.987 E.05464
G1 X53.297 Y75.365 E.03267
M204 S1000
;WIPE_START
G1 F8640
G1 X53.345 Y75.329 E-.01385
G1 X54.787 Y74.576 E-.37563
G1 X56.456 Y73.962 E-.41052
;WIPE_END
G1 Z.6 F720
G1 X54.643 Y77.522 F10800
G1 Z.2 F720
G1 E.8 F2100
M204 S800
G1 F1200
G1 X55.642 Y76.899 E.03691
G1 X94.874 Y62.427 E1.31112
G1 X133.58 Y62.272 E1.21361
G1 X188.106 Y46.914 E1.77615
G1 X189.211 Y46.738 E.03508
G1 X190.338 Y46.763 E.03534
G1 X191.756 Y47.105 E.04574
G1 X193.054 Y47.772 E.04576
G1 X194.155 Y48.725 E.04566
G1 X194.999 Y49.907 E.04554
G1 X205.938 Y71.37 E.75532
G1 X206.319 Y72.367 E.03347
G1 X206.524 Y73.415 E.03348
G1 X206.557 Y166.272 E2.91147
G1 X206.384 Y167.566 E.04093
G1 X205.956 Y168.788 E.0406
G1 X204.467 Y170.743 E.07705
G1 X203.522 Y171.413 E.03632
G1 X202.463 Y171.906 E.03663
G1 X200.617 Y172.247 E.05886
G1 X115.037 Y172.247 E2.6833
G1 X57.15 Y164.795 E1.82998
G1 X56.004 Y164.51 E.03703
G1 X54.919 Y164.012 E.03743
G1 X53.21 Y162.515 E.07123
G1 X52.628 Y161.61 E.03374
G1 X52.202 Y160.612 E.03402
G1 X51.909 Y158.895 E.05461
G1 X51.909 Y82.405 E2.39829
G1 X52.076 Y81.123 E.04054
G1 X52.498 Y79.921 E.03994
G1 X53.161 Y78.831 E.04
G1 X54.019 Y77.911 E.03944
G1 X54.592 Y77.554 E.02117
M204 S1000
G1 X54.789 Y77.869 F10800
M204 S800
G1 F1200
G1 X55.79 Y77.246 E.03697
G1 X94.974 Y62.792 E1.30951
G1 X133.633 Y62.649 E1.21213
G1 X188.198 Y47.28 E1.77742
M73 P0 R172
G1 X189.253 Y47.113 E.03349
G1 X190.308 Y47.139 E.03309
G1 X191.644 Y47.466 E.04313
G1 X192.86 Y48.096 E.04294
G1 X193.89 Y48.994 E.04285
G1 X194.683 Y50.113 E.043
G1 X205.597 Y71.532 E.75374
G1 X205.961 Y72.486 E.03202
G1 X206.148 Y73.448 E.03073
G1 X206.18 Y166.26 E2.91006
G1 X206.022 Y167.46 E.03795
G1 X205.61 Y168.636 E.03907
G1 X204.226 Y170.452 E.07159
G1 X203.318 Y171.095 E.03489
G1 X202.327 Y171.553 E.03423
G1 X200.6 Y171.87 E.05505
G1 X115.049 Y171.87 E2.68239
G1 X57.209 Y164.422 E1.82851
G1 X56.113 Y164.149 E.03541
G1 X55.102 Y163.682 E.03492
G1 X53.513 Y162.289 E.06626
G1 X52.954 Y161.419 E.03242
G1 X52.558 Y160.485 E.03181
G1 X52.286 Y158.879 E.05107
G1 X52.286 Y82.416 E2.39744
G1 X52.439 Y81.228 E.03756
G1 X52.831 Y80.099 E.03747
G1 X53.45 Y79.074 E.03754
G1 X54.278 Y78.187 E.03805
G1 X54.738 Y77.901 E.01698
M204 S1000
G1 X54.933 Y78.216 F10800
M204 S800
G1 F1200
G1 X55.939 Y77.593 E.0371
G1 X95.073 Y63.158 E1.30783
G1 X133.686 Y63.026 E1.21069
G1 X188.29 Y47.646 E1.77869
G1 X189.261 Y47.491 E.03083
G1 X190.277 Y47.515 E.03186
G1 X191.531 Y47.826 E.04051
G1 X192.665 Y48.419 E.04012
G1 X193.596 Y49.231 E.03873
G1 X194.354 Y50.297 E.04101
G1 X205.257 Y71.695 E.75299
G1 X205.594 Y72.575 E.02955
M73 Q0 S172
G1 X205.773 Y73.482 E.02899
G1 X205.802 Y166.247 E2.90858
G1 X205.651 Y167.391 E.03618
G1 X205.264 Y168.482 E.0363
G1 X203.984 Y170.162 E.06622
G1 X203.144 Y170.76 E.03233
G1 X202.191 Y171.201 E.03292
G1 X200.584 Y171.493 E.05121
G1 X115.061 Y171.493 E2.68151
G1 X57.268 Y164.05 E1.82702
G1 X56.255 Y163.799 E.03272
M73 P1 R172
M73 Q1 S172
G1 X55.285 Y163.351 E.0335
G1 X53.815 Y162.062 E.0613
G1 X53.295 Y161.257 E.03005
G1 X52.914 Y160.358 E.03061
G1 X52.663 Y158.864 E.0475
G1 X52.663 Y82.429 E2.39657
G1 X52.81 Y81.296 E.03582
G1 X53.18 Y80.243 E.03499
G1 X53.762 Y79.287 E.03509
G1 X54.536 Y78.463 E.03545
G1 X54.882 Y78.248 E.01277
M204 S1000
G1 X55.078 Y78.564 F10800
M204 S800
G1 F1200
G1 X56.087 Y77.94 E.0372
G1 X95.173 Y63.523 E1.30622
G1 X133.739 Y63.403 E1.20922
G1 X188.381 Y48.012 E1.77993
G1 X189.303 Y47.866 E.02927
G1 X190.246 Y47.892 E.02958
G1 X191.416 Y48.186 E.03782
G1 X192.469 Y48.742 E.03734
G1 X193.33 Y49.499 E.03595
G1 X194.024 Y50.48 E.03768
G1 X204.916 Y71.857 E.75225
G1 X205.227 Y72.665 E.02715
G1 X205.397 Y73.517 E.02724
G1 X205.425 Y166.235 E2.90711
G1 X205.28 Y167.32 E.03432
M73 P1 R171
G1 X204.919 Y168.327 E.03354
G1 X203.742 Y169.871 E.06087
G1 X202.94 Y170.442 E.03087
G1 X202.055 Y170.848 E.03053
G1 X200.567 Y171.116 E.04741
G1 X115.073 Y171.116 E2.6806
G1 X57.327 Y163.677 E1.82555
G1 X56.364 Y163.437 E.03112
G1 X55.469 Y163.02 E.03096
G1 X54.117 Y161.835 E.05637
G1 X53.621 Y161.067 E.02867
G1 X53.27 Y160.233 E.02837
G1 X53.04 Y158.849 E.04399
G1 X53.04 Y82.44 E2.39575
G1 X53.173 Y81.402 E.03281
G1 X53.529 Y80.387 E.03373
G1 X54.072 Y79.501 E.03258
G1 X54.792 Y78.74 E.03285
G1 X55.027 Y78.596 E.00864
M204 S1000
G1 X55.221 Y78.912 F10800
M204 S800
G1 F1200
G1 X56.235 Y78.288 E.03733
G1 X95.272 Y63.888 E1.3046
G1 X133.791 Y63.78 E1.20774
G1 X188.472 Y48.378 E1.7812
G1 X189.343 Y48.241 E.02765
G1 X190.214 Y48.268 E.02732
G1 X191.262 Y48.531 E.03388
G1 X192.238 Y49.041 E.03453
G1 X193.036 Y49.736 E.03318
G1 X193.694 Y50.664 E.03567
G1 X204.576 Y72.02 E.75152
G1 X204.869 Y72.785 E.02569
G1 X205.021 Y73.551 E.02449
G1 X205.048 Y166.222 E2.90563
G1 X204.918 Y167.212 E.03131
G1 X204.574 Y168.173 E.032
G1 X203.499 Y169.581 E.05554
G1 X202.766 Y170.107 E.02829
G1 X201.92 Y170.495 E.02918
G1 X200.551 Y170.739 E.0436
G1 X115.085 Y170.739 E2.67973
G1 X57.386 Y163.304 E1.82407
M73 Q1 S171
G1 X56.474 Y163.076 E.02948
G1 X55.654 Y162.691 E.0284
G1 X54.419 Y161.608 E.0515
G1 X53.962 Y160.905 E.02629
G1 X53.626 Y160.107 E.02715
G1 X53.417 Y158.833 E.04048
G1 X53.417 Y82.452 E2.39487
G1 X53.536 Y81.506 E.02989
G1 X53.861 Y80.566 E.03118
G1 X54.383 Y79.716 E.03128
G1 X55.048 Y79.018 E.03023
G1 X55.17 Y78.943 E.00449
M204 S1000
G1 X55.364 Y79.26 F10800
M204 S800
G1 F1200
G1 X56.382 Y78.635 E.03745
G1 X95.372 Y64.253 E1.30302
G1 X133.844 Y64.157 E1.20627
G1 X188.564 Y48.744 E1.78247
G1 X189.35 Y48.619 E.02495
G1 X190.181 Y48.644 E.02607
G1 X191.146 Y48.89 E.03122
G1 X192.042 Y49.364 E.03178
G1 X192.769 Y50.004 E.03037
G1 X193.364 Y50.847 E.03235
G1 X204.236 Y72.182 E.75079
G1 X204.503 Y72.875 E.02329
G1 X204.645 Y73.585 E.0227
G1 X204.671 Y166.21 E2.90419
G1 X204.547 Y167.142 E.02948
G1 X204.229 Y168.017 E.02919
G1 X203.257 Y169.291 E.05024
G1 X202.561 Y169.79 E.02685
G1 X201.786 Y170.142 E.02669
G1 X200.534 Y170.362 E.03986
G1 X115.097 Y170.362 E2.67882
G1 X57.445 Y162.932 E1.82259
G1 X56.617 Y162.727 E.02675
G1 X55.838 Y162.361 E.02699
G1 X54.721 Y161.381 E.04659
G1 X54.288 Y160.714 E.02493
G1 X53.983 Y159.983 E.02484
G1 X53.795 Y158.818 E.037
G1 X53.795 Y82.464 E2.39403
G1 X53.907 Y81.574 E.02813
M73 P1 R170
G1 X54.21 Y80.711 E.02868
G1 X54.693 Y79.932 E.02874
G1 X55.303 Y79.297 E.02761
G1 X55.313 Y79.291 E.00037
M204 S1000
G1 X55.556 Y79.577 F10800
M204 S800
G1 F1200
G1 X56.53 Y78.982 E.03579
G1 X95.471 Y64.619 E1.30137
G1 X133.896 Y64.534 E1.20479
G1 X188.656 Y49.11 E1.78377
G1 X189.39 Y48.994 E.0233
G1 X190.147 Y49.02 E.02375
G1 X191.029 Y49.249 E.02857
G1 X191.843 Y49.685 E.02895
G1 X192.502 Y50.271 E.02765
G1 X193.034 Y51.03 E.02906
G1 X203.895 Y72.345 E.75008
G1 X204.137 Y72.966 E.0209
G1 X204.27 Y73.621 E.02096
G1 X204.294 Y166.197 E2.90266
G1 X204.176 Y167.07 E.02762
G1 X203.886 Y167.86 E.02639
G1 X203.013 Y169.002 E.04507
G1 X202.388 Y169.455 E.0242
G1 X201.653 Y169.789 E.02531
G1 X200.519 Y169.985 E.03608
G1 X115.109 Y169.985 E2.67797
G1 X57.504 Y162.559 E1.82111
G1 X56.727 Y162.366 E.0251
G1 X56.024 Y162.032 E.0244
G1 X55.022 Y161.152 E.04181
G1 X54.629 Y160.552 E.02249
G1 X54.34 Y159.859 E.02354
G1 X54.172 Y158.804 E.0335
G1 X54.172 Y82.476 E2.39321
G1 X54.278 Y81.642 E.02636
M73 P2 R170
M73 Q2 S171
G1 X54.558 Y80.858 E.0261
G1 X55.001 Y80.15 E.02619
G1 X55.515 Y79.62 E.02315
M204 S1000
G1 X55.785 Y79.883 F10800
M204 S800
G1 F1200
G1 X55.81 Y79.857 E.00113
G1 X56.677 Y79.33 E.03181
G1 X95.57 Y64.984 E1.29978
G1 X133.949 Y64.911 E1.20335
G1 X188.747 Y49.476 E1.78501
M73 Q2 S170
G1 X189.43 Y49.369 E.02168
G1 X190.11 Y49.396 E.02134
G1 X190.911 Y49.608 E.02598
G1 X191.611 Y49.983 E.0249
G1 X192.207 Y50.506 E.02486
G1 X192.704 Y51.213 E.0271
G1 X203.555 Y72.508 E.74938
G1 X203.779 Y73.087 E.01947
G1 X203.894 Y73.656 E.0182
G1 X203.917 Y166.185 E2.90118
G1 X203.815 Y166.96 E.02451
G1 X203.541 Y167.703 E.02483
G1 X202.769 Y168.713 E.03986
G1 X202.183 Y169.138 E.0227
G1 X201.521 Y169.435 E.02275
G1 X200.503 Y169.608 E.03238
G1 X115.121 Y169.607 E2.67709
G1 X57.562 Y162.187 E1.81966
G1 X56.871 Y162.017 E.02231
G1 X56.209 Y161.702 E.02299
G1 X55.324 Y160.924 E.03695
G1 X54.954 Y160.361 E.02112
G1 X54.697 Y159.737 E.02116
G1 X54.549 Y158.789 E.03008
G1 X54.549 Y82.488 E2.39236
G1 X54.641 Y81.747 E.02341
G1 X54.89 Y81.038 E.02356
G1 X55.286 Y80.397 E.02362
G1 X55.743 Y79.926 E.02058
M204 S1000
G1 X56.012 Y80.19 F10800
M204 S800
G1 F1200
G1 X56.062 Y80.139 E.00224
G1 X56.825 Y79.678 E.02795
G1 X95.669 Y65.349 E1.29815
G1 X134.001 Y65.288 E1.20187
G1 X188.838 Y49.842 E1.78628
G1 X189.468 Y49.745 E.01999
G1 X190.072 Y49.772 E.01896
G1 X190.79 Y49.966 E.02332
G1 X191.411 Y50.303 E.02215
G1 X191.939 Y50.773 E.02216
G1 X192.374 Y51.395 E.0238
G1 X203.215 Y72.671 E.7487
M73 P2 R169
G1 X203.518 Y73.692 E.03339
G1 X203.54 Y166.172 E2.89965
G1 X203.444 Y166.888 E.02265
G1 X203.198 Y167.544 E.02197
G1 X202.525 Y168.425 E.03476
G1 X202.01 Y168.802 E.02001
G1 X201.389 Y169.081 E.02135
G1 X200.488 Y169.23 E.02863
G1 X115.133 Y169.23 E2.67625
G1 X57.621 Y161.814 E1.81818
G1 X56.981 Y161.656 E.02067
G1 X56.396 Y161.374 E.02036
G1 X55.624 Y160.695 E.03224
G1 X55.296 Y160.2 E.01862
G1 X55.055 Y159.614 E.01987
G1 X54.926 Y158.775 E.02662
G1 X54.926 Y82.5 E2.39155
G1 X55.013 Y81.816 E.02162
G1 X55.237 Y81.185 E.02099
G1 X55.594 Y80.616 E.02106
G1 X55.97 Y80.233 E.01683
M204 S1000
G1 X56.237 Y80.498 F10800
M204 S800
G1 F1200
G1 X56.313 Y80.422 E.00337
G1 X56.971 Y80.025 E.0241
G1 X95.769 Y65.715 E1.29659
G1 X134.053 Y65.665 E1.20037
G1 X188.93 Y50.208 E1.78758
G1 X189.471 Y50.123 E.01717
G1 X190.034 Y50.147 E.01767
G1 X190.667 Y50.323 E.0206
G1 X191.209 Y50.622 E.01941
G1 X191.67 Y51.037 E.01945
G1 X192.044 Y51.578 E.02062
G1 X202.875 Y72.834 E.748
G1 X203.143 Y73.728 E.02926
G1 X203.163 Y166.16 E2.89814
G1 X203.083 Y166.776 E.01948
G1 X202.855 Y167.386 E.02042
G1 X202.28 Y168.137 E.02966
G1 X201.804 Y168.485 E.01849
G1 X201.259 Y168.726 E.01868
G1 X200.473 Y168.853 E.02496
G1 X115.146 Y168.853 E2.67537
G1 X57.681 Y161.441 E1.8167
M73 Q2 S169
G1 X57.093 Y161.295 E.019
G1 X56.585 Y161.047 E.01772
G1 X55.924 Y160.466 E.02759
G1 X55.621 Y160.008 E.01722
G1 X55.413 Y159.494 E.01739
G1 X55.303 Y158.762 E.02321
G1 X55.303 Y82.511 E2.3908
G1 X55.375 Y81.922 E.01861
G1 X55.585 Y81.332 E.01964
G1 X55.901 Y80.836 E.01844
G1 X56.195 Y80.54 E.01308
M204 S1000
G1 X56.459 Y80.807 F10800
M204 S800
G1 F1200
G1 X56.561 Y80.706 E.0045
G1 X57.118 Y80.373 E.02035
G1 X95.868 Y66.08 E1.29499
G1 X134.105 Y66.042 E1.19889
G1 X189.021 Y50.574 E1.78885
G1 X189.992 Y50.523 E.03049
G1 X190.541 Y50.679 E.01789
G1 X191.004 Y50.939 E.01665
G1 X191.399 Y51.3 E.01678
G1 X191.713 Y51.759 E.01744
G1 X202.535 Y72.998 E.7474
G1 X202.767 Y73.765 E.02512
G1 X202.786 Y166.148 E2.8966
G1 X202.712 Y166.704 E.01759
G1 X202.513 Y167.225 E.01749
G1 X202.036 Y167.848 E.0246
G1 X201.599 Y168.168 E.01698
G1 X201.132 Y168.37 E.01595
G1 X200.459 Y168.476 E.02136
G1 X115.158 Y168.476 E2.67455
G1 X57.739 Y161.069 E1.81525
G1 X57.24 Y160.947 E.01611
M73 P2 R168
G1 X56.773 Y160.719 E.01629
G1 X56.225 Y160.237 E.02288
G1 X55.946 Y159.816 E.01584
G1 X55.771 Y159.376 E.01485
G1 X55.68 Y158.748 E.0199
G1 X55.68 Y82.521 E2.39004
G1 X55.738 Y82.026 E.01563
G1 X55.916 Y81.515 E.01697
G1 X56.207 Y81.057 E.01701
G1 X56.417 Y80.849 E.00927
M204 S1000
G1 X56.722 Y81.097 F10800
M204 S800
G1 F1200
G1 X56.807 Y80.992 E.00424
G1 X57.264 Y80.721 E.01666
G1 X95.967 Y66.445 E1.29343
G1 X134.158 Y66.419 E1.19745
G1 X189.112 Y50.94 E1.79009
G1 X189.545 Y50.874 E.01373
M73 P3 R168
M73 Q3 S169
G1 X190.379 Y51.02 E.02655
G1 X190.77 Y51.235 E.01399
G1 X191.101 Y51.533 E.01396
G1 X191.383 Y51.942 E.01558
G1 X202.195 Y73.161 E.7467
G1 X202.392 Y73.802 E.02103
G1 X202.409 Y166.135 E2.89504
G1 X202.342 Y166.63 E.01566
G1 X202.172 Y167.062 E.01456
G1 X201.789 Y167.562 E.01975
G1 X201.428 Y167.831 E.01412
G1 X201.006 Y168.014 E.01442
G1 X200.445 Y168.099 E.01779
G1 X115.17 Y168.099 E2.67374
G1 X57.798 Y160.696 E1.81377
G1 X56.964 Y160.393 E.02782
G1 X56.524 Y160.005 E.01839
G1 X56.13 Y159.258 E.02648
G1 X56.057 Y158.736 E.01653
G1 X56.057 Y82.533 E2.38929
G1 X56.11 Y82.092 E.01393
G1 X56.263 Y81.664 E.01425
G1 X56.685 Y81.143 E.02102
M204 S1000
G1 X56.973 Y81.378 F10800
M204 S800
G1 F1200
G1 X57.054 Y81.278 E.00403
G1 X57.41 Y81.069 E.01294
G1 X96.066 Y66.811 E1.29185
G1 X134.21 Y66.796 E1.19598
M73 Q3 S168
G1 X189.204 Y51.306 E1.79139
G1 X189.904 Y51.273 E.02197
G1 X190.564 Y51.552 E.02247
G1 X191.052 Y52.123 E.02355
G1 X201.856 Y73.325 E.74611
G1 X202.017 Y73.841 E.01695
G1 X202.032 Y166.124 E2.89347
G1 X201.831 Y166.899 E.0251
G1 X201.543 Y167.275 E.01485
G1 X200.883 Y167.657 E.02391
G1 X200.432 Y167.722 E.01429
G1 X115.182 Y167.722 E2.67295
G1 X57.855 Y160.323 E1.81236
G1 X57.155 Y160.067 E.02337
G1 X56.823 Y159.774 E.01388
G1 X56.491 Y159.145 E.0223
G1 X56.434 Y158.724 E.01332
