; generated by PrusaSlicer 2.9.3 on 2025-10-25 at 20:36:57 UTC


;
;
; 

; external perimeters extrusion width = 0.45mm
; perimeters extrusion width = 0.45mm
; infill extrusion width = 0.45mm
; solid infill extrusion width = 0.45mm
; top infill extrusion width = 0.40mm
; first layer extrusion width = 0.42mm

M73 P0 R170
M73 Q0 S170
M201 X1000 Y1000 Z200 E5000 ; sets maximum accelerations, mm/sec^2
M203 X200 Y200 Z12 E120 ; sets maximum feedrates, mm / sec
M204 S1250 T1250 ; sets acceleration (S) and retract acceleration (R), mm/sec^2
M205 X8.00 Y8.00 Z0.40 E4.50 ; sets the jerk limits, mm/sec
M205 S0 T0 ; sets the minimum extruding and travel feed rate, mm/sec

; printing object sofle_pico_backplate_v3.4_no_tenting_puck.stl id:0 copy 0
; stop printing object sofle_pico_backplate_v3.4_no_tenting_puck.stl id:0 copy 0

;TYPE:Custom
M862.3 P "MK3" ; printer model check
M862.1 P0.4 ; nozzle diameter check
M115 U3.14.1 ; tell printer latest fw version
G90 ; use absolute coordinates
M83 ; extruder relative mode
M104 S215 ; set extruder temp
M140 S60 ; set bed temp
M190 S60 ; wait for bed temp
M109 S215 ; wait for extruder temp
G28 W ; home all without mesh bed level
G80 X42.8565 Y38.905 W165.208 H135.175 ; mesh bed levelling

G1 Z0.2 F720
G1 Y-3 F1000 ; go outside print area
G92 E0
G1 X60 E9 F1000 ; intro line
G1 X100 E12.5 F1000 ; intro line

G92 E0
M221 S95

; Don't change E values below. Excessive value can damage the printer.
M907 E430 ; set extruder motor current
G21 ; set units to millimeters
G90 ; use absolute coordinates
M83 ; use relative distances for extrusion

M900 K0.05 ; Filament gcode LA 1.5
M900 K30 ; Filament gcode LA 1.0




M107
;LAYER_CHANGE
;Z:0.2
;HEIGHT:0.2
G1 E-.8 F2100
G1 Z.6 F720
G1 X48.443 Y69.973 F10800
G1 Z.2 F720
G1 E.8 F2100
M204 S800
;TYPE:Skirt/Brim
;WIDTH:0.42
G1 F1200
G1 X49.349 Y69.443 E.03291
G1 X50.474 Y68.952 E.03849
G1 X51.724 Y68.591 E.04079
G1 X183.963 Y39.31 E4.24669
G1 X184.98 Y39.147 E.03229
G1 X186.207 Y39.096 E.0385
G1 X187.253 Y39.175 E.03289
G1 X188.458 Y39.411 E.0385
G1 X189.389 Y39.706 E.03062
G1 X190.351 Y40.126 E.03291
G1 X191.411 Y40.745 E.03849
G1 X192.248 Y41.378 E.0329
G1 X193.134 Y42.228 E.0385
G1 X193.802 Y43.038 E.03292
G1 X194.476 Y44.089 E.03915
G1 X206.689 Y65.864 E.7828
G1 X207.346 Y67.351 E.05097
G1 X207.783 Y69.176 E.05884
G1 X207.876 Y70.514 E.04205
G1 X207.745 Y164.566 E2.94894
G1 X207.477 Y166.497 E.06113
M73 P0 R169
G1 X206.827 Y168.335 E.06113
G1 X206.366 Y169.196 E.03062
G1 X205.668 Y170.206 E.03849
G1 X204.312 Y171.607 E.06113
G1 X202.703 Y172.709 E.06115
G1 X201.146 Y173.388 E.05326
G1 X199.245 Y173.82 E.06112
G1 X197.33 Y173.864 E.06006
G1 X51.713 Y162.703 E4.57911
G1 X50.046 Y162.377 E.05326
G1 X48.302 Y161.684 E.05884
G1 X46.666 Y160.622 E.06116
G1 X45.44 Y159.447 E.05324
G1 X44.347 Y157.921 E.05885
G1 X43.654 Y156.45 E.05098
G1 X43.216 Y154.885 E.05096
G1 X43.045 Y153.194 E.05329
G1 X44.093 Y77.902 E2.36096
G1 X44.163 Y76.886 E.03193
G1 X44.33 Y75.924 E.03061
G1 X44.676 Y74.746 E.0385
G1 X45.055 Y73.846 E.03062
G1 X46.076 Y72.185 E.06113
G1 X46.706 Y71.439 E.03062
G1 X47.463 Y70.713 E.03289
G1 X48.395 Y70.009 E.03662
M204 S1000
;WIPE_START
G1 F8640
G1 X48.443 Y69.973 E-.01385
G1 X49.349 Y69.443 E-.24236
G1 X50.474 Y68.952 E-.28343
G1 X51.558 Y68.639 E-.26036
;WIPE_END
G1 Z.6 F720
; printing object sofle_pico_backplate_v3.4_no_tenting_puck.stl id:0 copy 0
G1 X151.461 Y99.663 F10800
G1 Z.2 F720
G1 E.8 F2100
M204 S800
;TYPE:Perimeter
;WIDTH:0.419999
G1 F1200
G1 X151.468 Y99.738 E.00236
G1 X151.385 Y100.223 E.01543
G1 X151.179 Y100.67 E.01543
G1 X150.864 Y101.048 E.01543
G1 X150.462 Y101.332 E.01543
G1 X150 Y101.503 E.01545
G1 X149.537 Y101.551 E.01459
G1 X149.042 Y101.471 E.01572
G1 X148.58 Y101.26 E.01592
G1 X148.199 Y100.944 E.01552
G1 X147.915 Y100.542 E.01543
G1 X147.743 Y100.066 E.01587
G1 X147.703 Y99.567 E.0157
G1 X147.783 Y99.105 E.0147
G1 X147.989 Y98.658 E.01543
G1 X148.304 Y98.279 E.01545
G1 X148.719 Y97.99 E.01586
G1 X149.203 Y97.82 E.01608
G1 X149.658 Y97.78 E.01432
G1 X150.143 Y97.863 E.01543
G1 X150.59 Y98.069 E.01543
G1 X150.968 Y98.384 E.01543
G1 X151.253 Y98.786 E.01545
G1 X151.423 Y99.247 E.01541
G1 X151.456 Y99.604 E.01124
M204 S1000
G1 X151.091 Y99.663 F10800
M204 S800
;TYPE:External perimeter
G1 F1200
G1 X151.094 Y99.688 E.00079
G1 X151.036 Y100.078 E.01236
G1 X150.88 Y100.44 E.01236
G1 X150.634 Y100.749 E.01238
G1 X150.318 Y100.984 E.01235
G1 X149.951 Y101.129 E.01237
G1 X149.568 Y101.175 E.01209
G1 X149.169 Y101.116 E.01265
G1 X148.807 Y100.959 E.01237
G1 X148.499 Y100.714 E.01234
G1 X148.264 Y100.398 E.01235
G1 X148.118 Y100.026 E.01253
G1 X148.078 Y99.603 E.01332
G1 X148.131 Y99.249 E.01122
G1 X148.288 Y98.887 E.01237
G1 X148.533 Y98.578 E.01236
G1 X148.855 Y98.342 E.01252
G1 X149.253 Y98.194 E.01331
G1 X149.609 Y98.153 E.01124
G1 X149.999 Y98.211 E.01236
G1 X150.36 Y98.368 E.01234
G1 X150.669 Y98.613 E.01236
G1 X150.904 Y98.93 E.01237
G1 X151.049 Y99.297 E.01237
G1 X151.084 Y99.604 E.00969
M204 S1000
;WIPE_START
G1 F8640
G1 X151.091 Y99.663 E-.01372
G1 X151.094 Y99.688 E-.00581
G1 X151.036 Y100.078 E-.09104
G1 X150.88 Y100.44 E-.09102
G1 X150.634 Y100.749 E-.0912
G1 X150.318 Y100.984 E-.09093
G1 X149.951 Y101.129 E-.09112
G1 X149.568 Y101.175 E-.08907
G1 X149.169 Y101.116 E-.09313
G1 X148.807 Y100.959 E-.09111
G1 X148.631 Y100.819 E-.05185
;WIPE_END
G1 Z.6 F720
G1 X175.851 Y106.533 F10800
G1 Z.2 F720
G1 E.8 F2100
M204 S800
;TYPE:Perimeter
G1 F1200
G1 X175.858 Y106.607 E.00233
G1 X175.775 Y107.093 E.01546
G1 X175.569 Y107.54 E.01543
G1 X175.254 Y107.918 E.01543
G1 X174.852 Y108.202 E.01543
G1 X174.39 Y108.373 E.01545
G1 X173.9 Y108.418 E.01543
G1 X173.415 Y108.334 E.01543
G1 X172.959 Y108.122 E.01577
G1 X172.567 Y107.785 E.01621
G1 X172.305 Y107.412 E.01429
G1 X172.135 Y106.95 E.01544
G1 X172.09 Y106.46 E.01543
G1 X172.173 Y105.975 E.01543
G1 X172.379 Y105.528 E.01543
G1 X172.694 Y105.149 E.01545
G1 X173.109 Y104.86 E.01586
G1 X173.593 Y104.69 E.01608
G1 X174.048 Y104.649 E.01432
G1 X174.533 Y104.733 E.01543
G1 X174.98 Y104.939 E.01543
G1 X175.358 Y105.254 E.01543
G1 X175.642 Y105.655 E.01541
G1 X175.813 Y106.117 E.01545
G1 X175.846 Y106.474 E.01124
M204 S1000
G1 X175.481 Y106.533 F10800
M204 S800
;TYPE:External perimeter
G1 F1200
G1 X175.484 Y106.558 E.00079
G1 X175.426 Y106.948 E.01236
G1 X175.269 Y107.31 E.01237
G1 X175.024 Y107.619 E.01236
G1 X174.708 Y107.854 E.01235
G1 X174.341 Y107.999 E.01237
G1 X173.949 Y108.044 E.01237
G1 X173.559 Y107.986 E.01236
G1 X173.193 Y107.826 E.01252
G1 X172.866 Y107.556 E.0133
G1 X172.653 Y107.267 E.01126
G1 X172.509 Y106.901 E.01233
G1 X172.463 Y106.509 E.01238
G1 X172.521 Y106.119 E.01236
G1 X172.678 Y105.757 E.01237
G1 X172.923 Y105.448 E.01236
G1 X173.244 Y105.211 E.01251
G1 X173.642 Y105.064 E.0133
G1 X173.998 Y105.023 E.01124
G1 X174.388 Y105.081 E.01236
G1 X174.75 Y105.238 E.01237
G1 X175.059 Y105.483 E.01236
G1 X175.294 Y105.8 E.01237
G1 X175.439 Y106.166 E.01234
G1 X175.474 Y106.474 E.00972
M204 S1000
;WIPE_START
G1 F8640
G1 X175.481 Y106.533 E-.01372
G1 X175.484 Y106.558 E-.00581
G1 X175.426 Y106.948 E-.09104
G1 X175.269 Y107.31 E-.09111
G1 X175.024 Y107.619 E-.09105
G1 X174.708 Y107.854 E-.09093
G1 X174.341 Y107.999 E-.09112
G1 X173.949 Y108.044 E-.09111
G1 X173.559 Y107.986 E-.09104
G1 X173.193 Y107.826 E-.09223
G1 X173.023 Y107.686 E-.05084
;WIPE_END
G1 Z.6 F720
G1 X194.792 Y94.796 F10800
G1 Z.2 F720
G1 E.8 F2100
M204 S800
;TYPE:Perimeter
G1 F1200
G1 X194.849 Y94.844 E.00234
G1 X195.133 Y95.246 E.01543
G1 X195.304 Y95.707 E.01542
G1 X195.349 Y96.198 E.01546
G1 X195.265 Y96.683 E.01543
G1 X195.059 Y97.13 E.01543
G1 X194.745 Y97.508 E.01541
G1 X194.343 Y97.792 E.01543
G1 X193.881 Y97.963 E.01545
G1 X193.391 Y98.008 E.01543
G1 X192.906 Y97.925 E.01543
G1 X192.447 Y97.71 E.01589
G1 X192.058 Y97.375 E.0161
G1 X191.796 Y97.002 E.01429
G1 X191.625 Y96.54 E.01545
G1 X191.58 Y96.05 E.01543
G1 X191.664 Y95.565 E.01543
G1 X191.87 Y95.118 E.01543
G1 X192.184 Y94.739 E.01543
G1 X192.6 Y94.45 E.01588
G1 X193.084 Y94.28 E.01608
G1 X193.538 Y94.24 E.01429
G1 X194.023 Y94.323 E.01543
G1 X194.47 Y94.529 E.01543
G1 X194.746 Y94.758 E.01124
M204 S1000
G1 X194.53 Y95.058 F10800
M204 S800
;TYPE:External perimeter
G1 F1200
G1 X194.55 Y95.073 E.00078
G1 X194.785 Y95.39 E.01237
G1 X194.93 Y95.757 E.01237
G1 X194.975 Y96.148 E.01234
G1 X194.917 Y96.538 E.01236
G1 X194.76 Y96.9 E.01237
G1 X194.515 Y97.209 E.01236
G1 X194.198 Y97.444 E.01237
G1 X193.832 Y97.589 E.01234
G1 X193.44 Y97.634 E.01237
G1 X193.05 Y97.576 E.01236
G1 X192.684 Y97.416 E.01252
G1 X192.357 Y97.146 E.0133
G1 X192.144 Y96.858 E.01123
G1 X191.999 Y96.491 E.01237
G1 X191.954 Y96.099 E.01237
G1 X192.012 Y95.709 E.01236
G1 X192.169 Y95.347 E.01237
G1 X192.414 Y95.038 E.01236
G1 X192.735 Y94.802 E.01249
G1 X193.133 Y94.654 E.01331
G1 X193.489 Y94.613 E.01124
G1 X193.879 Y94.671 E.01236
G1 X194.241 Y94.828 E.01237
G1 X194.483 Y95.02 E.00969
M204 S1000
;WIPE_START
G1 F8640
G1 X194.53 Y95.058 E-.01396
G1 X194.55 Y95.073 E-.00577
G1 X194.785 Y95.39 E-.09112
G1 X194.93 Y95.757 E-.09112
G1 X194.975 Y96.148 E-.09088
G1 X194.917 Y96.538 E-.09104
G1 X194.76 Y96.9 E-.09111
G1 X194.515 Y97.209 E-.09105
G1 X194.198 Y97.444 E-.09112
G1 X193.832 Y97.589 E-.0909
G1 X193.609 Y97.615 E-.05193
;WIPE_END
G1 Z.6 F720
G1 X177.149 Y75.655 F10800
G1 Z.2 F720
G1 E.8 F2100
M204 S800
;TYPE:Perimeter
G1 F1200
G1 X177.192 Y75.716 E.00234
G1 X177.363 Y76.177 E.01542
G1 X177.408 Y76.668 E.01546
G1 X177.325 Y77.153 E.01543
G1 X177.119 Y77.6 E.01543
G1 X176.804 Y77.978 E.01543
G1 X176.402 Y78.262 E.01543
G1 X175.94 Y78.433 E.01545
G1 X175.45 Y78.478 E.01543
G1 X174.965 Y78.395 E.01543
G1 X174.506 Y78.18 E.01589
G1 X174.117 Y77.845 E.0161
G1 X173.855 Y77.472 E.01429
G1 X173.685 Y77.01 E.01544
G1 X173.635 Y76.585 E.01342
G1 X173.712 Y76.064 E.01651
G1 X173.929 Y75.588 E.0164
G1 X174.244 Y75.209 E.01545
G1 X174.659 Y74.92 E.01586
G1 X175.143 Y74.75 E.01608
G1 X175.598 Y74.71 E.01432
G1 X176.083 Y74.793 E.01543
G1 X176.53 Y74.999 E.01543
G1 X176.908 Y75.314 E.01543
G1 X177.115 Y75.606 E.01122
M204 S1000
G1 X176.829 Y75.84 F10800
M204 S800
;TYPE:External perimeter
G1 F1200
G1 X176.844 Y75.86 E.00078
G1 X176.989 Y76.227 E.01237
G1 X177.034 Y76.618 E.01234
G1 X176.976 Y77.009 E.01239
G1 X176.819 Y77.37 E.01234
G1 X176.517 Y77.723 E.01457
G1 X176.258 Y77.914 E.01009
G1 X175.891 Y78.059 E.01237
G1 X175.499 Y78.104 E.01237
G1 X175.109 Y78.046 E.01236
G1 X174.743 Y77.886 E.01252
G1 X174.416 Y77.616 E.0133
G1 X174.203 Y77.328 E.01123
G1 X174.059 Y76.961 E.01236
G1 X174.012 Y76.591 E.01169
G1 X174.071 Y76.179 E.01305
G1 X174.228 Y75.817 E.01237
G1 X174.473 Y75.509 E.01234
G1 X174.794 Y75.272 E.01251
G1 X175.192 Y75.124 E.01331
G1 X175.548 Y75.084 E.01123
G1 X175.938 Y75.141 E.01236
G1 X176.3 Y75.298 E.01237
G1 X176.609 Y75.543 E.01236
G1 X176.793 Y75.792 E.00971
M204 S1000
;WIPE_START
G1 F8640
G1 X176.829 Y75.84 E-.01385
G1 X176.844 Y75.86 E-.00577
G1 X176.989 Y76.227 E-.09112
G1 X177.034 Y76.618 E-.09088
G1 X176.976 Y77.009 E-.09127
G1 X176.819 Y77.37 E-.0909
G1 X176.517 Y77.723 E-.10727
G1 X176.258 Y77.914 E-.07431
G1 X175.891 Y78.059 E-.09112
G1 X175.499 Y78.104 E-.09111
G1 X175.275 Y78.071 E-.0524
;WIPE_END
G1 Z.6 F720
G1 X147.803 Y137.614 F10800
G1 Z.2 F720
G1 E.8 F2100
M204 S800
;TYPE:Perimeter
G1 F1200
G1 X147.794 Y137.504 E.00346
G1 X147.873 Y137.054 E.01433
G1 X148.079 Y136.607 E.01543
G1 X148.394 Y136.229 E.01543
G1 X148.809 Y135.939 E.01587
G1 X149.289 Y135.77 E.01596
G1 X149.748 Y135.729 E.01445
G1 X150.275 Y135.83 E.01682
G1 X150.68 Y136.019 E.01401
G1 X151.058 Y136.333 E.01541
G1 X151.342 Y136.735 E.01543
G1 X151.515 Y137.211 E.01588
G1 X151.554 Y137.714 E.01582
G1 X151.511 Y138.044 E.01043
G1 X151.331 Y138.518 E.0159
G1 X151.021 Y138.927 E.01609
G1 X150.623 Y139.247 E.01601
G1 X150.127 Y139.446 E.01676
G1 X149.6 Y139.498 E.0166
G1 X149.115 Y139.414 E.01543
G1 X148.668 Y139.208 E.01543
G1 X148.289 Y138.893 E.01545
G1 X148.005 Y138.492 E.01541
G1 X147.833 Y138.016 E.01587
G1 X147.807 Y137.673 E.01079
M204 S1000
G1 X148.174 Y137.614 F10800
M204 S800
;TYPE:External perimeter
G1 F1200
G1 X148.168 Y137.553 E.00192
G1 X148.221 Y137.199 E.01122
G1 X148.378 Y136.837 E.01237
G1 X148.623 Y136.528 E.01236
G1 X148.945 Y136.291 E.01254
G1 X149.343 Y136.143 E.01331
G1 X149.698 Y136.103 E.0112
G1 X150.131 Y136.179 E.01378
G1 X150.45 Y136.318 E.01091
G1 X150.759 Y136.563 E.01236
G1 X150.994 Y136.88 E.01237
G1 X151.14 Y137.251 E.0125
G1 X151.175 Y137.704 E.01425
G1 X151.138 Y137.985 E.00889
G1 X150.966 Y138.394 E.01391
G1 X150.606 Y138.789 E.01676
G1 X150.408 Y138.934 E.00769
G1 X150.041 Y139.079 E.01237
G1 X149.649 Y139.124 E.01237
G1 X149.259 Y139.066 E.01236
G1 X148.897 Y138.909 E.01237
G1 X148.588 Y138.664 E.01236
G1 X148.354 Y138.347 E.01235
G1 X148.208 Y137.976 E.0125
G1 X148.18 Y137.673 E.00954
M204 S1000
;WIPE_START
G1 F8640
G1 X148.174 Y137.614 E-.01369
G1 X148.168 Y137.553 E-.01415
G1 X148.221 Y137.199 E-.08265
G1 X148.378 Y136.837 E-.09111
G1 X148.623 Y136.528 E-.09105
G1 X148.945 Y136.291 E-.09232
G1 X149.343 Y136.143 E-.09805
G1 X149.698 Y136.103 E-.08249
G1 X150.131 Y136.179 E-.10151
G1 X150.45 Y136.318 E-.08035
G1 X150.629 Y136.46 E-.05263
;WIPE_END
G1 Z.6 F720
G1 X168.917 Y160.491 F10800
G1 Z.2 F720
G1 E.8 F2100
M204 S800
;TYPE:Perimeter
G1 F1200
G1 X168.905 Y160.565 E.00235
G1 X168.698 Y161.012 E.01545
G1 X168.384 Y161.39 E.01541
G1 X167.982 Y161.674 E.01543
;WIDTH:0.455387
G1 X167.753 Y161.777 E.00861
;WIDTH:0.490774
G1 X167.525 Y161.88 E.00932
G1 X167.027 Y161.914 E.01859
G1 X166.683 Y161.88 E.01287
G1 X166.454 Y161.777 E.00935
;WIDTH:0.455387
G1 X166.226 Y161.674 E.00858
;WIDTH:0.419999
G1 X165.824 Y161.39 E.01543
G1 X165.509 Y161.012 E.01543
G1 X165.303 Y160.565 E.01543
G1 X165.223 Y160.03 E.01696
G1 X165.265 Y159.589 E.01389
G1 X165.472 Y159.054 E.01799
G1 X165.783 Y158.656 E.01584
G1 X166.204 Y158.347 E.01637
G1 X166.685 Y158.168 E.01609
G1 X167.208 Y158.126 E.01645
G1 X167.663 Y158.205 E.01448
G1 X168.143 Y158.438 E.01673
G1 X168.51 Y158.754 E.01518
G1 X168.772 Y159.128 E.01432
G1 X168.943 Y159.59 E.01545
G1 X168.988 Y160.08 E.01543
G1 X168.927 Y160.432 E.0112
M204 S1000
G1 X168.56 Y160.396 F10800
M204 S800
;TYPE:External perimeter
G1 F1200
G1 X168.556 Y160.421 E.00079
G1 X168.399 Y160.782 E.01234
G1 X168.154 Y161.091 E.01236
G1 X167.838 Y161.326 E.01235
G1 X167.471 Y161.471 E.01237
G1 X167.079 Y161.516 E.01237
G1 X166.689 Y161.458 E.01236
G1 X166.327 Y161.301 E.01237
G1 X166.018 Y161.056 E.01236
G1 X165.783 Y160.74 E.01235
G1 X165.638 Y160.368 E.01252
G1 X165.598 Y159.945 E.01332
G1 X165.651 Y159.591 E.01122
G1 X165.808 Y159.229 E.01237
G1 X166.053 Y158.92 E.01236
G1 X166.374 Y158.684 E.01249
G1 X166.853 Y158.525 E.01582
G1 X167.159 Y158.5 E.00963
G1 X167.518 Y158.553 E.01138
G1 X167.906 Y158.731 E.01338
G1 X168.211 Y158.984 E.01242
G1 X168.424 Y159.272 E.01123
G1 X168.569 Y159.639 E.01237
G1 X168.614 Y160.03 E.01234
G1 X168.569 Y160.336 E.0097
M204 S1000
;WIPE_START
G1 F8640
G1 X168.56 Y160.396 E-.01401
G1 X168.556 Y160.421 E-.00585
G1 X168.399 Y160.782 E-.0909
G1 X168.154 Y161.091 E-.09105
G1 X167.838 Y161.326 E-.09093
G1 X167.471 Y161.471 E-.09112
G1 X167.079 Y161.516 E-.09111
G1 X166.689 Y161.458 E-.09104
G1 X166.327 Y161.301 E-.09111
G1 X166.018 Y161.056 E-.09105
G1 X165.884 Y160.876 E-.05183
;WIPE_END
G1 Z.6 F720
G1 X74.639 Y134.728 F10800
G1 Z.2 F720
G1 E.8 F2100
M204 S800
;TYPE:Perimeter
G1 F1200
G1 X74.712 Y135.169 E.01402
G1 X74.657 Y135.668 E.01574
G1 X74.469 Y136.142 E.01599
G1 X74.162 Y136.547 E.01593
G1 X73.737 Y136.866 E.01666
G1 X73.241 Y137.052 E.01661
G1 X72.751 Y137.098 E.01543
G1 X72.265 Y137.014 E.01546
G1 X71.818 Y136.808 E.01543
G1 X71.44 Y136.493 E.01543
G1 X71.156 Y136.092 E.01541
G1 X70.985 Y135.63 E.01545
G1 X70.94 Y135.14 E.01543
G1 X71.024 Y134.654 E.01546
G1 X71.23 Y134.207 E.01543
G1 X71.544 Y133.829 E.01541
G1 X71.96 Y133.539 E.0159
G1 X72.444 Y133.37 E.01607
G1 X72.913 Y133.331 E.01476
G1 X73.399 Y133.419 E.01549
G1 X73.842 Y133.627 E.01534
G1 X74.225 Y133.955 E.01581
G1 X74.493 Y134.335 E.01458
