; generated by PrusaSlicer 2.9.3 on 2025-10-27 at 02:40:56 UTC


;
;
; 

; external perimeters extrusion width = 0.45mm
; perimeters extrusion width = 0.45mm
; infill extrusion width = 0.45mm
; solid infill extrusion width = 0.45mm
; top infill extrusion width = 0.40mm
; support material extrusion width = 0.35mm
; first layer extrusion width = 0.42mm

; external perimeters extrusion width = 0.45mm
; perimeters extrusion width = 0.45mm
; infill extrusion width = 0.45mm
; solid infill extrusion width = 0.45mm
; top infill extrusion width = 0.40mm
; support material extrusion width = 0.35mm
; first layer extrusion width = 0.42mm

; external perimeters extrusion width = 0.45mm
; perimeters extrusion width = 0.45mm
; infill extrusion width = 0.45mm
; solid infill extrusion width = 0.45mm
; top infill extrusion width = 0.40mm
; support material extrusion width = 0.35mm
; first layer extrusion width = 0.42mm

; external perimeters extrusion width = 0.45mm
; perimeters extrusion width = 0.45mm
; infill extrusion width = 0.45mm
; solid infill extrusion width = 0.45mm
; top infill extrusion width = 0.40mm
; support material extrusion width = 0.35mm
; first layer extrusion width = 0.42mm

; external perimeters extrusion width = 0.45mm
; perimeters extrusion width = 0.45mm
; infill extrusion width = 0.45mm
; solid infill extrusion width = 0.45mm
; top infill extrusion width = 0.40mm
; support material extrusion width = 0.35mm
; first layer extrusion width = 0.42mm

M73 P0 R43
M73 Q0 S43
M201 X1000 Y1000 Z200 E5000 ; sets maximum accelerations, mm/sec^2
M203 X200 Y200 Z12 E120 ; sets maximum feedrates, mm / sec
M204 S1250 T1250 ; sets acceleration (S) and retract acceleration (R), mm/sec^2
M205 X8.00 Y8.00 Z0.40 E4.50 ; sets the jerk limits, mm/sec
M205 S0 T0 ; sets the minimum extruding and travel feed rate, mm/sec

; printing object sofle_pico_cirque_mount_40mm.stl id:0 copy 0
; stop printing object sofle_pico_cirque_mount_40mm.stl id:0 copy 0
; printing object helper_disk.stl id:1 copy 0
; stop printing object helper_disk.stl id:1 copy 0
; printing object helper_disk.stl id:2 copy 0
; stop printing object helper_disk.stl id:2 copy 0
; printing object helper_disk.stl id:3 copy 0
; stop printing object helper_disk.stl id:3 copy 0
; printing object helper_disk.stl id:4 copy 0
; stop printing object helper_disk.stl id:4 copy 0

;TYPE:Custom
M862.3 P "MK3S" ; printer model check
M862.1 P0.4 ; nozzle diameter check
M115 U3.14.1 ; tell printer latest fw version
G90 ; use absolute coordinates
M83 ; extruder relative mode
M104 S215 ; set extruder temp
M140 S60 ; set bed temp
M190 S60 ; wait for bed temp
M109 S215 ; wait for extruder temp
G28 W ; home all without mesh bed level
G80 X90.8981 Y53.6852 W65.6232 H98.3748 ; mesh bed levelling

G1 Z0.2 F720
G1 Y-3 F1000 ; go outside print area
G92 E0
G1 X60 E9 F1000 ; intro line
G1 X100 E12.5 F1000 ; intro line
M73 P0 R42

G92 E0
M221 S95

; Don't change E values below. Excessive value can damage the printer.
M907 E430 ; set extruder motor current
G21 ; set units to millimeters
G90 ; use absolute coordinates
M83 ; use relative distances for extrusion

M900 K0.05 ; Filament gcode LA 1.5
M900 K30 ; Filament gcode LA 1.0




M107
;LAYER_CHANGE
;Z:0.2
;HEIGHT:0.2
G1 E-.8 F2100
G1 Z.6 F720
G1 X102.962 Y59.772 F10800
G1 Z.2 F720
G1 E.8 F2100
M204 S800
;TYPE:Skirt/Brim
;WIDTH:0.42
G1 F1200
G1 X103.95 Y58.176 E.05885
G1 X105.094 Y56.92 E.05327
G1 X106.655 Y55.751 E.06115
G1 X108.348 Y54.943 E.05882
G1 X109.99 Y54.506 E.05328
G1 X111.277 Y54.369 E.04058
G1 X128.795 Y53.875 E.54948
G1 X129.968 Y53.955 E.03686
G1 X131.244 Y54.21 E.0408
G1 X132.474 Y54.633 E.04078
G1 X133.637 Y55.218 E.04082
G1 X152.323 Y68.106 E.71173
G1 X153.555 Y69.166 E.05096
G1 X154.593 Y70.417 E.05097
G1 X155.408 Y71.824 E.05098
G1 X155.975 Y73.348 E.05098
G1 X156.28 Y74.945 E.05098
G1 X156.311 Y76.606 E.05209
G1 X152.261 Y136.626 E1.88616
G1 X151.909 Y137.77 E.03753
G1 X151.31 Y138.806 E.03752
G1 X150.494 Y139.683 E.03756
G1 X150.106 Y139.985 E.01542
G1 X149.081 Y140.555 E.03677
G1 X117.821 Y151.445 E1.03791
G1 X116.803 Y151.698 E.03289
G1 X115.71 Y151.843 E.03457
G1 X114.609 Y151.865 E.03453
G1 X113.563 Y151.768 E.03294
G1 X112.363 Y151.512 E.03847
G1 X111.136 Y151.077 E.04082
G1 X110.197 Y150.609 E.0329
G1 X109.111 Y149.893 E.04079
G1 X108.183 Y149.089 E.0385
G1 X107.319 Y148.116 E.0408
G1 X106.722 Y147.252 E.03293
G1 X106.147 Y146.167 E.0385
G1 X93.274 Y117.778 E.97735
G1 X92.654 Y116.21 E.05287
G1 X91.764 Y113.178 E.09908
G1 X91.24 Y110.063 E.09904
G1 X91.087 Y106.962 E.09735
G1 X91.312 Y103.726 E.10171
G1 X91.901 Y100.659 E.09792
G1 X102.348 Y61.356 E1.27511
G1 X102.94 Y59.828 E.05138
M204 S1000
;WIPE_START
G1 F8640
G1 X102.962 Y59.772 E-.01389
G1 X103.95 Y58.176 E-.43342
G1 X104.979 Y57.047 E-.35269
;WIPE_END
G1 Z.6 F720
; printing object helper_disk.stl id:4 copy 0
G1 X115.035 Y135.472 F10800
G1 Z.2 F720
G1 E.8 F2100
M204 S800
;TYPE:Perimeter
;WIDTH:0.419999
G1 F1200
G1 X115.596 Y135.5 E.01761
G1 X116.267 Y135.596 E.02125
G1 X116.924 Y135.759 E.02122
G1 X117.56 Y135.988 E.02119
G1 X118.171 Y136.279 E.02122
G1 X118.749 Y136.63 E.0212
G1 X119.288 Y137.037 E.02118
G1 X119.784 Y137.497 E.02121
G1 X120.225 Y137.998 E.02093
G1 X120.86 Y138.95 E.03588
G1 X121.027 Y139.293 E.01196
G1 X121.277 Y139.887 E.02021
G1 X121.473 Y140.523 E.02087
G1 X121.607 Y141.181 E.02105
G1 X121.674 Y141.851 E.02111
G1 X121.674 Y142.516 E.02085
G1 X121.657 Y142.859 E.01077
G1 X121.555 Y143.527 E.02119
G1 X121.386 Y144.182 E.02121
G1 X121.152 Y144.817 E.02122
G1 X120.856 Y145.425 E.0212
G1 X120.505 Y145.992 E.02091
G1 X119.777 Y146.876 E.03591
G1 X119.288 Y147.329 E.0209
G1 X118.749 Y147.737 E.0212
G1 X118.171 Y148.088 E.0212
G1 X117.56 Y148.379 E.02122
G1 X116.924 Y148.607 E.02118
G1 X116.267 Y148.771 E.02123
G1 X115.598 Y148.867 E.02119
G1 X114.922 Y148.895 E.02121
G1 X114.247 Y148.855 E.0212
G1 X113.579 Y148.748 E.02121
G1 X112.926 Y148.574 E.02119
G1 X112.293 Y148.335 E.02121
G1 X111.696 Y148.038 E.02091
G1 X110.749 Y147.394 E.03591
G1 X110.252 Y146.949 E.02092
G1 X109.797 Y146.45 E.02117
G1 X109.394 Y145.907 E.0212
G1 X109.047 Y145.326 E.02122
G1 X108.761 Y144.713 E.02121
G1 X108.538 Y144.074 E.02122
G1 X108.381 Y143.417 E.02118
G1 X108.29 Y142.746 E.02123
G1 X108.267 Y142.071 E.02118
G1 X108.313 Y141.396 E.02121
G1 X108.426 Y140.729 E.02121
G1 X108.605 Y140.077 E.0212
G1 X108.85 Y139.446 E.02122
G1 X109.152 Y138.852 E.02089
G1 X109.803 Y137.91 E.0359
G1 X110.252 Y137.417 E.02091
G1 X110.756 Y136.966 E.02121
G1 X111.302 Y136.567 E.0212
G1 X111.886 Y136.226 E.0212
G1 X112.501 Y135.945 E.0212
G1 X113.142 Y135.727 E.02123
G1 X113.801 Y135.575 E.0212
G1 X114.474 Y135.49 E.02127
G1 X114.975 Y135.474 E.01572
M204 S1000
G1 X115.038 Y135.095 F10800
M204 S800
;TYPE:External perimeter
G1 F1200
G1 X115.632 Y135.124 E.01865
G1 X116.34 Y135.225 E.02242
G1 X117.033 Y135.398 E.0224
G1 X117.705 Y135.639 E.02238
G1 X118.35 Y135.947 E.02241
G1 X118.961 Y136.318 E.02241
G1 X119.531 Y136.748 E.02239
G1 X120.055 Y137.234 E.02241
G1 X120.525 Y137.767 E.02228
G1 X121.188 Y138.762 E.03749
G1 X121.366 Y139.128 E.01276
G1 X121.63 Y139.757 E.02139
G1 X121.838 Y140.429 E.02206
G1 X121.98 Y141.124 E.02224
G1 X122.051 Y141.832 E.02231
G1 X122.051 Y142.535 E.02204
G1 X122.032 Y142.897 E.01137
G1 X121.925 Y143.603 E.02239
G1 X121.747 Y144.295 E.0224
G1 X121.5 Y144.965 E.02239
G1 X121.187 Y145.607 E.02239
G1 X120.812 Y146.212 E.02232
G1 X120.052 Y147.135 E.03749
G1 X119.531 Y147.619 E.0223
G1 X118.961 Y148.049 E.02239
G1 X118.35 Y148.42 E.02241
G1 X117.705 Y148.728 E.02241
G1 X117.033 Y148.969 E.02238
G1 X116.34 Y149.141 E.02239
G1 X115.633 Y149.243 E.0224
G1 X114.919 Y149.273 E.02241
G1 X114.206 Y149.231 E.02239
G1 X113.501 Y149.117 E.02239
G1 X112.81 Y148.933 E.02242
G1 X112.142 Y148.681 E.02239
G1 X111.505 Y148.364 E.02231
G1 X110.516 Y147.692 E.03749
G1 X109.986 Y147.217 E.02231
G1 X109.505 Y146.69 E.02237
G1 X109.08 Y146.116 E.02239
G1 X108.714 Y145.502 E.02241
G1 X108.412 Y144.855 E.02239
G1 X108.176 Y144.181 E.02239
G1 X108.01 Y143.486 E.0224
G1 X107.914 Y142.778 E.0224
G1 X107.89 Y142.064 E.0224
G1 X107.938 Y141.351 E.02241
G1 X108.057 Y140.647 E.02239
G1 X108.247 Y139.958 E.02241
G1 X108.505 Y139.292 E.02239
G1 X108.827 Y138.658 E.0223
G1 X109.507 Y137.675 E.03748
G1 X109.987 Y137.149 E.02233
G1 X110.518 Y136.672 E.02238
G1 X111.096 Y136.251 E.02242
G1 X111.712 Y135.891 E.02237
G1 X112.362 Y135.594 E.02241
G1 X113.038 Y135.364 E.02239
M73 Q1 S42
G1 X113.734 Y135.204 E.02239
G1 X114.444 Y135.114 E.02244
G1 X114.978 Y135.097 E.01675
M204 S1000
;WIPE_START
G1 F8640
G1 X115.038 Y135.095 E-.01386
G1 X115.632 Y135.124 E-.13732
G1 X116.34 Y135.225 E-.16513
G1 X117.033 Y135.398 E-.16493
G1 X117.705 Y135.639 E-.16484
G1 X118.307 Y135.926 E-.15392
;WIPE_END
G1 Z.6 F720
M73 P1 R42
G1 X118.453 Y136.627 F10800
G1 Z.2 F720
G1 E.8 F2100
M204 S800
;TYPE:Solid infill
;WIDTH:0.429961
G1 F1200
G1 X119.605 Y137.779 E.05243
G1 X119.97 Y138.193 E.01776
G1 X120.582 Y139.11 E.03548
G1 X120.765 Y139.486 E.01346
G1 X117.678 Y136.399 E.1405
G1 X117.437 Y136.284 E.00859
G1 X116.787 Y136.055 E.02218
G1 X121.103 Y140.372 E.19646
G1 X121.24 Y140.904 E.01768
G1 X121.268 Y141.084 E.00586
G1 X116.077 Y135.892 E.23628
G1 X115.45 Y135.813 E.02034
G1 X121.346 Y141.709 E.26834
G1 X121.365 Y142.276 E.01826
G1 X114.887 Y135.798 E.29483
G1 X114.369 Y135.826 E.01669
G1 X121.339 Y142.797 E.31725
G1 X121.269 Y143.274 E.01552
G1 X113.883 Y135.888 E.33616
G1 X113.436 Y135.988 E.01474
G1 X121.173 Y143.725 E.35213
G1 X121.055 Y144.155 E.01435
G1 X113.011 Y136.11 E.36613
G1 X112.603 Y136.251 E.01389
G1 X120.907 Y144.555 E.37794
G1 X120.739 Y144.934 E.01334
G1 X112.228 Y136.422 E.38738
G1 X111.867 Y136.609 E.01308
G1 X120.557 Y145.299 E.39551
G1 X120.348 Y145.637 E.01279
G1 X111.521 Y136.811 E.40172
G1 X111.201 Y137.038 E.01263
G1 X120.119 Y145.956 E.40589
G1 X119.872 Y146.256 E.01251
G1 X110.891 Y137.275 E.40875
G1 X110.602 Y137.534 E.01249
G1 X119.625 Y146.556 E.41064
G1 X119.544 Y146.655 E.00412
G1 X119.353 Y146.832 E.00838
G1 X110.33 Y137.808 E.41069
G1 X110.069 Y138.095 E.01248
G1 X119.068 Y147.094 E.40957
G1 X118.756 Y147.329 E.01257
G1 X109.843 Y138.416 E.40566
G1 X109.619 Y138.74 E.01268
G1 X118.433 Y147.554 E.40115
G1 X118.092 Y147.76 E.01282
G1 X109.401 Y139.069 E.39555
G1 X109.217 Y139.432 E.0131
G1 X117.728 Y147.944 E.38738
G1 X117.351 Y148.114 E.01331
G1 X109.051 Y139.814 E.37776
G1 X108.901 Y140.211 E.01366
G1 X116.948 Y148.258 E.36624
G1 X116.52 Y148.378 E.01431
G1 X108.783 Y140.64 E.35216
G1 X108.689 Y141.094 E.01492
G1 X116.07 Y148.475 E.33593
G1 X115.592 Y148.544 E.01554
G1 X108.622 Y141.574 E.31723
G1 X108.589 Y142.088 E.01658
G1 X115.069 Y148.568 E.29492
G1 X114.502 Y148.549 E.01826
G1 X108.608 Y142.655 E.26825
G1 X108.686 Y143.28 E.02027
G1 X113.877 Y148.471 E.23626
G1 X113.646 Y148.434 E.00753
G1 X113.164 Y148.306 E.01605
G1 X108.848 Y143.99 E.19643
G1 X109.059 Y144.592 E.02053
G1 X109.195 Y144.884 E.01037
G1 X112.282 Y147.971 E.1405
G1 X111.858 Y147.76 E.01524
G1 X110.947 Y147.141 E.03545
G1 X110.543 Y146.779 E.01746
G1 X109.421 Y145.657 E.05107
M204 S1000
;WIPE_START
G1 F8640
G1 X110.543 Y146.779 E-.36638
G1 X110.947 Y147.141 E-.12525
G1 X111.858 Y147.76 E-.25432
G1 X112.068 Y147.864 E-.05405
;WIPE_END
G1 Z.6 F720
; stop printing object helper_disk.stl id:4 copy 0
; printing object sofle_pico_cirque_mount_40mm.stl id:0 copy 0
G1 X116.753 Y128.572 F10800
G1 Z.2 F720
G1 E.8 F2100
M204 S800
;TYPE:Perimeter
;WIDTH:0.419999
G1 F1200
G1 X116.454 Y128.688 E.01006
G1 X116.259 Y128.677 E.00612
G1 X115.902 Y128.47 E.01294
G1 X114.741 Y128.353 E.03659
G1 X113.385 Y128.128 E.0431
G1 X112.04 Y127.815 E.0433
G1 X110.726 Y127.416 E.04306
G1 X109.441 Y126.934 E.04303
G1 X108.154 Y126.351 E.0443
G1 X106.998 Y125.736 E.04106
G1 X106.122 Y125.196 E.03227
G1 X104.662 Y124.186 E.05566
G1 X103.611 Y123.33 E.0425
G1 X103.132 Y122.886 E.02048
G1 X102.601 Y122.393 E.02272
G1 X101.654 Y121.392 E.04321
G1 X100.774 Y120.333 E.04317
G1 X100.59 Y120.082 E.00976
G1 X99.963 Y119.218 E.03347
G1 X99.224 Y118.049 E.04336
G1 X98.549 Y116.81 E.04424
G1 X97.985 Y115.592 E.04209
G1 X97.486 Y114.306 E.04325
G1 X97.07 Y112.991 E.04324
G1 X96.839 Y112.051 E.03035
G1 X96.498 Y110.293 E.05615
G1 X96.343 Y108.922 E.04326
G1 X96.313 Y108.293 E.01974
G1 X96.277 Y107.543 E.02354
G1 X96.3 Y106.164 E.04324
G1 X96.409 Y104.829 E.042
G1 X96.612 Y103.424 E.04451
G1 X96.901 Y102.071 E.04338
G1 X97.285 Y100.711 E.04431
G1 X97.746 Y99.411 E.04325
G1 X98.275 Y98.177 E.0421
G1 X98.897 Y96.947 E.04322
G1 X99.375 Y96.135 E.02954
G1 X100.372 Y94.619 E.05689
G1 X101.219 Y93.532 E.04321
G1 X101.616 Y93.086 E.01872
G1 X102.135 Y92.503 E.02447
G1 X103.115 Y91.535 E.04319
G1 X104.155 Y90.632 E.04318
G1 X104.353 Y90.48 E.00783
G1 X105.255 Y89.796 E.03549
G1 X106.4 Y89.038 E.04305
G1 X107.625 Y88.337 E.04425
G1 X108.829 Y87.749 E.04201
G1 X110.101 Y87.226 E.04312
G1 X111.048 Y86.905 E.03135
G1 X112.258 Y86.558 E.03947
G1 X112.754 Y86.426 E.01609
G1 X114.082 Y86.164 E.04244
G1 X115.379 Y85.993 E.04102
G1 X116.816 Y85.894 E.04516
G1 X118.193 Y85.893 E.04317
G1 X118.898 Y85.937 E.02215
G1 X119.566 Y85.981 E.02099
G1 X120.966 Y86.164 E.04427
G1 X122.279 Y86.423 E.04196
G1 X123.644 Y86.786 E.04429
G1 X124.914 Y87.213 E.04201
G1 X126.186 Y87.734 E.0431
G1 X127.444 Y88.348 E.04389
G1 X128.522 Y88.964 E.03893
G1 X129.361 Y89.509 E.03137
G1 X129.795 Y89.797 E.01633
G1 X130.865 Y90.609 E.04212
G1 X131.907 Y91.51 E.04319
G1 X132.385 Y91.98 E.02102
G1 X132.888 Y92.476 E.02215
G1 X133.805 Y93.504 E.04319
G1 X134.677 Y94.621 E.04443
G1 X135.458 Y95.772 E.04361
G1 X136.134 Y96.915 E.04164
G1 X136.774 Y98.178 E.04439
G1 X137.318 Y99.456 E.04355
G1 X137.763 Y100.711 E.04175
G1 X138.148 Y102.074 E.04441
G1 X138.43 Y103.387 E.04211
G1 X138.632 Y104.752 E.04326
G1 X138.748 Y106.165 E.04445
G1 X138.77 Y107.547 E.04334
G1 X138.708 Y108.885 E.042
G1 X138.55 Y110.293 E.04442
G1 X138.308 Y111.651 E.04325
G1 X137.988 Y112.955 E.0421
G1 X137.563 Y114.306 E.04441
G1 X137.064 Y115.592 E.04325
G1 X136.499 Y116.81 E.0421
G1 X135.822 Y118.054 E.04441
G1 X135.086 Y119.215 E.0431
G1 X134.297 Y120.304 E.04216
G1 X133.394 Y121.392 E.04433
G1 X132.447 Y122.393 E.04321
G1 X131.465 Y123.306 E.04204
G1 X130.369 Y124.199 E.04433
G1 X129.278 Y124.977 E.04201
G1 X128.109 Y125.703 E.04315
G1 X126.862 Y126.367 E.0443
G1 X125.608 Y126.934 E.04315
G1 X124.354 Y127.405 E.042
G1 X123.039 Y127.806 E.04311
G1 X121.7 Y128.121 E.04313
G1 X120.343 Y128.348 E.04314
G1 X119.126 Y128.475 E.03837
G1 X118.824 Y128.667 E.01122
G1 X118.593 Y128.688 E.00727
G1 X118.16 Y128.519 E.01457
G1 X116.875 Y128.524 E.04029
G1 X116.809 Y128.55 E.00222
M204 S1000
G1 X116.592 Y128.225 F10800
M204 S800
;TYPE:External perimeter
G1 F1200
G1 X116.431 Y128.31 E.00571
G1 X116.279 Y128.279 E.00486
G1 X116.041 Y128.105 E.00924
G1 X114.779 Y127.978 E.03977
G1 X113.444 Y127.756 E.04243
G1 X112.129 Y127.448 E.04235
G1 X110.838 Y127.056 E.0423
G1 X109.573 Y126.581 E.04237
M73 P2 R42
M73 Q2 S42
G1 X108.331 Y126.018 E.04276
G1 X107.176 Y125.403 E.04103
G1 X106.32 Y124.875 E.03153
G1 X104.892 Y123.888 E.05443
G1 X103.849 Y123.037 E.04221
G1 X103.388 Y122.61 E.0197
G1 X102.858 Y122.117 E.0227
G1 X101.928 Y121.133 E.04245
G1 X101.064 Y120.092 E.04242
G1 X100.895 Y119.86 E.009
G1 X100.267 Y118.994 E.03354
G1 X99.544 Y117.85 E.04243
G1 X98.891 Y116.651 E.04281
G1 X98.327 Y115.433 E.04209
G1 X97.837 Y114.17 E.04248
G1 X97.43 Y112.877 E.0425
G1 X97.205 Y111.961 E.02957
G1 X96.869 Y110.227 E.05538
G1 X96.718 Y108.88 E.0425
G1 X96.689 Y108.276 E.01896
G1 X96.654 Y107.526 E.02354
G1 X96.677 Y106.17 E.04252
G1 X96.785 Y104.86 E.04121
G1 X96.986 Y103.477 E.04382
G1 X97.269 Y102.152 E.04248
G1 X97.641 Y100.837 E.04285
G1 X98.093 Y99.56 E.04247
G1 X98.621 Y98.326 E.04208
G1 X99.233 Y97.117 E.04249
G1 X99.7 Y96.326 E.0288
G1 X100.684 Y94.832 E.05609
G1 X101.517 Y93.765 E.04244
G1 X101.897 Y93.337 E.01795
G1 X102.416 Y92.754 E.02447
G1 X103.379 Y91.803 E.04244
G1 X104.581 Y90.78 E.04949
G1 X105.48 Y90.098 E.03538
G1 X106.607 Y89.353 E.04236
