; generated by PrusaSlicer 2.9.3 on 2025-10-25 at 17:05:07 UTC


;
;
; 

; external perimeters extrusion width = 0.45mm
; perimeters extrusion width = 0.45mm
; infill extrusion width = 0.45mm
; solid infill extrusion width = 0.45mm
; top infill extrusion width = 0.40mm
; support material extrusion width = 0.35mm
; first layer extrusion width = 0.42mm

M73 P0 R170
M73 Q0 S170
M201 X1000 Y1000 Z200 E5000 ; sets maximum accelerations, mm/sec^2
M203 X200 Y200 Z12 E120 ; sets maximum feedrates, mm / sec
M204 S1250 T1250 ; sets acceleration (S) and retract acceleration (R), mm/sec^2
M205 X8.00 Y8.00 Z0.40 E4.50 ; sets the jerk limits, mm/sec
M205 S0 T0 ; sets the minimum extruding and travel feed rate, mm/sec

; printing object sofle_pico_backplate_v3.4_no_tenting_puck.stl id:0 copy 0
; stop printing object sofle_pico_backplate_v3.4_no_tenting_puck.stl id:0 copy 0

;TYPE:Custom
M862.3 P "MK3S" ; printer model check
M862.1 P0.4 ; nozzle diameter check
M115 U3.14.1 ; tell printer latest fw version
G90 ; use absolute coordinates
M83 ; extruder relative mode
M104 S215 ; set extruder temp
M140 S60 ; set bed temp
M190 S60 ; wait for bed temp
M109 S215 ; wait for extruder temp
G28 W ; home all without mesh bed level
G80 X42.3819 Y38.2773 W165.608 H133.962 ; mesh bed levelling

G1 Z0.2 F720
G1 Y-3 F1000 ; go outside print area
G92 E0
G1 X60 E9 F1000 ; intro line
G1 X100 E12.5 F1000 ; intro line

G92 E0
M221 S95

; Don't change E values below. Excessive value can damage the printer.
M907 E430 ; set extruder motor current
G21 ; set units to millimeters
G90 ; use absolute coordinates
M83 ; use relative distances for extrusion

M900 K0.05 ; Filament gcode LA 1.5
M900 K30 ; Filament gcode LA 1.0




M107
;LAYER_CHANGE
;Z:0.2
;HEIGHT:0.2
G1 E-.8 F2100
G1 Z.6 F720
G1 X47.863 Y68.875 F10800
G1 Z.2 F720
G1 E.8 F2100
M204 S800
;TYPE:Skirt/Brim
;WIDTH:0.42
G1 F1200
G1 X48.922 Y68.256 E.03846
G1 X49.884 Y67.836 E.03291
G1 X51.129 Y67.464 E.04074
G1 X185.61 Y38.653 E4.31224
G1 X186.576 Y38.511 E.03061
G1 X187.625 Y38.466 E.03292
G1 X188.849 Y38.559 E.03849
G1 X189.879 Y38.761 E.03291
G1 X191.048 Y39.136 E.03849
G1 X192.003 Y39.572 E.03292
G1 X193.052 Y40.21 E.0385
G1 X193.879 Y40.856 E.0329
G1 X194.751 Y41.721 E.03851
G1 X195.404 Y42.542 E.03289
G1 X196.062 Y43.607 E.03925
G1 X206.692 Y63.396 E.70432
G1 X207.324 Y64.894 E.05098
G1 X207.731 Y66.726 E.05884
G1 X207.801 Y68.037 E.04116
G1 X207.284 Y162.814 E2.97171
G1 X206.998 Y164.742 E.06111
G1 X206.331 Y166.575 E.06116
G1 X205.311 Y168.236 E.06112
G1 X204.681 Y168.982 E.03062
G1 X203.923 Y169.708 E.03291
G1 X202.388 Y170.788 E.05885
G1 X200.843 Y171.494 E.05326
G1 X199.022 Y171.947 E.05884
G1 X197.326 Y172.046 E.05327
G1 X51.716 Y165.261 E4.57045
G1 X49.8 Y164.959 E.06082
M73 P0 R169
G1 X47.973 Y164.277 E.06115
G1 X46.32 Y163.243 E.06113
G1 X44.908 Y161.899 E.06112
G1 X43.956 Y160.581 E.05098
G1 X43.212 Y159.053 E.05329
G1 X42.759 Y157.492 E.05096
G1 X42.571 Y155.625 E.05883
G1 X43.59 Y76.623 E2.47726
G1 X43.844 Y74.69 E.06113
G1 X44.139 Y73.683 E.0329
G1 X44.511 Y72.78 E.03062
G1 X45.515 Y71.109 E.06112
G1 X46.312 Y70.174 E.03852
G1 X47.025 Y69.508 E.03059
G1 X47.815 Y68.912 E.03103
M204 S1000
;WIPE_START
G1 F8640
G1 X47.863 Y68.875 E-.01399
G1 X48.922 Y68.256 E-.28323
G1 X49.884 Y67.836 E-.24238
G1 X50.964 Y67.513 E-.2604
;WIPE_END
G1 Z.6 F720
; printing object sofle_pico_backplate_v3.4_no_tenting_puck.stl id:0 copy 0
G1 X148.33 Y98.725 F10800
G1 Z.2 F720
G1 E.8 F2100
M204 S800
;TYPE:Perimeter
;WIDTH:0.419999
G1 F1200
G1 X148.361 Y98.658 E.00231
G1 X148.676 Y98.279 E.01545
G1 X149.091 Y97.99 E.01586
G1 X149.553 Y97.823 E.0154
G1 X150.03 Y97.78 E.01502
G1 X150.515 Y97.863 E.01543
G1 X150.962 Y98.069 E.01543
G1 X151.34 Y98.384 E.01543
G1 X151.624 Y98.786 E.01543
G1 X151.795 Y99.247 E.01542
G1 X151.84 Y99.738 E.01546
G1 X151.757 Y100.223 E.01543
G1 X151.55 Y100.67 E.01545
G1 X151.236 Y101.048 E.01541
G1 X150.834 Y101.332 E.01543
G1 X150.372 Y101.503 E.01545
G1 X149.882 Y101.548 E.01543
G1 X149.397 Y101.465 E.01543
G1 X148.95 Y101.258 E.01545
G1 X148.571 Y100.944 E.01543
G1 X148.287 Y100.542 E.01543
G1 X148.115 Y100.066 E.01587
G1 X148.075 Y99.567 E.0157
G1 X148.155 Y99.105 E.0147
G1 X148.305 Y98.78 E.01122
M204 S1000
G1 X148.65 Y98.91 F10800
M204 S800
;TYPE:External perimeter
G1 F1200
G1 X148.66 Y98.887 E.00079
G1 X148.905 Y98.578 E.01236
G1 X149.226 Y98.342 E.01249
G1 X149.617 Y98.195 E.0131
G1 X149.98 Y98.153 E.01146
G1 X150.37 Y98.211 E.01236
G1 X150.732 Y98.368 E.01237
G1 X151.041 Y98.613 E.01236
G1 X151.276 Y98.93 E.01237
G1 X151.421 Y99.297 E.01237
G1 X151.466 Y99.688 E.01234
G1 X151.408 Y100.078 E.01236
G1 X151.251 Y100.44 E.01237
G1 X151.006 Y100.749 E.01236
G1 X150.69 Y100.984 E.01235
G1 X150.323 Y101.129 E.01237
G1 X149.931 Y101.174 E.01237
G1 X149.541 Y101.116 E.01236
G1 X149.179 Y100.959 E.01237
G1 X148.87 Y100.714 E.01236
G1 X148.635 Y100.398 E.01235
G1 X148.49 Y100.026 E.01252
G1 X148.45 Y99.603 E.01332
G1 X148.503 Y99.249 E.01122
G1 X148.626 Y98.965 E.0097
M204 S1000
;WIPE_START
G1 F8640
G1 X148.65 Y98.91 E-.01386
G1 X148.66 Y98.887 E-.00579
G1 X148.905 Y98.578 E-.09105
G1 X149.226 Y98.342 E-.092
G1 X149.617 Y98.195 E-.09645
G1 X149.98 Y98.153 E-.08438
G1 X150.37 Y98.211 E-.09104
G1 X150.732 Y98.368 E-.09111
G1 X151.041 Y98.613 E-.09105
G1 X151.276 Y98.93 E-.09112
G1 X151.359 Y99.14 E-.05215
;WIPE_END
G1 Z.6 F720
G1 X172.532 Y106.048 F10800
G1 Z.2 F720
G1 E.8 F2100
M204 S800
;TYPE:Perimeter
G1 F1200
G1 X172.545 Y105.975 E.00232
G1 X172.751 Y105.528 E.01543
G1 X173.065 Y105.149 E.01543
G1 X173.481 Y104.86 E.01588
G1 X173.965 Y104.69 E.01608
G1 X174.419 Y104.649 E.01429
G1 X174.904 Y104.733 E.01543
G1 X175.352 Y104.939 E.01546
G1 X175.73 Y105.254 E.01543
G1 X176.014 Y105.655 E.01541
G1 X176.185 Y106.117 E.01545
G1 X176.23 Y106.607 E.01543
G1 X176.146 Y107.093 E.01546
G1 X175.932 Y107.551 E.01585
G1 X175.597 Y107.94 E.0161
G1 X175.224 Y108.202 E.01429
G1 X174.762 Y108.373 E.01545
G1 X174.361 Y108.422 E.01267
G1 X173.855 Y108.358 E.01599
G1 X173.38 Y108.157 E.01617
G1 X172.976 Y107.832 E.01626
G1 X172.677 Y107.412 E.01616
G1 X172.506 Y106.95 E.01545
G1 X172.461 Y106.46 E.01543
G1 X172.522 Y106.107 E.01123
M204 S1000
G1 X172.889 Y106.144 F10800
M204 S800
;TYPE:External perimeter
G1 F1200
G1 X172.893 Y106.119 E.00079
G1 X173.05 Y105.757 E.01237
G1 X173.295 Y105.448 E.01236
G1 X173.616 Y105.211 E.01251
G1 X174.014 Y105.064 E.0133
G1 X174.37 Y105.023 E.01124
G1 X174.76 Y105.081 E.01236
G1 X175.122 Y105.238 E.01237
G1 X175.431 Y105.483 E.01236
G1 X175.666 Y105.8 E.01237
G1 X175.811 Y106.166 E.01234
G1 X175.856 Y106.558 E.01237
G1 X175.798 Y106.948 E.01236
G1 X175.638 Y107.314 E.01252
G1 X175.367 Y107.641 E.01332
G1 X175.079 Y107.854 E.01123
G1 X174.713 Y107.999 E.01234
G1 X174.351 Y108.045 E.01144
G1 X173.931 Y107.986 E.0133
G1 X173.569 Y107.829 E.01237
G1 X173.26 Y107.584 E.01236
G1 X173.025 Y107.267 E.01237
G1 X172.88 Y106.901 E.01234
G1 X172.835 Y106.509 E.01237
G1 X172.881 Y106.203 E.0097
M204 S1000
;WIPE_START
G1 F8640
G1 X172.889 Y106.144 E-.01375
G1 X172.893 Y106.119 E-.00585
G1 X173.05 Y105.757 E-.09111
G1 X173.295 Y105.448 E-.09105
G1 X173.616 Y105.211 E-.09213
G1 X174.014 Y105.064 E-.09797
G1 X174.37 Y105.023 E-.08274
G1 X174.76 Y105.081 E-.09104
G1 X175.122 Y105.238 E-.09111
G1 X175.431 Y105.483 E-.09105
G1 X175.565 Y105.664 E-.0522
;WIPE_END
G1 Z.6 F720
G1 X192.509 Y97.451 F10800
G1 Z.2 F720
G1 E.8 F2100
M204 S800
;TYPE:Perimeter
G1 F1200
G1 X192.452 Y97.404 E.00232
G1 X192.215 Y97.092 E.01228
G1 X192.006 Y96.591 E.01702
G1 X191.949 Y96.074 E.01631
G1 X192.035 Y95.565 E.01619
G1 X192.241 Y95.118 E.01543
G1 X192.556 Y94.739 E.01545
G1 X192.971 Y94.45 E.01586
G1 X193.456 Y94.28 E.01611
G1 X193.91 Y94.24 E.01429
G1 X194.395 Y94.323 E.01543
G1 X194.842 Y94.529 E.01543
G1 X195.221 Y94.844 E.01545
G1 X195.505 Y95.246 E.01543
G1 X195.675 Y95.707 E.01541
G1 X195.72 Y96.198 E.01546
G1 X195.637 Y96.683 E.01543
G1 X195.431 Y97.13 E.01543
G1 X195.116 Y97.508 E.01543
G1 X194.714 Y97.792 E.01543
G1 X194.253 Y97.963 E.01542
G1 X193.762 Y98.008 E.01546
G1 X193.277 Y97.925 E.01543
G1 X192.83 Y97.719 E.01543
G1 X192.555 Y97.49 E.01122
M204 S1000
G1 X192.771 Y97.19 F10800
M204 S800
;TYPE:External perimeter
G1 F1200
G1 X192.751 Y97.174 E.0008
G1 X192.532 Y96.888 E.01129
G1 X192.371 Y96.491 E.01343
G1 X192.326 Y96.099 E.01237
G1 X192.384 Y95.709 E.01236
G1 X192.541 Y95.347 E.01237
G1 X192.786 Y95.038 E.01236
G1 X193.107 Y94.802 E.01249
G1 X193.505 Y94.654 E.01331
G1 X193.861 Y94.613 E.01124
G1 X194.251 Y94.671 E.01236
G1 X194.613 Y94.828 E.01237
G1 X194.922 Y95.073 E.01236
G1 X195.157 Y95.39 E.01237
G1 X195.301 Y95.757 E.01236
G1 X195.347 Y96.148 E.01234
G1 X195.289 Y96.538 E.01236
G1 X195.132 Y96.9 E.01237
G1 X194.887 Y97.209 E.01236
G1 X194.57 Y97.444 E.01237
G1 X194.203 Y97.589 E.01237
G1 X193.812 Y97.634 E.01234
G1 X193.422 Y97.576 E.01236
G1 X193.06 Y97.419 E.01237
G1 X192.818 Y97.227 E.00969
M204 S1000
;WIPE_START
G1 F8640
G1 X192.771 Y97.19 E-.01381
G1 X192.751 Y97.174 E-.00591
G1 X192.532 Y96.888 E-.08318
G1 X192.371 Y96.491 E-.09892
G1 X192.326 Y96.099 E-.09111
G1 X192.384 Y95.709 E-.09104
G1 X192.541 Y95.347 E-.09111
G1 X192.786 Y95.038 E-.09105
G1 X193.107 Y94.802 E-.092
G1 X193.505 Y94.654 E-.09805
G1 X193.693 Y94.633 E-.04382
;WIPE_END
G1 Z.6 F720
G1 X174.568 Y75.267 F10800
G1 Z.2 F720
G1 E.8 F2100
M204 S800
;TYPE:Perimeter
G1 F1200
G1 X174.615 Y75.209 E.00234
G1 X175.031 Y74.92 E.01588
G1 X175.515 Y74.75 E.01608
G1 X175.969 Y74.71 E.01429
G1 X176.454 Y74.793 E.01543
G1 X176.901 Y74.999 E.01543
G1 X177.28 Y75.314 E.01545
G1 X177.564 Y75.716 E.01543
G1 X177.736 Y76.192 E.01587
G1 X177.775 Y76.704 E.0161
G1 X177.696 Y77.153 E.01429
G1 X177.49 Y77.6 E.01543
G1 X177.176 Y77.978 E.01541
G1 X176.774 Y78.262 E.01543
G1 X176.312 Y78.433 E.01545
G1 X175.822 Y78.478 E.01543
G1 X175.337 Y78.395 E.01543
G1 X174.985 Y78.248 E.01196
G1 X174.574 Y77.943 E.01605
G1 X174.261 Y77.541 E.01597
G1 X174.067 Y77.066 E.01609
G1 X174.007 Y76.564 E.01585
G1 X174.083 Y76.064 E.01586
G1 X174.301 Y75.588 E.01642
G1 X174.529 Y75.313 E.0112
M204 S1000
G1 X174.829 Y75.528 F10800
M204 S800
;TYPE:External perimeter
G1 F1200
G1 X174.845 Y75.509 E.00078
G1 X175.166 Y75.272 E.01251
G1 X175.564 Y75.124 E.01331
G1 X175.92 Y75.084 E.01123
G1 X176.31 Y75.141 E.01236
G1 X176.672 Y75.298 E.01237
G1 X176.981 Y75.543 E.01236
G1 X177.216 Y75.86 E.01237
G1 X177.364 Y76.254 E.0132
G1 X177.401 Y76.654 E.0126
G1 X177.348 Y77.009 E.01125
G1 X177.191 Y77.37 E.01234
G1 X176.889 Y77.723 E.01457
G1 X176.629 Y77.914 E.01012
G1 X176.263 Y78.059 E.01234
G1 X175.871 Y78.104 E.01237
G1 X175.481 Y78.046 E.01236
G1 X175.151 Y77.909 E.0112
G1 X174.81 Y77.644 E.01354
G1 X174.575 Y77.328 E.01235
G1 X174.43 Y76.961 E.01237
G1 X174.385 Y76.569 E.01237
G1 X174.443 Y76.179 E.01236
G1 X174.6 Y75.817 E.01237
G1 X174.792 Y75.575 E.00969
M204 S1000
;WIPE_START
G1 F8640
G1 X174.829 Y75.528 E-.01381
G1 X174.845 Y75.509 E-.00574
G1 X175.166 Y75.272 E-.09213
G1 X175.564 Y75.124 E-.09805
G1 X175.92 Y75.084 E-.08272
G1 X176.31 Y75.141 E-.09101
G1 X176.672 Y75.298 E-.09111
G1 X176.981 Y75.543 E-.09105
G1 X177.216 Y75.86 E-.09112
G1 X177.364 Y76.254 E-.09718
G1 X177.382 Y76.453 E-.04608
;WIPE_END
G1 Z.6 F720
G1 X148.174 Y137.614 F10800
G1 Z.2 F720
G1 E.8 F2100
M204 S800
;TYPE:Perimeter
G1 F1200
G1 X148.166 Y137.504 E.00346
G1 X148.245 Y137.054 E.01433
G1 X148.451 Y136.607 E.01543
G1 X148.765 Y136.229 E.01541
G1 X149.181 Y135.939 E.0159
G1 X149.661 Y135.77 E.01596
G1 X150.119 Y135.729 E.01442
G1 X150.647 Y135.83 E.01686
G1 X151.063 Y136.027 E.01443
G1 X151.452 Y136.362 E.0161
G1 X151.714 Y136.735 E.01429
G1 X151.885 Y137.197 E.01545
G1 X151.93 Y137.687 E.01543
G1 X151.846 Y138.172 E.01543
G1 X151.64 Y138.619 E.01543
G1 X151.326 Y138.998 E.01543
G1 X150.924 Y139.282 E.01543
G1 X150.486 Y139.449 E.0147
G1 X149.972 Y139.498 E.01619
G1 X149.487 Y139.414 E.01543
G1 X149.028 Y139.199 E.01589
G1 X148.639 Y138.865 E.01608
G1 X148.377 Y138.492 E.01429
G1 X148.205 Y138.016 E.01587
G1 X148.179 Y137.673 E.01079
M204 S1000
G1 X148.546 Y137.614 F10800
M204 S800
;TYPE:External perimeter
G1 F1200
G1 X148.54 Y137.553 E.00192
G1 X148.593 Y137.199 E.01122
G1 X148.75 Y136.837 E.01237
G1 X148.995 Y136.528 E.01236
G1 X149.316 Y136.291 E.01251
G1 X149.714 Y136.143 E.01331
G1 X150.07 Y136.103 E.01123
G1 X150.503 Y136.179 E.01378
G1 X150.826 Y136.321 E.01106
G1 X151.153 Y136.592 E.01332
G1 X151.366 Y136.88 E.01123
G1 X151.511 Y137.246 E.01234
G1 X151.547 Y137.704 E.0144
G1 X151.467 Y138.104 E.01279
G1 X151.341 Y138.39 E.0098
G1 X151.096 Y138.699 E.01236
G1 X150.779 Y138.934 E.01237
G1 X150.421 Y139.077 E.01209
G1 X150.021 Y139.124 E.01263
G1 X149.631 Y139.066 E.01236
G1 X149.265 Y138.906 E.01252
G1 X148.938 Y138.635 E.01332
G1 X148.725 Y138.347 E.01123
G1 X148.58 Y137.976 E.01249
G1 X148.551 Y137.673 E.00954
M204 S1000
;WIPE_START
G1 F8640
G1 X148.546 Y137.614 E-.01367
G1 X148.54 Y137.553 E-.01415
G1 X148.593 Y137.199 E-.08265
G1 X148.75 Y136.837 E-.09111
G1 X148.995 Y136.528 E-.09105
G1 X149.316 Y136.291 E-.09213
G1 X149.714 Y136.143 E-.09805
G1 X150.07 Y136.103 E-.08272
G1 X150.503 Y136.179 E-.10151
G1 X150.826 Y136.321 E-.08147
G1 X150.998 Y136.463 E-.05149
;WIPE_END
G1 Z.6 F720
G1 X165.656 Y160.493 F10800
G1 Z.2 F720
G1 E.8 F2100
M204 S800
;TYPE:Perimeter
G1 F1200
G1 X165.636 Y160.422 E.00231
G1 X165.591 Y159.932 E.01543
G1 X165.675 Y159.447 E.01543
G1 X165.881 Y159 E.01543
G1 X166.195 Y158.621 E.01543
G1 X166.611 Y158.332 E.01588
G1 X167.085 Y158.163 E.01578
G1 X167.549 Y158.122 E.01461
G1 X168.034 Y158.205 E.01543
G1 X168.493 Y158.42 E.01589
G1 X168.882 Y158.754 E.01608
G1 X169.144 Y159.128 E.01432
G1 X169.315 Y159.59 E.01545
G1 X169.36 Y160.08 E.01543
G1 X169.276 Y160.565 E.01543
G1 X169.07 Y161.012 E.01543
G1 X168.756 Y161.39 E.01541
G1 X168.354 Y161.674 E.01543
;WIDTH:0.455387
G1 X168.125 Y161.777 E.00861
;WIDTH:0.490774
G1 X167.896 Y161.88 E.00935
G1 X167.398 Y161.914 E.01859
G1 X167.054 Y161.88 E.01287
G1 X166.826 Y161.777 E.00932
;WIDTH:0.455387
G1 X166.597 Y161.674 E.00861
;WIDTH:0.419999
G1 X166.195 Y161.39 E.01543
G1 X165.881 Y161.012 E.01541
G1 X165.675 Y160.565 E.01543
G1 X165.671 Y160.551 E.00046
M204 S1000
G1 X166.019 Y160.396 F10800
M204 S800
;TYPE:External perimeter
G1 F1200
G1 X166.01 Y160.373 E.00077
G1 X165.965 Y159.981 E.01237
G1 X166.023 Y159.591 E.01236
G1 X166.18 Y159.229 E.01237
G1 X166.425 Y158.921 E.01234
G1 X166.746 Y158.684 E.01251
G1 X167.225 Y158.525 E.01582
G1 X167.566 Y158.504 E.01071
G1 X167.89 Y158.553 E.01027
G1 X168.278 Y158.731 E.01338
G1 X168.583 Y158.984 E.01242
G1 X168.796 Y159.272 E.01123
G1 X168.941 Y159.639 E.01237
G1 X168.986 Y160.03 E.01234
G1 X168.928 Y160.421 E.01239
G1 X168.771 Y160.782 E.01234
G1 X168.526 Y161.091 E.01236
G1 X168.209 Y161.326 E.01237
G1 X167.843 Y161.471 E.01234
G1 X167.451 Y161.516 E.01237
G1 X167.061 Y161.458 E.01236
G1 X166.699 Y161.301 E.01237
G1 X166.39 Y161.056 E.01236
G1 X166.155 Y160.74 E.01235
G1 X166.042 Y160.452 E.0097
M204 S1000
;WIPE_START
G1 F8640
G1 X166.019 Y160.396 E-.01398
G1 X166.01 Y160.373 E-.0057
G1 X165.965 Y159.981 E-.09111
G1 X166.023 Y159.591 E-.09104
G1 X166.18 Y159.229 E-.09111
G1 X166.425 Y158.921 E-.09087
G1 X166.746 Y158.684 E-.09213
G1 X167.225 Y158.525 E-.11654
G1 X167.566 Y158.504 E-.07889
G1 X167.89 Y158.553 E-.07566
G1 X168.099 Y158.649 E-.05297
;WIPE_END
G1 Z.6 F720
G1 X72.711 Y137.027 F10800
G1 Z.2 F720
G1 E.8 F2100
M204 S800
;TYPE:Perimeter
G1 F1200
G1 X72.637 Y137.014 E.00236
G1 X72.179 Y136.799 E.01586
G1 X71.79 Y136.465 E.01608
G1 X71.528 Y136.092 E.01429
G1 X71.357 Y135.63 E.01545
G1 X71.312 Y135.14 E.01543
G1 X71.395 Y134.654 E.01546
G1 X71.601 Y134.207 E.01543
G1 X71.916 Y133.829 E.01543
G1 X72.331 Y133.539 E.01587
G1 X72.816 Y133.37 E.0161
G1 X73.285 Y133.331 E.01476
G1 X73.771 Y133.419 E.01549
G1 X74.213 Y133.627 E.01532
G1 X74.597 Y133.955 E.01583
G1 X74.826 Y134.259 E.01193
G1 X75.022 Y134.73 E.016
G1 X75.085 Y135.233 E.01589
G1 X75.013 Y135.729 E.01571
G1 X74.81 Y136.194 E.01591
G1 X74.476 Y136.598 E.01644
G1 X74.074 Y136.882 E.01543
