; generated by PrusaSlicer 2.9.3 on 2025-10-23 at 20:52:33 UTC


;
;
; 

; external perimeters extrusion width = 0.45mm
; perimeters extrusion width = 0.45mm
; infill extrusion width = 0.45mm
; solid infill extrusion width = 0.45mm
; top infill extrusion width = 0.40mm
; support material extrusion width = 0.35mm
; first layer extrusion width = 0.42mm

M73 P0 R168
M73 Q0 S169
M201 X1000 Y1000 Z200 E5000 ; sets maximum accelerations, mm/sec^2
M203 X200 Y200 Z12 E120 ; sets maximum feedrates, mm / sec
M204 S1250 T1250 ; sets acceleration (S) and retract acceleration (R), mm/sec^2
M205 X8.00 Y8.00 Z0.40 E4.50 ; sets the jerk limits, mm/sec
M205 S0 T0 ; sets the minimum extruding and travel feed rate, mm/sec

; printing object sofle_pico_backplate_v3.4_no_tenting_puck.stl id:0 copy 0
; stop printing object sofle_pico_backplate_v3.4_no_tenting_puck.stl id:0 copy 0

;TYPE:Custom
M862.3 P "MK3S" ; printer model check
M862.1 P0.4 ; nozzle diameter check
M115 U3.14.1 ; tell printer latest fw version
G90 ; use absolute coordinates
M83 ; extruder relative mode
M104 S215 ; set extruder temp
M140 S60 ; set bed temp
M190 S60 ; wait for bed temp
M109 S215 ; wait for extruder temp
G28 W ; home all without mesh bed level
G80 X49.9127 Y44.4811 W150.175 H121.044 ; mesh bed levelling

G1 Z0.2 F720
G1 Y-3 F1000 ; go outside print area
G92 E0
G1 X60 E9 F1000 ; intro line
G1 X100 E12.5 F1000 ; intro line

G92 E0
M221 S95

; Don't change E values below. Excessive value can damage the printer.
M907 E430 ; set extruder motor current
G21 ; set units to millimeters
G90 ; use absolute coordinates
M83 ; use relative distances for extrusion

M900 K0.05 ; Filament gcode LA 1.5
M900 K30 ; Filament gcode LA 1.0




M107
;LAYER_CHANGE
;Z:0.2
;HEIGHT:0.2
G1 E-.8 F2100
G1 Z.6 F720
G1 X61.44 Y46.461 F10800
G1 Z.2 F720
G1 E.8 F2100
M204 S800
;TYPE:Skirt/Brim
;WIDTH:0.42
G1 F1200
G1 X62.195 Y45.562 E.03681
G1 X62.887 Y45.09 E.02626
G1 X63.372 Y44.88 E.01657
G1 X64.157 Y44.695 E.02529
G1 X64.994 Y44.689 E.02624
G1 X158.47 Y60.24 E2.97116
G1 X197.562 Y74.618 E1.30598
G1 X198.608 Y75.254 E.03838
G1 X199.188 Y75.882 E.0268
G1 X199.607 Y76.627 E.0268
G1 X199.844 Y77.449 E.02682
G1 X199.899 Y78.049 E.01889
G1 X199.899 Y154.248 E2.38917
G1 X199.712 Y155.39 E.03628
M73 Q0 S168
G1 X199.127 Y156.5 E.03934
G1 X198.774 Y156.895 E.01661
G1 X198.064 Y157.436 E.02799
G1 X197.244 Y157.791 E.02802
G1 X196.654 Y157.92 E.01894
G1 X139.061 Y165.337 E1.8207
G1 X53.79 Y165.337 E2.67361
G1 X52.564 Y165.119 E.03904
G1 X52.202 Y164.969 E.01229
G1 X51.397 Y164.445 E.03012
G1 X50.985 Y164.031 E.01831
G1 X50.469 Y163.236 E.02972
G1 X50.171 Y162.322 E.03014
G1 X50.101 Y161.648 E.02125
G1 X50.121 Y69.21 E2.89833
G1 X50.228 Y68.62 E.0188
G1 X50.503 Y67.893 E.02437
G1 X61.412 Y46.514 E.75255
M204 S1000
;WIPE_START
G1 F8640
G1 X61.44 Y46.461 E-.01384
G1 X62.195 Y45.562 E-.27107
G1 X62.887 Y45.09 E-.19341
G1 X63.372 Y44.88 E-.12203
G1 X64.157 Y44.695 E-.18622
G1 X64.215 Y44.695 E-.01343
;WIPE_END
G1 Z.6 F720
; printing object sofle_pico_backplate_v3.4_no_tenting_puck.stl id:0 copy 0
G1 X99.085 Y98.334 F10800
G1 Z.2 F720
G1 E.8 F2100
M204 S800
;TYPE:Perimeter
;WIDTH:0.419999
G1 F1200
G1 X99.113 Y98.298 E.00143
G1 X99.525 Y98.001 E.01592
G1 X100 Y97.825 E.01588
G1 X100.44 Y97.783 E.01386
G1 X100.953 Y97.854 E.01624
G1 X101.422 Y98.069 E.01618
G1 X101.801 Y98.384 E.01545
G1 X102.085 Y98.786 E.01543
G1 X102.255 Y99.247 E.01541
G1 X102.3 Y99.738 E.01546
G1 X102.217 Y100.223 E.01543
G1 X102.011 Y100.67 E.01543
G1 X101.696 Y101.048 E.01543
G1 X101.294 Y101.332 E.01543
G1 X100.832 Y101.503 E.01545
G1 X100.342 Y101.548 E.01543
G1 X99.857 Y101.465 E.01543
G1 X99.41 Y101.258 E.01545
G1 X99.032 Y100.944 E.01541
G1 X98.747 Y100.542 E.01545
G1 X98.574 Y100.06 E.01606
G1 X98.53 Y99.606 E.0143
G1 X98.614 Y99.107 E.01587
G1 X98.799 Y98.702 E.01396
G1 X99.048 Y98.381 E.01274
M204 S1000
G1 X99.35 Y98.599 F10800
M204 S800
;TYPE:External perimeter
G1 F1200
G1 X99.365 Y98.579 E.00078
G1 X99.682 Y98.343 E.01239
G1 X100.049 Y98.198 E.01237
G1 X100.4 Y98.158 E.01108
G1 X100.83 Y98.211 E.01358
G1 X101.193 Y98.368 E.0124
G1 X101.501 Y98.613 E.01234
G1 X101.736 Y98.93 E.01237
G1 X101.881 Y99.297 E.01237
G1 X101.926 Y99.688 E.01234
G1 X101.869 Y100.078 E.01236
G1 X101.712 Y100.44 E.01237
G1 X101.467 Y100.749 E.01236
G1 X101.06 Y101.021 E.01535
G1 X100.783 Y101.129 E.00932
G1 X100.391 Y101.174 E.01237
G1 X99.912 Y101.079 E.01531
G1 X99.64 Y100.959 E.00932
G1 X99.331 Y100.714 E.01236
G1 X99.096 Y100.398 E.01235
G1 X98.948 Y100.01 E.01302
G1 X98.905 Y99.644 E.01155
G1 X98.964 Y99.249 E.01252
G1 X99.104 Y98.924 E.0111
G1 X99.314 Y98.646 E.01092
M204 S1000
;WIPE_START
G1 F8640
G1 X99.35 Y98.599 E-.01367
G1 X99.365 Y98.579 E-.00577
G1 X99.682 Y98.343 E-.09125
G1 X100.049 Y98.198 E-.09112
G1 X100.4 Y98.158 E-.08157
G1 X100.83 Y98.211 E-.10004
G1 X101.193 Y98.368 E-.09132
G1 X101.501 Y98.613 E-.09087
G1 X101.736 Y98.93 E-.09112
G1 X101.881 Y99.297 E-.09112
G1 X101.907 Y99.522 E-.05215
;WIPE_END
G1 Z.6 F720
G1 X74.213 Y106.048 F10800
G1 Z.2 F720
G1 E.8 F2100
M204 S800
;TYPE:Perimeter
G1 F1200
G1 X74.225 Y105.975 E.00232
G1 X74.431 Y105.528 E.01543
G1 X74.746 Y105.149 E.01545
G1 X75.148 Y104.865 E.01543
G1 X75.61 Y104.695 E.01544
G1 X76.05 Y104.653 E.01386
G1 X76.562 Y104.724 E.01621
G1 X77.021 Y104.93 E.01577
G1 X77.411 Y105.253 E.01588
G1 X77.703 Y105.674 E.01606
G1 X77.849 Y106.07 E.01323
G1 X77.912 Y106.591 E.01645
G1 X77.828 Y107.09 E.01587
G1 X77.621 Y107.54 E.01553
G1 X77.306 Y107.918 E.01543
G1 X76.904 Y108.202 E.01543
G1 X76.443 Y108.373 E.01542
G1 X75.952 Y108.418 E.01546
G1 X75.61 Y108.373 E.01082
G1 X75.123 Y108.191 E.0163
G1 X74.719 Y107.896 E.01568
G1 X74.391 Y107.479 E.01663
G1 X74.193 Y106.987 E.01663
G1 X74.14 Y106.483 E.01589
G1 X74.203 Y106.107 E.01195
M204 S1000
G1 X74.57 Y106.144 F10800
M204 S800
;TYPE:External perimeter
G1 F1200
G1 X74.574 Y106.119 E.00079
G1 X74.731 Y105.757 E.01237
G1 X74.976 Y105.448 E.01236
G1 X75.292 Y105.213 E.01235
G1 X75.659 Y105.068 E.01237
G1 X76.01 Y105.028 E.01108
G1 X76.441 Y105.081 E.01362
G1 X76.803 Y105.238 E.01237
G1 X77.112 Y105.483 E.01236
G1 X77.354 Y105.819 E.01298
G1 X77.477 Y106.128 E.01043
G1 X77.537 Y106.558 E.01361
G1 X77.479 Y106.948 E.01236
G1 X77.322 Y107.31 E.01237
G1 X77.077 Y107.619 E.01236
G1 X76.76 Y107.854 E.01237
G1 X76.393 Y107.999 E.01237
G1 X76.002 Y108.044 E.01234
G1 X75.659 Y107.999 E.01085
G1 X75.25 Y107.829 E.01389
G1 X74.941 Y107.584 E.01236
G1 X74.706 Y107.267 E.01237
G1 X74.561 Y106.901 E.01234
G1 X74.516 Y106.509 E.01237
G1 X74.561 Y106.203 E.0097
M204 S1000
;WIPE_START
G1 F8640
G1 X74.57 Y106.144 E-.01378
G1 X74.574 Y106.119 E-.00585
G1 X74.731 Y105.757 E-.09111
G1 X74.976 Y105.448 E-.09105
G1 X75.292 Y105.213 E-.09093
G1 X75.659 Y105.068 E-.09112
G1 X76.01 Y105.028 E-.08157
G1 X76.441 Y105.081 E-.10027
G1 X76.803 Y105.238 E-.09111
G1 X77.112 Y105.483 E-.09105
G1 X77.244 Y105.666 E-.05216
;WIPE_END
G1 Z.6 F720
G1 X56.05 Y97.937 F10800
G1 Z.2 F720
G1 E.8 F2100
M204 S800
;TYPE:Perimeter
G1 F1200
G1 X55.977 Y97.925 E.00232
G1 X55.53 Y97.719 E.01543
G1 X55.151 Y97.404 E.01545
G1 X54.867 Y97.002 E.01543
G1 X54.712 Y96.587 E.01389
G1 X54.651 Y96.05 E.01695
G1 X54.735 Y95.565 E.01543
G1 X54.941 Y95.118 E.01543
G1 X55.255 Y94.739 E.01543
G1 X55.657 Y94.455 E.01543
G1 X56.119 Y94.285 E.01544
G1 X56.56 Y94.243 E.01389
G1 X57.094 Y94.323 E.01693
G1 X57.555 Y94.539 E.01596
G1 X57.92 Y94.844 E.01491
G1 X58.204 Y95.246 E.01543
G1 X58.375 Y95.707 E.01542
G1 X58.421 Y96.186 E.01509
G1 X58.336 Y96.683 E.01581
G1 X58.13 Y97.13 E.01543
G1 X57.816 Y97.508 E.01541
G1 X57.414 Y97.792 E.01543
G1 X56.952 Y97.963 E.01545
G1 X56.462 Y98.008 E.01543
G1 X56.109 Y97.947 E.01123
M204 S1000
G1 X56.146 Y97.58 F10800
M204 S800
;TYPE:External perimeter
G1 F1200
G1 X56.121 Y97.576 E.00079
G1 X55.759 Y97.419 E.01237
G1 X55.45 Y97.174 E.01236
G1 X55.215 Y96.858 E.01235
G1 X55.085 Y96.529 E.01109
G1 X55.025 Y96.099 E.01361
G1 X55.083 Y95.709 E.01236
G1 X55.24 Y95.347 E.01237
G1 X55.485 Y95.038 E.01236
G1 X55.802 Y94.803 E.01237
G1 X56.168 Y94.659 E.01233
G1 X56.52 Y94.618 E.01111
G1 X56.95 Y94.671 E.01358
G1 X57.325 Y94.838 E.01287
G1 X57.621 Y95.073 E.01185
G1 X57.856 Y95.39 E.01237
G1 X58.001 Y95.757 E.01237
G1 X58.046 Y96.144 E.01222
G1 X57.988 Y96.538 E.01249
G1 X57.831 Y96.9 E.01237
G1 X57.586 Y97.209 E.01236
G1 X57.269 Y97.444 E.01237
G1 X56.903 Y97.589 E.01234
G1 X56.511 Y97.634 E.01237
G1 X56.205 Y97.589 E.0097
M204 S1000
;WIPE_START
G1 F8640
G1 X56.146 Y97.58 E-.01378
G1 X56.121 Y97.576 E-.00585
G1 X55.759 Y97.419 E-.09111
G1 X55.45 Y97.174 E-.09105
G1 X55.215 Y96.858 E-.09093
G1 X55.085 Y96.529 E-.08168
G1 X55.025 Y96.099 E-.10025
G1 X55.083 Y95.709 E-.09104
G1 X55.24 Y95.347 E-.09111
G1 X55.485 Y95.038 E-.09105
G1 X55.666 Y94.904 E-.05215
;WIPE_END
G1 Z.6 F720
G1 X73.149 Y77.922 F10800
G1 Z.2 F720
G1 E.8 F2100
M204 S800
;TYPE:Perimeter
G1 F1200
G1 X73.092 Y77.874 E.00234
G1 X72.808 Y77.472 E.01543
G1 X72.637 Y77.01 E.01545
G1 X72.592 Y76.52 E.01543
G1 X72.675 Y76.035 E.01543
G1 X72.881 Y75.588 E.01543
G1 X73.196 Y75.209 E.01545
G1 X73.598 Y74.925 E.01543
G1 X74.06 Y74.755 E.01544
G1 X74.5 Y74.713 E.01386
G1 X74.997 Y74.779 E.01572
G1 X75.482 Y74.999 E.0167
G1 X75.861 Y75.314 E.01545
G1 X76.145 Y75.716 E.01543
G1 X76.315 Y76.178 E.01544
G1 X76.36 Y76.668 E.01543
G1 X76.277 Y77.153 E.01543
G1 X76.071 Y77.6 E.01543
G1 X75.756 Y77.978 E.01543
G1 X75.354 Y78.262 E.01543
G1 X74.893 Y78.433 E.01542
G1 X74.402 Y78.478 E.01546
G1 X73.917 Y78.395 E.01543
G1 X73.47 Y78.189 E.01543
G1 X73.195 Y77.96 E.01122
M204 S1000
G1 X73.411 Y77.66 F10800
M204 S800
;TYPE:External perimeter
G1 F1200
G1 X73.391 Y77.644 E.0008
G1 X73.156 Y77.328 E.01235
G1 X73.011 Y76.961 E.01237
G1 X72.966 Y76.569 E.01237
G1 X73.024 Y76.179 E.01236
G1 X73.181 Y75.817 E.01237
G1 X73.426 Y75.509 E.01234
G1 X73.742 Y75.274 E.01235
G1 X74.109 Y75.129 E.01237
G1 X74.46 Y75.088 E.01108
G1 X74.891 Y75.141 E.01362
G1 X75.253 Y75.298 E.01237
G1 X75.562 Y75.543 E.01236
G1 X75.797 Y75.86 E.01237
G1 X75.941 Y76.227 E.01236
G1 X75.987 Y76.618 E.01234
G1 X75.929 Y77.009 E.01239
G1 X75.772 Y77.37 E.01234
G1 X75.527 Y77.679 E.01236
G1 X75.21 Y77.914 E.01237
G1 X74.843 Y78.059 E.01237
G1 X74.452 Y78.104 E.01234
G1 X74.062 Y78.046 E.01236
G1 X73.7 Y77.889 E.01237
G1 X73.458 Y77.697 E.00969
M204 S1000
;WIPE_START
G1 F8640
G1 X73.411 Y77.66 E-.01381
G1 X73.391 Y77.644 E-.00591
G1 X73.156 Y77.328 E-.09093
G1 X73.011 Y76.961 E-.09112
G1 X72.966 Y76.569 E-.09111
G1 X73.024 Y76.179 E-.09104
G1 X73.181 Y75.817 E-.09111
G1 X73.426 Y75.509 E-.09087
G1 X73.742 Y75.274 E-.09093
G1 X74.109 Y75.129 E-.09112
G1 X74.333 Y75.103 E-.05205
;WIPE_END
G1 Z.6 F720
G1 X99.84 Y135.8 F10800
G1 Z.2 F720
G1 E.8 F2100
M204 S800
;TYPE:Perimeter
G1 F1200
G1 X99.91 Y135.774 E.00234
G1 X100.35 Y135.732 E.01386
G1 X100.864 Y135.804 E.01627
G1 X101.332 Y136.019 E.01615
G1 X101.711 Y136.333 E.01543
G1 X101.995 Y136.735 E.01543
G1 X102.165 Y137.197 E.01544
G1 X102.21 Y137.687 E.01543
G1 X102.127 Y138.172 E.01543
G1 X101.921 Y138.619 E.01543
G1 X101.606 Y138.998 E.01545
G1 X101.204 Y139.282 E.01543
G1 X100.743 Y139.452 E.01541
G1 X100.252 Y139.498 E.01546
G1 X99.767 Y139.414 E.01543
G1 X99.348 Y139.228 E.01437
G1 X98.942 Y138.893 E.0165
G1 X98.658 Y138.492 E.01541
G1 X98.503 Y138.077 E.01389
G1 X98.439 Y137.563 E.01624
G1 X98.521 Y137.064 E.01586
G1 X98.731 Y136.608 E.01574
G1 X99.046 Y136.229 E.01545
G1 X99.448 Y135.945 E.01543
G1 X99.784 Y135.821 E.01123
M204 S1000
G1 X99.94 Y136.174 F10800
M204 S800
;TYPE:External perimeter
G1 F1200
G1 X100.049 Y136.136 E.00362
G1 X100.31 Y136.107 E.00823
G1 X100.741 Y136.161 E.01362
G1 X101.103 Y136.318 E.01237
G1 X101.412 Y136.563 E.01236
G1 X101.646 Y136.88 E.01235
G1 X101.791 Y137.246 E.01234
G1 X101.836 Y137.638 E.01237
G1 X101.779 Y138.028 E.01236
G1 X101.622 Y138.39 E.01237
G1 X101.377 Y138.699 E.01236
G1 X101.06 Y138.934 E.01237
G1 X100.693 Y139.079 E.01237
G1 X100.302 Y139.124 E.01234
G1 X99.912 Y139.066 E.01236
G1 X99.559 Y138.916 E.01203
G1 X99.241 Y138.664 E.01272
G1 X99.006 Y138.347 E.01237
G1 X98.875 Y138.019 E.01107
G1 X98.816 Y137.589 E.01361
G1 X98.874 Y137.199 E.01236
G1 X99.031 Y136.837 E.01237
G1 X99.276 Y136.528 E.01236
G1 X99.592 Y136.293 E.01235
G1 X99.884 Y136.193 E.00968
M204 S1000
;WIPE_START
G1 F8640
G1 X99.94 Y136.174 E-.01365
G1 X100.049 Y136.136 E-.02665
G1 X100.31 Y136.107 E-.06064
G1 X100.741 Y136.161 E-.1003
G1 X101.103 Y136.318 E-.09111
G1 X101.412 Y136.563 E-.09105
G1 X101.646 Y136.88 E-.09098
G1 X101.791 Y137.246 E-.0909
G1 X101.836 Y137.638 E-.09111
G1 X101.779 Y138.028 E-.09101
G1 X101.688 Y138.237 E-.0526
;WIPE_END
G1 Z.6 F720
G1 X84.522 Y159.067 F10800
G1 Z.2 F720
M73 P0 R167
G1 E.8 F2100
M204 S800
;TYPE:Perimeter
G1 F1200
G1 X84.565 Y159.128 E.00234
G1 X84.735 Y159.589 E.01541
G1 X84.78 Y159.932 E.01085
G1 X84.735 Y160.422 E.01543
G1 X84.565 Y160.884 E.01544
G1 X84.281 Y161.286 E.01543
G1 X83.902 Y161.601 E.01545
;WIDTH:0.456719
G1 X83.623 Y161.739 E.01071
;WIDTH:0.493438
G1 X83.343 Y161.877 E.01169
G1 X82.819 Y161.914 E.01968
;WIDTH:0.490742
G1 X82.475 Y161.88 E.01287
G1 X82.247 Y161.777 E.00932
;WIDTH:0.455371
G1 X82.018 Y161.674 E.00861
;WIDTH:0.419999
G1 X81.616 Y161.39 E.01543
G1 X81.302 Y161.012 E.01541
G1 X81.095 Y160.565 E.01545
G1 X81.012 Y160.08 E.01543
G1 X81.057 Y159.59 E.01543
G1 X81.265 Y159.054 E.01803
G1 X81.591 Y158.642 E.01647
G1 X82 Y158.345 E.01585
G1 X82.48 Y158.167 E.01605
G1 X82.92 Y158.125 E.01386
G1 X83.432 Y158.196 E.01621
G1 X83.902 Y158.411 E.01621
G1 X84.281 Y158.726 E.01545
G1 X84.487 Y159.018 E.0112
M204 S1000
G1 X84.202 Y159.252 F10800
M204 S800
;TYPE:External perimeter
G1 F1200
G1 X84.217 Y159.272 E.00078
G1 X84.362 Y159.639 E.01237
G1 X84.407 Y159.981 E.01082
G1 X84.349 Y160.42 E.01388
G1 X84.192 Y160.782 E.01237
G1 X83.947 Y161.091 E.01236
G1 X83.63 Y161.326 E.01237
G1 X83.263 Y161.471 E.01237
G1 X82.872 Y161.516 E.01234
G1 X82.482 Y161.458 E.01236
G1 X82.12 Y161.301 E.01237
G1 X81.811 Y161.056 E.01236
G1 X81.576 Y160.74 E.01235
G1 X81.431 Y160.373 E.01237
G1 X81.386 Y159.981 E.01237
G1 X81.444 Y159.591 E.01236
G1 X81.601 Y159.229 E.01237
G1 X81.846 Y158.92 E.01236
G1 X82.162 Y158.686 E.01233
G1 X82.529 Y158.541 E.01237
G1 X82.88 Y158.5 E.01108
G1 X83.311 Y158.553 E.01362
G1 X83.673 Y158.71 E.01237
G1 X83.982 Y158.955 E.01236
G1 X84.166 Y159.204 E.00971
M204 S1000
;WIPE_START
G1 F8640
G1 X84.202 Y159.252 E-.01385
G1 X84.217 Y159.272 E-.00577
G1 X84.362 Y159.639 E-.09112
G1 X84.407 Y159.981 E-.07965
G1 X84.349 Y160.42 E-.10225
G1 X84.192 Y160.782 E-.09111
G1 X83.947 Y161.091 E-.09105
G1 X83.63 Y161.326 E-.09112
G1 X83.263 Y161.471 E-.09112
G1 X82.872 Y161.516 E-.09088
G1 X82.649 Y161.483 E-.05208
;WIPE_END
G1 Z.6 F720
G1 X175.848 Y136.541 F10800
G1 Z.2 F720
G1 E.8 F2100
M204 S800
;TYPE:Perimeter
G1 F1200
G1 X175.791 Y136.494 E.00232
G1 X175.507 Y136.092 E.01543
G1 X175.352 Y135.677 E.01389
G1 X175.288 Y135.171 E.01599
G1 X175.366 Y134.676 E.01571
G1 X175.542 Y134.264 E.01405
G1 X175.851 Y133.867 E.01577
G1 X176.26 Y133.562 E.016
G1 X176.733 Y133.378 E.01591
G1 X177.2 Y133.332 E.01471
G1 X177.708 Y133.402 E.01608
G1 X178.182 Y133.619 E.01635
G1 X178.56 Y133.933 E.01541
G1 X178.844 Y134.335 E.01543
G1 X179.015 Y134.797 E.01545
G1 X179.06 Y135.287 E.01543
G1 X178.976 Y135.772 E.01543
G1 X178.77 Y136.219 E.01543
G1 X178.456 Y136.598 E.01543
G1 X178.054 Y136.882 E.01543
G1 X177.592 Y137.052 E.01544
G1 X177.102 Y137.098 E.01543
G1 X176.617 Y137.014 E.01543
G1 X176.17 Y136.808 E.01543
G1 X175.894 Y136.579 E.01124
M204 S1000
G1 X176.11 Y136.28 F10800
M204 S800
;TYPE:External perimeter
G1 F1200
G1 X176.09 Y136.264 E.0008
G1 X175.855 Y135.947 E.01237
G1 X175.725 Y135.619 E.01106
G1 X175.665 Y135.189 E.01361
G1 X175.723 Y134.799 E.01236
G1 X175.867 Y134.456 E.01166
G1 X176.125 Y134.128 E.01308
G1 X176.442 Y133.893 E.01237
G1 X176.808 Y133.748 E.01234
G1 X177.16 Y133.707 E.01111
G1 X177.59 Y133.761 E.01359
G1 X177.952 Y133.918 E.01237
G1 X178.261 Y134.163 E.01236
G1 X178.496 Y134.48 E.01237
G1 X178.641 Y134.846 E.01234
