; generated by PrusaSlicer 2.9.3 on 2025-10-24 at 04:44:52 UTC


;
;
; 

; external perimeters extrusion width = 0.45mm
; perimeters extrusion width = 0.45mm
; infill extrusion width = 0.45mm
; solid infill extrusion width = 0.45mm
; top infill extrusion width = 0.40mm
; first layer extrusion width = 0.42mm

M73 P0 R156
M73 Q0 S157
M201 X1000 Y1000 Z200 E5000 ; sets maximum accelerations, mm/sec^2
M203 X200 Y200 Z12 E120 ; sets maximum feedrates, mm / sec
M204 S1250 T1250 ; sets acceleration (S) and retract acceleration (R), mm/sec^2
M205 X8.00 Y8.00 Z0.40 E4.50 ; sets the jerk limits, mm/sec
M205 S0 T0 ; sets the minimum extruding and travel feed rate, mm/sec

; printing object sofle_pico_keyplate_notched_RH_no_tenting_puck.stl id:0 copy 0
; stop printing object sofle_pico_keyplate_notched_RH_no_tenting_puck.stl id:0 copy 0

;TYPE:Custom
M862.3 P "MK3S" ; printer model check
M862.1 P0.4 ; nozzle diameter check
M115 U3.14.1 ; tell printer latest fw version
G90 ; use absolute coordinates
M83 ; extruder relative mode
M104 S215 ; set extruder temp
M140 S60 ; set bed temp
M190 S60 ; wait for bed temp
M109 S215 ; wait for extruder temp
G28 W ; home all without mesh bed level
G80 X49.9127 Y44.4812 W150.175 H121.044 ; mesh bed levelling

G1 Z0.2 F720
G1 Y-3 F1000 ; go outside print area
G92 E0
G1 X60 E9 F1000 ; intro line
G1 X100 E12.5 F1000 ; intro line
M73 P0 R155

G92 E0
M221 S95

; Don't change E values below. Excessive value can damage the printer.
M907 E430 ; set extruder motor current
G21 ; set units to millimeters
G90 ; use absolute coordinates
M83 ; use relative distances for extrusion

M900 K0.05 ; Filament gcode LA 1.5
M900 K30 ; Filament gcode LA 1.0




M107
;LAYER_CHANGE
;Z:0.2
;HEIGHT:0.2
G1 E-.8 F2100
G1 Z.6 F720
G1 X61.44 Y46.461 F10800
G1 Z.2 F720
G1 E.8 F2100
M204 S800
;TYPE:Skirt/Brim
;WIDTH:0.42
G1 F1200
G1 X61.948 Y45.796 E.02624
G1 X62.888 Y45.09 E.03686
G1 X63.353 Y44.886 E.01592
G1 X64.157 Y44.695 E.02591
G1 X64.994 Y44.689 E.02624
G1 X158.47 Y60.24 E2.97116
G1 X197.562 Y74.618 E1.30598
M73 Q0 S156
G1 X198.608 Y75.254 E.03838
G1 X199.188 Y75.882 E.0268
G1 X199.607 Y76.627 E.0268
G1 X199.844 Y77.449 E.02682
G1 X199.899 Y78.049 E.01889
G1 X199.899 Y154.248 E2.38917
G1 X199.711 Y155.39 E.03629
G1 X199.127 Y156.5 E.03933
G1 X198.5 Y157.137 E.02802
G1 X198.064 Y157.436 E.01658
G1 X197.244 Y157.791 E.02802
G1 X196.654 Y157.92 E.01894
G1 X139.341 Y165.319 E1.81192
G1 X80.899 Y165.337 E1.83241
G1 X79.803 Y165.136 E.03494
G1 X78.86 Y164.592 E.03413
G1 X78.456 Y164.188 E.01791
G1 X78.031 Y163.533 E.02448
G1 X50.422 Y101.061 E2.14153
G1 X50.12 Y99.962 E.03574
G1 X50.101 Y69.594 E.95217
G1 X50.228 Y68.62 E.0308
G1 X50.503 Y67.893 E.02437
G1 X61.412 Y46.514 E.75255
M204 S1000
;WIPE_START
G1 F8640
G1 X61.44 Y46.461 E-.01384
G1 X61.948 Y45.796 E-.19323
G1 X62.888 Y45.09 E-.27145
G1 X63.353 Y44.886 E-.11725
G1 X64.157 Y44.695 E-.19081
G1 X64.215 Y44.695 E-.01342
;WIPE_END
G1 Z.6 F720
; printing object sofle_pico_keyplate_notched_RH_no_tenting_puck.stl id:0 copy 0
G1 X121.936 Y121.641 F10800
G1 Z.2 F720
G1 E.8 F2100
M204 S800
;TYPE:Perimeter
;WIDTH:0.419999
G1 F1200
G1 X121.866 Y121.589 E.00273
G1 X121.761 Y121.36 E.0079
G1 X121.749 Y120.281 E.03383
G1 X121.749 Y106.802 E.42262
G1 X121.78 Y106.619 E.00582
G1 X121.975 Y106.35 E.01042
G1 X122.265 Y106.239 E.00974
G1 X122.315 Y106.237 E.00157
G1 X136.757 Y106.237 E.45282
G1 X136.956 Y106.273 E.00634
G1 X137.21 Y106.463 E.00995
G1 X137.292 Y106.619 E.00553
G1 X137.323 Y106.802 E.00582
G1 X137.323 Y121.245 E.45285
G1 X137.249 Y121.524 E.00905
G1 X137.097 Y121.698 E.00724
G1 X136.956 Y121.775 E.00504
G1 X136.757 Y121.811 E.00634
G1 X122.315 Y121.811 E.45282
G1 X122.116 Y121.775 E.00634
G1 X121.984 Y121.677 E.00515
M204 S1000
G1 X122.212 Y121.383 F10800
M204 S800
;TYPE:External perimeter
G1 F1200
G1 X122.165 Y121.36 E.00164
G1 X122.126 Y121.245 E.00381
G1 X122.136 Y106.741 E.45476
G1 X122.248 Y106.626 E.00503
G1 X122.315 Y106.614 E.00213
G1 X136.757 Y106.614 E.45282
G1 X136.908 Y106.689 E.00529
G1 X136.946 Y106.802 E.00374
G1 X136.946 Y121.245 E.45285
G1 X136.881 Y121.388 E.00493
G1 X136.757 Y121.434 E.00415
G1 X122.315 Y121.434 E.45282
G1 X122.266 Y121.409 E.00172
M204 S1000
;WIPE_START
G1 F8640
G1 X122.212 Y121.383 E-.01384
G1 X122.165 Y121.36 E-.01208
G1 X122.126 Y121.245 E-.02804
G1 X122.128 Y118.014 E-.74604
;WIPE_END
G1 Z.6 F720
G1 X118.101 Y138.173 F10800
G1 Z.2 F720
G1 E.8 F2100
M204 S800
;TYPE:Perimeter
G1 F1200
G1 X118.047 Y138.247 E.00287
G1 X117.906 Y138.325 E.00505
G1 X117.708 Y138.361 E.00631
G1 X103.265 Y138.361 E.45285
G1 X102.99 Y138.29 E.00891
G1 X102.793 Y138.108 E.00841
;WIDTH:0.452229
G1 X102.73 Y137.964 E.00535
;WIDTH:0.484458
G1 X102.667 Y137.82 E.00577
;WIDTH:0.499482
G1 X102.659 Y137.162 E.02498
G1 X102.679 Y136.879 E.01077
;WIDTH:0.459741
G1 X102.699 Y136.595 E.00987
;WIDTH:0.419999
G1 X102.699 Y123.352 E.41522
G1 X102.73 Y123.169 E.00582
G1 X102.925 Y122.9 E.01042
G1 X103.215 Y122.789 E.00974
G1 X103.265 Y122.786 E.00157
G1 X117.708 Y122.786 E.45285
G1 X117.906 Y122.822 E.00631
G1 X118.157 Y123.008 E.0098
G1 X118.261 Y123.237 E.00789
G1 X118.273 Y137.795 E.45646
G1 X118.243 Y137.978 E.00581
G1 X118.137 Y138.124 E.00566
M204 S1000
G1 X117.845 Y137.898 F10800
M204 S800
;TYPE:External perimeter
G1 F1200
G1 X117.821 Y137.946 E.00168
G1 X117.708 Y137.983 E.00373
G1 X103.265 Y137.983 E.45285
G1 X103.15 Y137.944 E.00381
G1 X103.076 Y137.795 E.00522
G1 X103.076 Y123.352 E.45285
G1 X103.151 Y123.201 E.00529
G1 X103.265 Y123.164 E.00376
G1 X117.708 Y123.164 E.45285
G1 X117.857 Y123.237 E.0052
G1 X117.892 Y123.314 E.00265
G1 X117.896 Y137.795 E.45404
G1 X117.871 Y137.844 E.00172
M204 S1000
;WIPE_START
G1 F8640
G1 X117.845 Y137.898 E-.01384
G1 X117.821 Y137.946 E-.01239
G1 X117.708 Y137.983 E-.02746
G1 X114.476 Y137.983 E-.74631
;WIPE_END
G1 Z.6 F720
G1 X99.051 Y116.623 F10800
G1 Z.2 F720
G1 E.8 F2100
M204 S800
;TYPE:Perimeter
G1 F1200
G1 X98.997 Y116.698 E.0029
G1 X98.856 Y116.775 E.00504
G1 X98.658 Y116.811 E.00631
G1 X84.215 Y116.811 E.45285
G1 X83.921 Y116.728 E.00958
G1 X83.789 Y116.617 E.00541
G1 X83.658 Y116.343 E.00952
G1 X83.649 Y116.245 E.00309
G1 X83.649 Y101.802 E.45285
G1 X83.728 Y101.514 E.00936
G1 X83.902 Y101.331 E.00792
G1 X84.215 Y101.237 E.01025
G1 X98.658 Y101.237 E.45285
G1 X98.945 Y101.329 E.00945
;WIDTH:0.406312
G1 X99.133 Y101.508 E.00784
;WIDTH:0.419999
G1 X99.223 Y101.802 E.00964
G1 X99.223 Y116.245 E.45285
G1 X99.193 Y116.428 E.00581
G1 X99.087 Y116.574 E.00566
M204 S1000
G1 X98.795 Y116.348 F10800
M204 S800
;TYPE:External perimeter
G1 F1200
G1 X98.771 Y116.396 E.00168
G1 X98.658 Y116.434 E.00374
G1 X84.215 Y116.434 E.45285
G1 X84.073 Y116.369 E.0049
G1 X84.026 Y116.245 E.00416
G1 X84.026 Y101.802 E.45285
G1 X84.09 Y101.661 E.00486
G1 X84.215 Y101.614 E.00419
G1 X98.658 Y101.614 E.45285
G1 X98.796 Y101.675 E.00473
G1 X98.846 Y101.802 E.00428
G1 X98.846 Y116.245 E.45285
G1 X98.822 Y116.294 E.00171
M204 S1000
;WIPE_START
G1 F8640
G1 X98.795 Y116.348 E-.01394
G1 X98.771 Y116.396 E-.01239
G1 X98.658 Y116.434 E-.02753
G1 X95.427 Y116.434 E-.74614
;WIPE_END
G1 Z.6 F720
G1 X118.101 Y119.123 F10800
G1 Z.2 F720
G1 E.8 F2100
M204 S800
;TYPE:Perimeter
G1 F1200
G1 X118.047 Y119.198 E.0029
G1 X117.906 Y119.275 E.00504
G1 X117.708 Y119.311 E.00631
G1 X103.265 Y119.311 E.45285
G1 X103.066 Y119.275 E.00634
G1 X102.816 Y119.089 E.00977
G1 X102.711 Y118.86 E.0079
G1 X102.699 Y117.781 E.03383
G1 X102.699 Y104.302 E.42262
G1 X102.781 Y104.009 E.00954
G1 X102.947 Y103.834 E.00756
G1 X103.098 Y103.762 E.00525
G1 X103.265 Y103.737 E.00529
G1 X117.708 Y103.737 E.45285
G1 X117.906 Y103.773 E.00631
G1 X118.157 Y103.958 E.00978
G1 X118.261 Y104.188 E.00791
G1 X118.273 Y105.267 E.03383
G1 X118.273 Y118.745 E.42259
G1 X118.243 Y118.928 E.00581
G1 X118.137 Y119.074 E.00566
M204 S1000
G1 X117.845 Y118.848 F10800
M204 S800
;TYPE:External perimeter
G1 F1200
G1 X117.821 Y118.896 E.00168
G1 X117.708 Y118.934 E.00374
G1 X103.265 Y118.934 E.45285
G1 X103.115 Y118.86 E.00524
G1 X103.076 Y118.745 E.00381
G1 X103.076 Y104.302 E.45285
G1 X103.151 Y104.152 E.00526
G1 X103.209 Y104.122 E.00205
G1 X117.708 Y104.114 E.45461
G1 X117.857 Y104.188 E.00522
G1 X117.896 Y104.302 E.00378
G1 X117.896 Y118.745 E.45285
G1 X117.871 Y118.794 E.00172
M204 S1000
;WIPE_START
G1 F8640
G1 X117.845 Y118.848 E-.01384
G1 X117.821 Y118.896 E-.01239
G1 X117.708 Y118.934 E-.02753
G1 X114.476 Y118.934 E-.74624
;WIPE_END
G1 Z.6 F720
G1 X102.301 Y99.664 F10800
G1 Z.2 F720
G1 E.8 F2100
M204 S800
;TYPE:Perimeter
;WIDTH:0.45434
G1 F1200
G1 X102.306 Y99.738 E.00254
;WIDTH:0.430983
G1 X102.217 Y100.223 E.01591
;WIDTH:0.419999
G1 X102.011 Y100.67 E.01543
G1 X101.801 Y100.944 E.01082
G1 X101.36 Y101.3 E.01777
G1 X100.832 Y101.503 E.01774
G1 X100.342 Y101.548 E.01543
G1 X99.857 Y101.465 E.01543
G1 X99.414 Y101.253 E.0154
;WIDTH:0.407697
G1 X99.036 Y100.94 E.01489
;WIDTH:0.419999
G1 X98.747 Y100.542 E.01542
G1 X98.577 Y100.08 E.01544
G1 X98.532 Y99.59 E.01543
G1 X98.615 Y99.105 E.01543
G1 X98.821 Y98.658 E.01543
;WIDTH:0.457126
G1 X98.967 Y98.454 E.00864
;WIDTH:0.494253
G1 X99.113 Y98.25 E.00941
;WIDTH:0.525522
G1 X99.378 Y98.027 E.0139
G1 X99.538 Y97.972 E.00679
;WIDTH:0.490348
G1 X99.697 Y97.918 E.00625
;WIDTH:0.455174
G1 X99.857 Y97.863 E.0058
;WIDTH:0.419999
G1 X100.306 Y97.784 E.01429
G1 X100.818 Y97.823 E.0161
G1 X101.294 Y97.995 E.01587
G1 X101.696 Y98.279 E.01543
G1 X102.011 Y98.658 E.01545
;WIDTH:0.45434
G1 X102.272 Y99.245 E.02198
G1 X102.297 Y99.604 E.01231
M204 S1000
G1 X101.924 Y99.663 F10800
M204 S800
;TYPE:External perimeter
;WIDTH:0.419999
G1 F1200
G1 X101.926 Y99.688 E.00079
G1 X101.869 Y100.078 E.01236
G1 X101.712 Y100.44 E.01237
G1 X101.501 Y100.714 E.01084
G1 X101.15 Y100.984 E.01388
G1 X100.774 Y101.13 E.01265
G1 X100.391 Y101.174 E.01209
G1 X99.922 Y101.083 E.01498
G1 X99.64 Y100.959 E.00966
G1 X99.331 Y100.714 E.01236
G1 X99.096 Y100.398 E.01235
G1 X98.951 Y100.031 E.01237
G1 X98.906 Y99.639 E.01237
G1 X98.964 Y99.249 E.01236
G1 X99.12 Y98.887 E.01236
G1 X99.366 Y98.578 E.01238
G1 X99.682 Y98.343 E.01235
G1 X100.049 Y98.199 E.01236
G1 X100.4 Y98.158 E.01108
G1 X100.83 Y98.211 E.01358
G1 X101.193 Y98.368 E.0124
G1 X101.501 Y98.613 E.01234
G1 X101.736 Y98.93 E.01237
G1 X101.881 Y99.297 E.01237
G1 X101.917 Y99.604 E.00969
M204 S1000
;WIPE_START
G1 F8640
G1 X101.924 Y99.663 E-.01372
G1 X101.926 Y99.688 E-.00579
G1 X101.869 Y100.078 E-.09101
G1 X101.712 Y100.44 E-.09111
G1 X101.501 Y100.714 E-.07985
G1 X101.15 Y100.984 E-.10225
G1 X100.774 Y101.13 E-.09313
G1 X100.391 Y101.174 E-.08902
G1 X99.922 Y101.083 E-.11031
G1 X99.64 Y100.959 E-.07113
G1 X99.461 Y100.817 E-.05268
;WIPE_END
G1 Z.6 F720
G1 X118.101 Y100.073 F10800
G1 Z.2 F720
G1 E.8 F2100
M204 S800
;TYPE:Perimeter
G1 F1200
G1 X118.047 Y100.148 E.0029
G1 X117.906 Y100.225 E.00504
G1 X117.708 Y100.261 E.00631
G1 X103.265 Y100.261 E.45285
G1 X103.009 Y100.2 E.00825
;WIDTH:0.420809
G1 X102.774 Y99.977 E.01018
;WIDTH:0.431493
G1 X102.695 Y99.733 E.00829
;WIDTH:0.45434
G1 X102.682 Y99.218 E.01762
G1 X102.699 Y98.663 E.019
;WIDTH:0.419999
G1 X102.699 Y85.252 E.42049
G1 X102.73 Y85.069 E.00582
G1 X102.925 Y84.8 E.01042
G1 X103.215 Y84.689 E.00974
G1 X103.265 Y84.687 E.00157
G1 X117.708 Y84.687 E.45285
G1 X117.906 Y84.723 E.00631
G1 X118.157 Y84.908 E.00978
G1 X118.261 Y85.138 E.00791
G1 X118.273 Y86.217 E.03383
G1 X118.273 Y99.695 E.42259
G1 X118.243 Y99.879 E.00585
G1 X118.137 Y100.024 E.00563
M204 S1000
G1 X117.845 Y99.798 F10800
M204 S800
;TYPE:External perimeter
G1 F1200
G1 X117.821 Y99.846 E.00168
G1 X117.708 Y99.884 E.00374
G1 X103.265 Y99.884 E.45285
G1 X103.131 Y99.828 E.00455
M73 P0 R154
G1 X103.076 Y99.708 E.00414
G1 X103.076 Y85.252 E.45326
G1 X103.151 Y85.102 E.00526
G1 X103.265 Y85.064 E.00377
G1 X117.708 Y85.064 E.45285
G1 X117.857 Y85.138 E.00522
G1 X117.896 Y85.252 E.00378
G1 X117.896 Y99.695 E.45285
G1 X117.871 Y99.744 E.00172
M204 S1000
;WIPE_START
G1 F8640
G1 X117.845 Y99.798 E-.01384
G1 X117.821 Y99.846 E-.01239
G1 X117.708 Y99.884 E-.02753
G1 X114.476 Y99.884 E-.74624
;WIPE_END
G1 Z.6 F720
G1 X99.093 Y97.599 F10800
G1 Z.2 F720
G1 E.8 F2100
M204 S800
;TYPE:Perimeter
;WIDTH:0.494184
G1 F1200
G1 X99.092 Y97.601 E.00008
;WIDTH:0.524286
G1 X99.034 Y97.685 E.00409
G1 X98.853 Y97.765 E.00792
;WIDTH:0.494253
G1 X98.458 Y97.763 E.01482
;WIDTH:0.457126
G1 X98.063 Y97.761 E.0136
;WIDTH:0.419999
G1 X84.215 Y97.761 E.43419
G1 X83.986 Y97.713 E.00734
G1 X83.819 Y97.6 E.00632
G1 X83.671 Y97.351 E.00908
G1 X83.649 Y97.195 E.00494
G1 X83.649 Y85.115 E.37876
G1 X83.649 Y82.752 E.07409
G1 X83.714 Y82.489 E.00849
G1 X83.849 Y82.321 E.00676
G1 X84.108 Y82.197 E.009
G1 X98.658 Y82.187 E.4562
G1 X98.896 Y82.239 E.00764
M73 Q0 S155
G1 X99.107 Y82.408 E.00848
G1 X99.211 Y82.638 E.00791
G1 X99.223 Y97.195 E.45642
;WIDTH:0.464081
G1 X99.15 Y97.517 E.01156
;WIDTH:0.494184
G1 X99.127 Y97.55 E.00151
M204 S1000
G1 X98.795 Y97.298 F10800
M204 S800
;TYPE:External perimeter
;WIDTH:0.419999
G1 F1200
G1 X98.772 Y97.345 E.00164
G1 X98.658 Y97.384 E.00378
G1 X84.215 Y97.384 E.45285
G1 X84.083 Y97.33 E.00447
G1 X84.026 Y97.195 E.00459
G1 X84.026 Y85.115 E.37876
G1 X84.026 Y82.752 E.07409
G1 X84.093 Y82.609 E.00495
G1 X84.215 Y82.564 E.00408
G1 X98.658 Y82.564 E.45285
G1 X98.807 Y82.638 E.00522
G1 X98.846 Y82.752 E.00378
G1 X98.846 Y97.195 E.45285
G1 X98.822 Y97.244 E.00171
M204 S1000
;WIPE_START
G1 F8640
G1 X98.795 Y97.298 E-.01394
G1 X98.772 Y97.345 E-.01208
G1 X98.658 Y97.384 E-.02782
G1 X95.426 Y97.384 E-.74616
;WIPE_END
G1 Z.6 F720
G1 X62.971 Y99.439 F10800
G1 Z.2 F720
G1 E.8 F2100
M204 S800
G1 F1200
G1 X62.876 Y99.345 E.00419
G1 X62.876 Y85.902 E.4215
G1 X62.945 Y85.757 E.00503
G1 X63.065 Y85.714 E.004
G1 X79.12 Y85.714 E.50339
G1 X79.263 Y85.796 E.00517
G1 X79.296 Y85.902 E.00348
G1 X79.296 Y99.345 E.4215
G1 X79.225 Y99.492 E.00512
G1 X79.108 Y99.534 E.0039
G1 X63.065 Y99.534 E.50302
G1 X63.013 Y99.482 E.00231
M204 S1000
;WIPE_START
G1 F8640
G1 X62.971 Y99.439 E-.01388
G1 X62.876 Y99.345 E-.03086
G1 X62.876 Y96.074 E-.75526
;WIPE_END
G1 Z.6 F720
G1 X76.1 Y77.531 F10800
G1 Z.2 F720
G1 E.8 F2100
M204 S800
;TYPE:Perimeter
G1 F1200
G1 X76.062 Y77.612 E.00281
G1 X75.756 Y77.978 E.01496
G1 X75.354 Y78.263 E.01545
G1 X74.893 Y78.433 E.01541
G1 X74.402 Y78.478 E.01546
G1 X73.917 Y78.395 E.01543
G1 X73.47 Y78.189 E.01543
G1 X73.092 Y77.874 E.01543
G1 X72.808 Y77.472 E.01543
G1 X72.637 Y77.01 E.01545
G1 X72.592 Y76.52 E.01543
G1 X72.675 Y76.035 E.01543
G1 X72.881 Y75.588 E.01543
G1 X73.196 Y75.209 E.01545
G1 X73.598 Y74.925 E.01543
G1 X74.06 Y74.755 E.01544
G1 X74.5 Y74.713 E.01386
G1 X75 Y74.78 E.01582
G1 X75.466 Y74.987 E.01599
G1 X75.861 Y75.314 E.01608
G1 X76.144 Y75.715 E.01539
G1 X76.315 Y76.178 E.01548
G1 X76.36 Y76.668 E.01543
G1 X76.277 Y77.153 E.01543
G1 X76.125 Y77.477 E.01122
M204 S1000
G1 X75.779 Y77.346 F10800
M204 S800
;TYPE:External perimeter
G1 F1200
G1 X75.763 Y77.382 E.00124
G1 X75.527 Y77.679 E.01189
G1 X75.21 Y77.914 E.01237
G1 X74.843 Y78.059 E.01237
G1 X74.452 Y78.104 E.01234
G1 X74.062 Y78.046 E.01236
G1 X73.7 Y77.89 E.01236
G1 X73.391 Y77.644 E.01238
G1 X73.156 Y77.328 E.01235
G1 X73.011 Y76.961 E.01237
G1 X72.966 Y76.569 E.01237
G1 X73.024 Y76.179 E.01236
G1 X73.181 Y75.817 E.01237
G1 X73.426 Y75.509 E.01234
G1 X73.742 Y75.274 E.01235
G1 X74.109 Y75.129 E.01237
G1 X74.46 Y75.088 E.01108
G1 X74.891 Y75.141 E.01362
G1 X75.253 Y75.298 E.01237
G1 X75.562 Y75.543 E.01236
G1 X75.796 Y75.86 E.01235
G1 X75.941 Y76.227 E.01237
G1 X75.987 Y76.618 E.01234
G1 X75.929 Y77.009 E.01239
G1 X75.803 Y77.291 E.00968
M204 S1000
;WIPE_START
G1 F8640
G1 X75.779 Y77.346 E-.01386
G1 X75.763 Y77.382 E-.0091
G1 X75.527 Y77.679 E-.08759
G1 X75.21 Y77.914 E-.09112
G1 X74.843 Y78.059 E-.09112
G1 X74.452 Y78.104 E-.09088
G1 X74.062 Y78.046 E-.09104
G1 X73.7 Y77.89 E-.09102
G1 X73.391 Y77.644 E-.0912
G1 X73.156 Y77.328 E-.09093
G1 X73.073 Y77.118 E-.05214
;WIPE_END
G1 Z.6 F720
G1 X97.827 Y63.353 F10800
G1 Z.2 F720
G1 E.8 F2100
M204 S800
;TYPE:Perimeter
G1 F1200
G1 X97.894 Y63.564 E.00694
G1 X97.877 Y63.764 E.00629
G1 X94.139 Y77.715 E.45285
