; generated by PrusaSlicer 2.9.3 on 2025-10-25 at 17:19:32 UTC


;
;
; 

; external perimeters extrusion width = 0.60mm
; perimeters extrusion width = 0.50mm
; infill extrusion width = 0.50mm
; solid infill extrusion width = 0.50mm
; top infill extrusion width = 0.45mm
; support material extrusion width = 0.38mm
; first layer extrusion width = 0.42mm

M73 P0 R31
M73 Q0 S31
M201 X1000 Y1000 Z200 E5000 ; sets maximum accelerations, mm/sec^2
M203 X200 Y200 Z12 E120 ; sets maximum feedrates, mm / sec
M204 S1250 T1250 ; sets acceleration (S) and retract acceleration (R), mm/sec^2
M205 X8.00 Y8.00 Z0.40 E4.50 ; sets the jerk limits, mm/sec
M205 S0 T0 ; sets the minimum extruding and travel feed rate, mm/sec

; printing object sofle_pico_cirque_mount_40mm.stl id:0 copy 0
; stop printing object sofle_pico_cirque_mount_40mm.stl id:0 copy 0

;TYPE:Custom
M862.3 P "MK3S" ; printer model check
M862.1 P0.4 ; nozzle diameter check
M115 U3.14.1 ; tell printer latest fw version
G90 ; use absolute coordinates
M83 ; extruder relative mode
M104 S215 ; set extruder temp
M140 S60 ; set bed temp
M190 S60 ; wait for bed temp
M109 S215 ; wait for extruder temp
G28 W ; home all without mesh bed level
G80 X89.5979 Y55.6726 W70.9105 H97.2531 ; mesh bed levelling

G1 Z0.2 F720
G1 Y-3 F1000 ; go outside print area
G92 E0
G1 X60 E9 F1000 ; intro line
G1 X100 E12.5 F1000 ; intro line

G92 E0
M221 S95

; Don't change E values below. Excessive value can damage the printer.

M907 E538 ; set extruder motor current
G21 ; set units to millimeters
G90 ; use absolute coordinates
M83 ; use relative distances for extrusion

M900 K0.05 ; Filament gcode LA 1.5
M900 K30 ; Filament gcode LA 1.0




M107
;LAYER_CHANGE
;Z:0.2
;HEIGHT:0.2
G1 E-.8 F2100
G1 Z.6 F720
G1 X106.343 Y62.112 F10800
G1 Z.2 F720
G1 E.8 F2100
M204 S800
;TYPE:Skirt/Brim
;WIDTH:0.42
G1 F1200
G1 X107.138 Y60.779 E.04866
G1 X108.187 Y59.537 E.05097
G1 X109.226 Y58.637 E.0431
G1 X110.604 Y57.775 E.05096
G1 X112.107 Y57.156 E.05097
G1 X113.62 Y56.807 E.04868
G1 X131.844 Y55.862 E.57217
G1 X133.017 Y55.943 E.03687
G1 X134.293 Y56.197 E.04079
G1 X135.523 Y56.621 E.04079
G1 X136.685 Y57.205 E.04078
G1 X156.31 Y70.463 E.74258
G1 X157.542 Y71.523 E.05096
G1 X158.58 Y72.774 E.05097
G1 X159.395 Y74.181 E.05098
G1 X159.962 Y75.705 E.05098
G1 X160.267 Y77.302 E.05098
G1 X160.296 Y78.99 E.05293
G1 X155.537 Y138.604 E1.8751
G1 X155.185 Y139.749 E.03756
M73 P0 R30
G1 X154.968 Y140.19 E.01541
G1 X154.275 Y141.167 E.03756
G1 X153.382 Y141.964 E.03753
G1 X152.333 Y142.542 E.03755
G1 X119.937 Y152.401 E1.06175
G1 X118.983 Y152.608 E.03061
G1 X117.94 Y152.723 E.0329
G1 X116.964 Y152.727 E.0306
G1 X115.743 Y152.593 E.03851
G1 X114.102 Y152.156 E.05325
G1 X112.408 Y151.348 E.05885
G1 X111.035 Y150.347 E.05328
G1 X109.748 Y148.981 E.05885
G1 X94.864 Y129.412 E.77088
G1 X90.018 Y119.804 E.3374
G1 X89.786 Y118.825 E.03155
G1 X89.786 Y99.036 E.62047
G1 X89.899 Y98.344 E.02198
G1 X92.32 Y91.137 E.23838
M73 Q1 S31
G1 X106.317 Y62.166 E1.00883
M73 P1 R30
M204 S1000
;WIPE_START
G1 F8640
G1 X106.343 Y62.112 E-.01384
G1 X107.138 Y60.779 E-.35838
G1 X108.187 Y59.537 E-.37538
G1 X108.359 Y59.388 E-.0524
;WIPE_END
G1 Z.6 F720
; printing object sofle_pico_cirque_mount_40mm.stl id:0 copy 0
G1 X119.148 Y87.255 F10800
G1 Z.2 F720
G1 E.8 F2100
M204 S800
;TYPE:Support material
G1 F1200
G1 X119.508 Y87.593 E.01548
G1 X121.455 Y87.527 E.06108
G1 X122.8 Y87.579 E.0422
G1 X124.578 Y87.774 E.05608
G1 X126.035 Y88.044 E.04646
G1 X127.522 Y88.425 E.04813
G1 X129.993 Y89.311 E.08231
G1 X131.982 Y90.279 E.06936
G1 X134.142 Y91.634 E.07995
G1 X136.343 Y93.417 E.08881
G1 X138.303 Y95.465 E.08888
G1 X139.263 Y96.69 E.0488
G1 X140.124 Y97.959 E.04808
G1 X140.895 Y99.284 E.04807
G1 X141.579 Y100.669 E.04843
G1 X142.167 Y102.098 E.04845
G1 X142.663 Y103.596 E.04948
G1 X143.04 Y105.059 E.04737
G1 X143.322 Y106.578 E.04844
G1 X143.499 Y108.113 E.04845
G1 X143.57 Y109.657 E.04846
G1 X143.533 Y111.236 E.04952
G1 X143.394 Y112.741 E.04739
G1 X143.147 Y114.266 E.04844
G1 X142.787 Y115.803 E.0495
G1 X142.344 Y117.247 E.04736
G1 X141.79 Y118.689 E.04843
G1 X141.139 Y120.089 E.04841
G1 X140.375 Y121.47 E.04948
G1 X139.556 Y122.738 E.04733
G1 X138.632 Y123.974 E.04839
G1 X137.625 Y125.142 E.04835
G1 X136.516 Y126.261 E.0494
G1 X135.383 Y127.257 E.0473
G1 X134.159 Y128.193 E.04831
G1 X132.873 Y129.042 E.04832
G1 X131.502 Y129.815 E.04935
G1 X130.142 Y130.464 E.04725
G1 X128.71 Y131.029 E.04827
G1 X127.242 Y131.495 E.04829
G1 X125.746 Y131.857 E.04826
G1 X123.447 Y132.206 E.07291
G1 X121.525 Y132.312 E.06035
G1 X119.493 Y132.245 E.06375
G1 X119.132 Y132.583 E.01551
G1 X119.131 Y135.166 E.08099
G1 X118.157 Y135.014 E.03091
G1 X117.335 Y134.979 E.0258
G1 X116.263 Y135.06 E.03371
G1 X115.456 Y135.218 E.02578
G1 X114.424 Y135.55 E.03399
G1 X113.447 Y136.018 E.03397
G1 X112.54 Y136.612 E.03399
G1 X111.694 Y137.35 E.0352
G1 X110.5 Y137.35 E.03744
G1 X110.5 Y135.034 E.07262
G1 X103.553 Y135.034 E.21782
G1 X103.553 Y132.719 E.07259
G1 X101.237 Y132.719 E.07262
G1 X101.237 Y130.403 E.07262
G1 X98.922 Y130.403 E.07259
G1 X98.922 Y128.087 E.07262
G1 X96.606 Y128.087 E.07262
G1 X96.606 Y123.456 E.1452
G1 X94.291 Y123.456 E.07259
G1 X94.291 Y118.825 E.1452
G1 X91.975 Y118.825 E.07262
G1 X91.975 Y99.036 E.62047
G1 X94.291 Y99.036 E.07262
M73 Q1 S30
G1 X94.291 Y92.089 E.21782
G1 X96.606 Y92.089 E.07259
G1 X96.606 Y89.773 E.07262
G1 X98.922 Y89.773 E.07262
G1 X98.922 Y87.458 E.07259
G1 X101.237 Y87.458 E.07259
G1 X101.237 Y85.142 E.07262
G1 X103.553 Y85.142 E.07262
G1 X103.553 Y82.826 E.07262
G1 X110.5 Y82.826 E.21782
G1 X110.5 Y80.511 E.07259
G1 X119.151 Y80.511 E.27125
G1 X119.148 Y87.199 E.2097
M204 S1000
G1 X116.395 Y93.353 F10800
M204 S800
G1 F1200
G1 X124.394 Y93.353 E.2508
G1 X124.394 Y95.669 E.07262
G1 X129.025 Y95.669 E.1452
G1 X129.025 Y97.984 E.07259
G1 X131.341 Y97.984 E.07262
G1 X131.341 Y100.3 E.07262
G1 X133.656 Y100.3 E.07259
G1 X133.656 Y102.616 E.07262
G1 X135.972 Y102.616 E.07262
G1 X135.972 Y115.245 E.39597
G1 X133.656 Y115.245 E.07262
G1 X133.656 Y117.561 E.07262
G1 X131.341 Y117.561 E.07259
G1 X131.341 Y119.876 E.07259
G1 X129.025 Y119.876 E.07262
G1 X129.025 Y122.192 E.07262
G1 X124.394 Y122.192 E.1452
G1 X124.394 Y124.508 E.07262
G1 X116.395 Y124.508 E.2508
G1 X116.395 Y122.192 E.07262
G1 X111.764 Y122.192 E.1452
G1 X111.764 Y119.876 E.07262
G1 X109.449 Y119.876 E.07259
G1 X109.449 Y117.561 E.07259
G1 X107.133 Y117.561 E.07262
G1 X107.133 Y112.93 E.1452
G1 X104.817 Y112.93 E.07262
G1 X104.817 Y104.931 E.2508
G1 X107.133 Y104.931 E.07262
G1 X107.133 Y100.3 E.1452
G1 X109.449 Y100.3 E.07262
G1 X109.449 Y97.984 E.07262
G1 X111.764 Y97.984 E.07259
M73 P2 R30
G1 X111.764 Y95.669 E.07259
M73 Q2 S30
G1 X116.395 Y95.669 E.1452
G1 X116.395 Y93.41 E.07083
M204 S1000
;WIPE_START
G1 F8640
G1 X116.395 Y95.669 E-.52161
G1 X115.189 Y95.669 E-.27839
;WIPE_END
G1 Z.6 F720
G1 X142.844 Y114.824 F10800
G1 Z.2 F720
G1 E.8 F2100
M204 S800
G1 F1200
G1 X142.844 Y105.859 E.28109
G1 X142.425 Y104.03 E.05883
G1 X142.425 Y115.829 E.36995
G1 X142.006 Y117.183 E.04444
G1 X142.006 Y102.687 E.45451
G1 X141.587 Y101.578 E.03717
G1 X141.587 Y118.273 E.52346
G1 X141.168 Y119.223 E.03256
G1 X141.168 Y100.601 E.58388
G1 X140.749 Y99.752 E.02969
G1 X140.749 Y120.095 E.63784
G1 X140.33 Y120.854 E.02718
G1 X140.33 Y98.987 E.68562
G1 X139.911 Y98.267 E.02612
G1 X139.911 Y121.563 E.73043
G1 X139.492 Y122.212 E.02422
G1 X139.492 Y97.632 E.77069
G1 X139.073 Y97.014 E.02341
G1 X139.073 Y122.818 E.80907
G1 X138.654 Y123.378 E.02193
G1 X138.654 Y96.462 E.84393
G1 X138.235 Y95.928 E.02128
G1 X138.235 Y123.915 E.87751
G1 X137.816 Y124.401 E.02012
G1 X137.816 Y95.431 E.90833
G1 X137.397 Y94.964 E.01967
G1 X137.397 Y124.888 E.93825
G1 X136.978 Y125.315 E.01876
G1 X136.978 Y94.514 E.96574
G1 X136.559 Y94.103 E.0184
G1 X136.559 Y125.738 E.99189
G1 X136.14 Y126.14 E.01821
M73 P3 R30
M73 Q3 S30
G1 X136.14 Y115.585 E.33094
G1 X135.721 Y115.585 E.01314
G1 X135.721 Y126.508 E.34248
G1 X135.302 Y126.877 E.01751
G1 X135.302 Y115.585 E.35405
G1 X134.883 Y115.585 E.01314
G1 X134.883 Y127.213 E.36459
G1 X134.464 Y127.533 E.01653
G1 X134.464 Y115.585 E.37462
G1 X134.045 Y115.585 E.01314
G1 X134.045 Y127.853 E.38465
G1 X133.626 Y128.139 E.01591
G1 X133.626 Y117.9 E.32104
G1 X133.207 Y117.9 E.01314
G1 X133.207 Y128.415 E.32969
G1 X132.788 Y128.692 E.01575
G1 X132.788 Y117.9 E.33838
G1 X132.369 Y117.9 E.01314
G1 X132.369 Y128.938 E.34609
G1 X131.95 Y129.174 E.01508
G1 X131.95 Y117.9 E.35349
G1 X131.68 Y117.9 E.00847
G1 X131.68 Y120.216 E.07262
G1 X131.531 Y120.216 E.00467
G1 X131.531 Y129.411 E.2883
G1 X131.112 Y129.625 E.01475
G1 X131.112 Y120.216 E.29501
G1 X130.693 Y120.216 E.01314
G1 X130.693 Y129.825 E.30128
G1 X130.274 Y130.025 E.01456
G1 X130.274 Y120.216 E.30755
G1 X129.855 Y120.216 E.01314
G1 X129.855 Y130.212 E.31342
G1 X129.436 Y130.378 E.01413
G1 X129.436 Y120.216 E.31862
G1 X129.364 Y120.216 E.00226
G1 X129.364 Y122.531 E.07259
G1 X129.017 Y122.531 E.01088
G1 X129.017 Y130.543 E.25121
G1 X128.598 Y130.709 E.01413
G1 X128.598 Y122.531 E.25642
G1 X128.179 Y122.531 E.01314
G1 X128.179 Y130.842 E.26059
G1 X127.76 Y130.974 E.01377
G1 X127.76 Y122.531 E.26472
G1 X127.341 Y122.531 E.01314
G1 X127.341 Y131.107 E.26889
G1 X126.922 Y131.223 E.01363
G1 X126.922 Y122.531 E.27253
G1 X126.503 Y122.531 E.01314
G1 X126.503 Y131.324 E.2757
G1 X126.084 Y131.426 E.01352
G1 X126.084 Y122.531 E.2789
G1 X125.665 Y122.531 E.01314
G1 X125.665 Y131.526 E.28203
G1 X125.247 Y131.598 E.0133
G1 X125.247 Y122.531 E.28429
G1 X124.828 Y122.531 E.01314
G1 X124.828 Y131.669 E.28652
G1 X124.409 Y131.74 E.01332
G1 X124.409 Y124.847 E.21613
G1 X123.99 Y124.847 E.01314
M73 P3 R29
G1 X123.99 Y131.803 E.2181
G1 X123.571 Y131.852 E.01323
G1 X123.571 Y124.847 E.21964
G1 X123.152 Y124.847 E.01314
G1 X123.152 Y131.892 E.22089
G1 X122.733 Y131.925 E.01318
G1 X122.733 Y124.847 E.22193
G1 X122.314 Y124.847 E.01314
G1 X122.314 Y131.948 E.22265
G1 X121.895 Y131.964 E.01315
M73 P4 R29
M73 Q4 S30
G1 X121.895 Y124.847 E.22315
G1 X121.476 Y124.847 E.01314
G1 X121.476 Y131.973 E.22343
G1 X121.057 Y131.973 E.01314
G1 X121.057 Y124.847 E.22343
G1 X120.638 Y124.847 E.01314
G1 X120.638 Y131.965 E.22318
G1 X120.219 Y131.949 E.01315
G1 X120.219 Y124.847 E.22268
G1 X119.8 Y124.847 E.01314
G1 X119.8 Y131.925 E.22193
G1 X119.381 Y131.897 E.01317
G1 X119.381 Y124.847 E.22105
G1 X118.962 Y124.847 E.01314
G1 X118.962 Y132.277 E.23296
G1 X118.793 Y132.435 E.00725
G1 X118.792 Y134.755 E.07274
G1 X118.543 Y134.717 E.0079
G1 X118.543 Y124.847 E.30947
G1 X118.124 Y124.847 E.01314
G1 X118.124 Y134.671 E.30802
G1 X117.705 Y134.646 E.01316
G1 X117.705 Y124.847 E.30724
G1 X117.286 Y124.847 E.01314
G1 X117.286 Y134.641 E.30708
G1 X116.867 Y134.658 E.01315
G1 X116.867 Y124.847 E.30762
G1 X116.448 Y124.847 E.01314
G1 X116.448 Y134.695 E.30878
G1 X116.029 Y134.754 E.01327
G1 X116.029 Y122.531 E.38324
G1 X115.61 Y122.531 E.01314
G1 X115.61 Y134.834 E.38575
G1 X115.191 Y134.938 E.01354
G1 X115.191 Y122.531 E.38901
G1 X114.772 Y122.531 E.01314
G1 X114.772 Y135.064 E.39296
G1 X114.353 Y135.214 E.01395
G1 X114.353 Y122.531 E.39767
G1 X113.934 Y122.531 E.01314
G1 X113.934 Y135.391 E.40322
G1 X113.515 Y135.595 E.01461
G1 X113.515 Y122.531 E.40961
G1 X113.096 Y122.531 E.01314
G1 X113.096 Y135.829 E.41695
G1 X112.677 Y136.097 E.01559
G1 X112.677 Y122.531 E.42535
G1 X112.258 Y122.531 E.01314
G1 X112.258 Y136.401 E.43488
G1 X111.839 Y136.748 E.01706
M73 Q4 S29
G1 X111.839 Y122.531 E.44576
G1 X111.425 Y122.531 E.01298
G1 X111.42 Y120.216 E.07259
G1 X111.42 Y137.011 E.5266
G1 X111.001 Y137.011 E.01314
G1 X111.001 Y120.216 E.5266
G1 X110.582 Y120.216 E.01314
G1 X110.582 Y134.695 E.45398
G1 X110.163 Y134.695 E.01314
G1 X110.163 Y120.216 E.45398
G1 X109.744 Y120.216 E.01314
G1 X109.744 Y134.695 E.45398
G1 X109.325 Y134.695 E.01314
G1 X109.325 Y120.216 E.45398
G1 X109.109 Y120.216 E.00677
M73 P5 R29
M73 Q5 S29
G1 X109.109 Y117.9 E.07262
G1 X108.906 Y117.9 E.00636
G1 X108.906 Y134.695 E.5266
G1 X108.487 Y134.695 E.01314
G1 X108.487 Y117.9 E.5266
G1 X108.068 Y117.9 E.01314
G1 X108.068 Y134.695 E.5266
G1 X107.649 Y134.695 E.01314
G1 X107.649 Y117.9 E.5266
G1 X107.23 Y117.9 E.01314
G1 X107.23 Y134.695 E.5266
G1 X106.812 Y134.695 E.01311
G1 X106.794 Y113.269 E.6718
G1 X106.393 Y113.269 E.01257
G1 X106.393 Y134.695 E.6718
G1 X105.974 Y134.695 E.01314
G1 X105.974 Y113.269 E.6718
G1 X105.555 Y113.269 E.01314
G1 X105.555 Y134.695 E.6718
G1 X105.136 Y134.695 E.01314
G1 X105.136 Y113.269 E.6718
G1 X104.717 Y113.269 E.01314
G1 X104.717 Y134.695 E.6718
G1 X104.298 Y134.695 E.01314
G1 X104.298 Y83.166 E1.61566
G1 X104.717 Y83.166 E.01314
G1 X104.717 Y104.592 E.6718
G1 X105.136 Y104.592 E.01314
G1 X105.136 Y83.166 E.6718
G1 X105.555 Y83.166 E.01314
G1 X105.555 Y104.592 E.6718
G1 X105.974 Y104.592 E.01314
G1 X105.974 Y83.166 E.6718
G1 X106.393 Y83.166 E.01314
M73 P6 R29
G1 X106.393 Y104.592 E.6718
G1 X106.794 Y104.592 E.01257
M73 Q6 S29
G1 X106.812 Y83.166 E.6718
G1 X107.23 Y83.166 E.01311
G1 X107.23 Y99.961 E.5266
G1 X107.649 Y99.961 E.01314
G1 X107.649 Y83.166 E.5266
G1 X108.068 Y83.166 E.01314
G1 X108.068 Y99.961 E.5266
G1 X108.487 Y99.961 E.01314
G1 X108.487 Y83.166 E.5266
G1 X108.906 Y83.166 E.01314
G1 X108.906 Y99.961 E.5266
G1 X109.109 Y99.961 E.00636
G1 X109.109 Y97.645 E.07262
G1 X109.325 Y97.645 E.00677
G1 X109.325 Y83.166 E.45398
G1 X109.744 Y83.166 E.01314
G1 X109.744 Y97.645 E.45398
G1 X110.163 Y97.645 E.01314
G1 X110.163 Y83.166 E.45398
G1 X110.582 Y83.166 E.01314
G1 X110.582 Y97.645 E.45398
G1 X111.001 Y97.645 E.01314
G1 X111.001 Y80.85 E.5266
G1 X111.42 Y80.85 E.01314
G1 X111.42 Y97.645 E.5266
G1 X111.425 Y95.329 E.07262
G1 X111.839 Y95.329 E.01298
G1 X111.839 Y80.85 E.45398
G1 X112.258 Y80.85 E.01314
G1 X112.258 Y95.329 E.45398
G1 X112.677 Y95.329 E.01314
G1 X112.677 Y80.85 E.45398
G1 X113.096 Y80.85 E.01314
G1 X113.096 Y95.329 E.45398
G1 X113.515 Y95.329 E.01314
G1 X113.515 Y80.85 E.45398
G1 X113.934 Y80.85 E.01314
G1 X113.934 Y95.329 E.45398
G1 X114.353 Y95.329 E.01314
G1 X114.353 Y80.85 E.45398
G1 X114.772 Y80.85 E.01314
G1 X114.772 Y95.329 E.45398
G1 X115.191 Y95.329 E.01314
G1 X115.191 Y80.85 E.45398
G1 X115.61 Y80.85 E.01314
G1 X115.61 Y95.329 E.45398
G1 X116.029 Y95.329 E.01314
M73 P7 R29
G1 X116.029 Y80.85 E.45398
G1 X116.448 Y80.85 E.01314
M73 Q7 S29
G1 X116.448 Y93.014 E.38139
G1 X116.867 Y93.014 E.01314
M73 P7 R28
G1 X116.867 Y80.85 E.38139
G1 X117.286 Y80.85 E.01314
G1 X117.286 Y93.014 E.38139
G1 X117.705 Y93.014 E.01314
G1 X117.705 Y80.85 E.38139
G1 X118.124 Y80.85 E.01314
G1 X118.124 Y93.014 E.38139
G1 X118.543 Y93.014 E.01314
G1 X118.543 Y80.85 E.38139
G1 X118.811 Y80.85 E.0084
G1 X118.809 Y87.402 E.20543
G1 X118.962 Y87.545 E.00657
G1 X118.962 Y93.014 E.17148
G1 X119.381 Y93.014 E.01314
G1 X119.381 Y87.939 E.15912
G1 X119.8 Y87.915 E.01316
G1 X119.8 Y93.014 E.15988
G1 X120.219 Y93.014 E.01314
G1 X120.219 Y87.894 E.16053
G1 X120.638 Y87.875 E.01315
G1 X120.638 Y93.014 E.16113
G1 X121.057 Y93.014 E.01314
G1 X121.057 Y87.87 E.16129
G1 X121.476 Y87.866 E.01314
G1 X121.476 Y93.014 E.16141
G1 X121.895 Y93.014 E.01314
G1 X121.895 Y87.878 E.16104
G1 X122.314 Y87.89 E.01314
G1 X122.314 Y93.014 E.16066
G1 X122.733 Y93.014 E.01314
G1 X122.733 Y87.915 E.15988
G1 X123.152 Y87.949 E.01318
G1 X123.152 Y93.014 E.15881
G1 X123.571 Y93.014 E.01314
G1 X123.571 Y87.998 E.15727
G1 X123.99 Y88.047 E.01323
G1 X123.99 Y93.014 E.15574
G1 X124.409 Y93.014 E.01314
G1 X124.409 Y88.096 E.1542
G1 X124.828 Y88.165 E.01331
G1 X124.828 Y95.329 E.22462
G1 X125.247 Y95.329 E.01314
G1 X125.247 Y88.243 E.22218
G1 X125.665 Y88.321 E.01333
G1 X125.665 Y95.329 E.21973
G1 X126.084 Y95.329 E.01314
G1 X126.084 Y88.406 E.21707
G1 X126.503 Y88.513 E.01356
G1 X126.503 Y95.329 E.21371
G1 X126.922 Y95.329 E.01314
G1 X126.922 Y88.621 E.21032
G1 X127.341 Y88.728 E.01356
G1 X127.341 Y95.329 E.20697
G1 X127.76 Y95.329 E.01314
G1 X127.76 Y88.861 E.2028
G1 X128.179 Y88.999 E.01383
G1 X128.179 Y95.329 E.19847
G1 X128.598 Y95.329 E.01314
G1 X128.598 Y89.137 E.19415
G1 X129.017 Y89.285 E.01393
