; generated by PrusaSlicer 2.9.3 on 2025-10-25 at 14:51:12 UTC


;
;
; 

; external perimeters extrusion width = 0.60mm
; perimeters extrusion width = 0.50mm
; infill extrusion width = 0.50mm
; solid infill extrusion width = 0.50mm
; top infill extrusion width = 0.45mm
; support material extrusion width = 0.38mm
; first layer extrusion width = 0.42mm

M73 P0 R29
M73 Q0 S30
M201 X1000 Y1000 Z200 E5000 ; sets maximum accelerations, mm/sec^2
M203 X200 Y200 Z12 E120 ; sets maximum feedrates, mm / sec
M204 S1250 T1250 ; sets acceleration (S) and retract acceleration (R), mm/sec^2
M205 X8.00 Y8.00 Z0.40 E4.50 ; sets the jerk limits, mm/sec
M205 S0 T0 ; sets the minimum extruding and travel feed rate, mm/sec

; printing object sofle_pico_cirque_mount_40mm.stl id:0 copy 0
; stop printing object sofle_pico_cirque_mount_40mm.stl id:0 copy 0

;TYPE:Custom
M862.3 P "MK3S" ; printer model check
M862.1 P0.4 ; nozzle diameter check
M115 U3.14.1 ; tell printer latest fw version
G90 ; use absolute coordinates
M83 ; extruder relative mode
M104 S215 ; set extruder temp
M140 S60 ; set bed temp
M190 S60 ; wait for bed temp
M109 S215 ; wait for extruder temp
G28 W ; home all without mesh bed level
G80 X89.5722 Y66.8606 W66.2468 H76.2788 ; mesh bed levelling

G1 Z0.2 F720
G1 Y-3 F1000 ; go outside print area
G92 E0
G1 X60 E9 F1000 ; intro line
G1 X100 E12.5 F1000 ; intro line

G92 E0
M221 S95

; Don't change E values below. Excessive value can damage the printer.

M907 E538 ; set extruder motor current
G21 ; set units to millimeters
G90 ; use absolute coordinates
M83 ; use relative distances for extrusion

M900 K0.05 ; Filament gcode LA 1.5
M900 K30 ; Filament gcode LA 1.0




M107
;LAYER_CHANGE
;Z:0.2
;HEIGHT:0.2
G1 E-.8 F2100
G1 Z.6 F720
G1 X92.717 Y91.242 F10800
G1 Z.2 F720
G1 E.8 F2100
M204 S800
;TYPE:Skirt/Brim
;WIDTH:0.42
G1 F1200
G1 X102.111 Y81.859 E.4163
G1 X118.892 Y67.635 E.68974
G1 X119.628 Y67.25 E.02604
G1 X120.439 Y67.068 E.02606
G1 X127.452 Y67.068 E.21989
G1 X128.262 Y67.25 E.02603
G1 X149.633 Y78.569 E.75826
G1 X150.146 Y78.924 E.01956
G1 X150.549 Y79.328 E.01789
G1 X151.094 Y80.271 E.03415
G1 X151.288 Y81.199 E.02973
G1 X155.631 Y137.473 E1.76968
G1 X155.537 Y138.604 E.03558
G1 X155.424 Y139.083 E.01543
G1 X155.185 Y139.749 E.02219
G1 X154.586 Y140.785 E.03752
G1 X154.275 Y141.167 E.01544
G1 X153.382 Y141.964 E.03753
G1 X152.333 Y142.542 E.03755
G1 X151.663 Y142.767 E.02216
G1 X150.263 Y142.951 E.04427
G1 X120.914 Y142.932 E.92022
G1 X120.123 Y142.788 E.02521
G1 X105.151 Y137.811 E.49469
G1 X100.233 Y135.377 E.17205
M73 Q0 S29
G1 X99.664 Y134.967 E.02199
G1 X95.033 Y130.336 E.20535
G1 X94.623 Y129.767 E.02199
G1 X89.992 Y120.505 E.32468
G1 X89.761 Y119.526 E.03154
G1 X89.761 Y99.737 E.62047
G1 X89.873 Y99.045 E.02198
M73 P1 R29
M73 Q1 S29
G1 X92.189 Y92.098 E.2296
G1 X92.686 Y91.293 E.02966
M204 S1000
;WIPE_START
G1 F8640
G1 X92.717 Y91.242 E-.01378
G1 X95.126 Y88.836 E-.78622
;WIPE_END
G1 Z.6 F720
; printing object sofle_pico_cirque_mount_40mm.stl id:0 copy 0
G1 X119.148 Y87.255 F10800
G1 Z.2 F720
G1 E.8 F2100
M204 S800
;TYPE:Support material
G1 F1200
G1 X119.508 Y87.593 E.01548
G1 X122.318 Y87.551 E.08812
G1 X124.595 Y87.777 E.07174
G1 X127.497 Y88.417 E.09318
G1 X129.514 Y89.113 E.0669
G1 X131.976 Y90.276 E.08537
G1 X134.127 Y91.623 E.07958
G1 X135.278 Y92.496 E.0453
G1 X137.359 Y94.413 E.08871
G1 X139.259 Y96.684 E.09284
G1 X140.124 Y97.959 E.04831
G1 X140.895 Y99.284 E.04807
G1 X141.593 Y100.7 E.0495
G1 X142.167 Y102.098 E.04738
G1 X142.654 Y103.563 E.04841
G1 X143.047 Y105.092 E.0495
G1 X143.322 Y106.578 E.04738
G1 X143.499 Y108.113 E.04845
G1 X143.57 Y109.691 E.04953
G1 X143.535 Y111.202 E.04739
G1 X143.394 Y112.741 E.04846
G1 X143.14 Y114.299 E.04949
G1 X142.797 Y115.771 E.04739
G1 X142.344 Y117.247 E.04841
G1 X141.79 Y118.689 E.04843
G1 X141.123 Y120.119 E.04947
G1 X140.393 Y121.441 E.04735
G1 X139.556 Y122.738 E.0484
G1 X138.632 Y123.974 E.04839
G1 X137.602 Y125.167 E.04942
G1 X136.541 Y126.239 E.04729
G1 X135.383 Y127.257 E.04834
G1 X134.131 Y128.212 E.04937
G1 X132.873 Y129.042 E.04726
G1 X131.532 Y129.801 E.04831
G1 X130.111 Y130.476 E.04933
G1 X128.71 Y131.029 E.04723
G1 X127.242 Y131.495 E.04829
G1 X125.746 Y131.857 E.04826
G1 X123.447 Y132.206 E.07291
G1 X121.525 Y132.312 E.06035
G1 X119.493 Y132.245 E.06375
G1 X119.132 Y132.583 E.01551
G1 X119.13 Y138.051 E.17145
G1 X112.79 Y138.051 E.19879
G1 X112.79 Y135.735 E.07262
G1 X105.843 Y135.735 E.21782
G1 X105.843 Y133.42 E.07259
G1 X101.212 Y133.42 E.1452
G1 X101.212 Y131.104 E.07262
G1 X98.896 Y131.104 E.07262
G1 X98.896 Y128.788 E.07262
G1 X96.58 Y128.788 E.07262
G1 X96.58 Y124.157 E.1452
G1 X94.265 Y124.157 E.07259
G1 X94.265 Y119.526 E.1452
G1 X91.949 Y119.526 E.07262
G1 X91.949 Y99.737 E.62047
G1 X94.265 Y99.737 E.07262
G1 X94.265 Y92.79 E.21782
G1 X96.58 Y92.79 E.07259
G1 X96.58 Y90.474 E.07262
G1 X98.896 Y90.474 E.07262
G1 X98.896 Y88.159 E.07259
G1 X101.212 Y88.159 E.07262
G1 X101.212 Y85.843 E.07262
G1 X103.527 Y85.843 E.07259
G1 X103.527 Y83.527 E.07262
G1 X108.159 Y83.527 E.14523
G1 X108.159 Y81.212 E.07259
G1 X119.151 Y81.212 E.34465
G1 X119.148 Y87.199 E.18772
M204 S1000
G1 X114.054 Y94.054 F10800
M204 S800
G1 F1200
G1 X126.684 Y94.054 E.396
G1 X126.684 Y96.37 E.07262
G1 X128.999 Y96.37 E.07259
G1 X128.999 Y98.685 E.07259
G1 X131.315 Y98.685 E.07262
G1 X131.315 Y101.001 E.07262
G1 X133.63 Y101.001 E.07259
G1 X133.63 Y103.316 E.07259
G1 X135.946 Y103.316 E.07262
G1 X135.946 Y113.63 E.32339
G1 X133.63 Y113.63 E.07262
G1 X133.63 Y118.262 E.14523
G1 X131.315 Y118.262 E.07259
G1 X131.315 Y120.577 E.07259
G1 X128.999 Y120.577 E.07262
G1 X128.999 Y122.893 E.07262
G1 X124.368 Y122.893 E.1452
G1 X124.368 Y125.208 E.07259
G1 X118.685 Y125.208 E.17819
G1 X118.685 Y122.893 E.07259
G1 X114.054 Y122.893 E.1452
G1 X114.054 Y120.577 E.07262
G1 X111.738 Y120.577 E.07262
G1 X111.738 Y118.262 E.07259
G1 X109.423 Y118.262 E.07259
G1 X109.423 Y115.946 E.07262
G1 X107.107 Y115.946 E.07262
G1 X107.107 Y111.315 E.1452
G1 X104.792 Y111.315 E.07259
G1 X104.792 Y105.632 E.17819
G1 X107.107 Y105.632 E.07259
G1 X107.107 Y101.001 E.1452
G1 X109.423 Y101.001 E.07262
G1 X109.423 Y98.685 E.07262
G1 X111.738 Y98.685 E.07259
M73 Q2 S29
G1 X111.738 Y96.37 E.07259
M73 P2 R29
G1 X114.054 Y96.37 E.07262
G1 X114.054 Y94.111 E.07083
M204 S1000
;WIPE_START
G1 F8640
G1 X114.054 Y96.37 E-.52161
G1 X112.849 Y96.37 E-.27839
;WIPE_END
G1 Z.6 F720
G1 X143.016 Y114.017 F10800
G1 Z.2 F720
G1 E.8 F2100
M204 S800
G1 F1200
G1 X143.016 Y106.883 E.22368
G1 X142.597 Y104.7 E.0697
G1 X142.597 Y115.134 E.32715
G1 X142.178 Y116.631 E.04874
G1 X142.178 Y103.207 E.4209
G1 X141.759 Y101.999 E.04009
G1 X141.759 Y117.824 E.49618
G1 X141.34 Y118.853 E.03484
G1 X141.34 Y100.978 E.56046
G1 X140.921 Y100.102 E.03045
G1 X140.921 Y119.753 E.61614
G1 X140.502 Y120.541 E.02798
G1 X140.502 Y99.283 E.66653
G1 X140.083 Y98.564 E.02609
G1 X140.083 Y121.296 E.71275
G1 X139.664 Y121.945 E.02422
G1 X139.664 Y97.886 E.75435
G1 X139.245 Y97.268 E.02341
G1 X139.245 Y122.587 E.79386
G1 X138.826 Y123.147 E.02193
G1 X138.826 Y96.682 E.82979
G1 X138.407 Y96.148 E.02128
G1 X138.407 Y123.707 E.86409
G1 X137.988 Y124.201 E.02031
G1 X137.988 Y95.623 E.89604
G1 X137.569 Y95.156 E.01967
G1 X137.569 Y124.687 E.92592
G1 X137.15 Y125.14 E.01935
G1 X137.15 Y94.689 E.95477
G1 X136.731 Y94.273 E.01851
M73 P3 R29
G1 X136.731 Y125.564 E.98111
M73 Q3 S29
G1 X136.312 Y125.987 E.01867
G1 X136.312 Y93.861 E1.00729
G1 X135.893 Y93.476 E.01784
G1 X135.893 Y102.977 E.2979
G1 X135.474 Y102.977 E.01314
G1 X135.474 Y93.114 E.30925
G1 X135.055 Y92.752 E.01736
G1 X135.055 Y102.977 E.3206
G1 X134.636 Y102.977 E.01314
G1 X134.636 Y92.435 E.33054
G1 X134.217 Y92.117 E.01649
G1 X134.217 Y102.977 E.34051
G1 X133.97 Y102.977 E.00774
M73 P3 R28
G1 X133.97 Y100.661 E.07262
G1 X133.799 Y100.661 E.00536
G1 X133.799 Y91.813 E.27742
G1 X133.38 Y91.535 E.01577
G1 X133.38 Y100.661 E.28614
G1 X132.961 Y100.661 E.01314
G1 X132.961 Y91.258 E.29482
G1 X132.768 Y91.131 E.00724
G1 X132.542 Y90.993 E.0083
G1 X132.542 Y100.661 E.30313
G1 X132.123 Y100.661 E.01314
G1 X132.123 Y90.747 E.31085
G1 X131.704 Y90.515 E.01502
G1 X131.704 Y100.661 E.31812
G1 X131.654 Y98.346 E.0726
G1 X131.285 Y98.346 E.01157
G1 X131.285 Y90.294 E.25246
G1 X131.184 Y90.241 E.00358
G1 X130.866 Y90.083 E.01113
G1 X130.866 Y98.346 E.25908
G1 X130.447 Y98.346 E.01314
G1 X130.447 Y89.885 E.26529
G1 X130.028 Y89.696 E.01441
G1 X130.028 Y98.346 E.27121
G1 X129.609 Y98.346 E.01314
G1 X129.609 Y89.518 E.2768
G1 X129.19 Y89.351 E.01414
G1 X129.19 Y96.03 E.20942
G1 X128.771 Y96.03 E.01314
G1 X128.771 Y89.194 E.21434
G1 X128.352 Y89.056 E.01383
G1 X128.352 Y96.03 E.21866
G1 X127.933 Y96.03 E.01314
G1 X127.933 Y88.918 E.22299
G1 X127.514 Y88.78 E.01383
G1 X127.514 Y96.03 E.22732
G1 X127.095 Y96.03 E.01314
G1 X127.095 Y88.665 E.23092
G1 X126.676 Y88.557 E.01357
G1 X126.676 Y93.715 E.16173
G1 X126.257 Y93.715 E.01314
G1 X126.257 Y88.45 E.16508
G1 X125.984 Y88.38 E.00884
G1 X125.838 Y88.353 E.00466
G1 X125.838 Y93.715 E.16812
G1 X125.419 Y93.715 E.01314
G1 X125.419 Y88.275 E.17057
G1 X125 Y88.197 E.01336
G1 X125 Y93.715 E.17301
G1 X124.581 Y93.715 E.01314
G1 X124.581 Y88.119 E.17546
G1 X124.162 Y88.067 E.01324
G1 X124.162 Y93.715 E.17709
G1 X123.743 Y93.715 E.01314
G1 X123.743 Y88.018 E.17863
G1 X123.324 Y87.969 E.01323
G1 X123.324 Y93.715 E.18016
G1 X122.905 Y93.715 E.01314
G1 X122.905 Y87.927 E.18148
G1 X122.486 Y87.899 E.01317
G1 X122.486 Y93.715 E.18236
G1 X122.067 Y93.715 E.01314
G1 X122.067 Y87.883 E.18286
G1 X121.648 Y87.871 E.01314
G1 X121.648 Y93.715 E.18323
G1 X121.229 Y93.715 E.01314
M73 P4 R28
G1 X121.229 Y87.868 E.18333
M73 Q4 S29
G1 X120.81 Y87.873 E.01314
G1 X120.81 Y93.715 E.18317
G1 X120.391 Y93.715 E.01314
G1 X120.391 Y87.886 E.18276
G1 X119.972 Y87.906 E.01315
G1 X119.972 Y93.715 E.18214
G1 X119.553 Y93.715 E.01314
G1 X119.553 Y87.93 E.18138
G1 X119.383 Y87.941 E.00534
G1 X119.134 Y87.707 E.01071
G1 X119.134 Y93.715 E.18838
G1 X118.715 Y93.715 E.01314
G1 X118.715 Y81.551 E.38139
G1 X118.296 Y81.551 E.01314
G1 X118.296 Y93.715 E.38139
G1 X117.877 Y93.715 E.01314
G1 X117.877 Y81.551 E.38139
G1 X117.458 Y81.551 E.01314
M73 Q4 S28
G1 X117.458 Y93.715 E.38139
G1 X117.039 Y93.715 E.01314
G1 X117.039 Y81.551 E.38139
G1 X116.62 Y81.551 E.01314
G1 X116.62 Y93.715 E.38139
G1 X116.201 Y93.715 E.01314
G1 X116.201 Y81.551 E.38139
G1 X115.783 Y81.551 E.01311
G1 X115.783 Y93.715 E.38139
G1 X115.364 Y93.715 E.01314
G1 X115.364 Y81.551 E.38139
G1 X114.945 Y81.551 E.01314
G1 X114.945 Y93.715 E.38139
G1 X114.526 Y93.715 E.01314
G1 X114.526 Y81.551 E.38139
G1 X114.107 Y81.551 E.01314
G1 X114.107 Y93.715 E.38139
G1 X113.715 Y93.715 E.01229
G1 X113.715 Y96.03 E.07259
G1 X113.688 Y81.551 E.45398
G1 X113.269 Y81.551 E.01314
G1 X113.269 Y96.03 E.45398
G1 X112.85 Y96.03 E.01314
G1 X112.85 Y81.551 E.45398
G1 X112.431 Y81.551 E.01314
G1 X112.431 Y96.03 E.45398
G1 X112.012 Y96.03 E.01314
G1 X112.012 Y81.551 E.45398
G1 X111.593 Y81.551 E.01314
G1 X111.593 Y96.03 E.45398
G1 X111.399 Y96.03 E.00608
G1 X111.399 Y98.346 E.07262
G1 X111.174 Y98.346 E.00705
G1 X111.174 Y81.551 E.5266
G1 X110.755 Y81.551 E.01314
G1 X110.755 Y98.346 E.5266
G1 X110.336 Y98.346 E.01314
G1 X110.336 Y81.551 E.5266
G1 X109.917 Y81.551 E.01314
G1 X109.917 Y98.346 E.5266
G1 X109.498 Y98.346 E.01314
M73 P5 R28
G1 X109.498 Y81.551 E.5266
G1 X109.079 Y81.551 E.01314
M73 Q5 S28
G1 X109.079 Y100.661 E.59918
G1 X108.66 Y100.661 E.01314
G1 X108.66 Y81.551 E.59918
G1 X108.498 Y81.551 E.00508
G1 X108.498 Y83.867 E.07262
G1 X108.241 Y83.867 E.00806
G1 X108.241 Y100.661 E.52656
G1 X107.822 Y100.661 E.01314
G1 X107.822 Y83.867 E.52656
G1 X107.403 Y83.867 E.01314
G1 X107.403 Y100.661 E.52656
G1 X106.984 Y100.661 E.01314
G1 X106.984 Y83.867 E.52656
G1 X106.565 Y83.867 E.01314
G1 X106.565 Y105.293 E.6718
G1 X106.146 Y105.293 E.01314
G1 X106.146 Y83.867 E.6718
G1 X105.727 Y83.867 E.01314
G1 X105.727 Y105.293 E.6718
G1 X105.308 Y105.293 E.01314
G1 X105.308 Y83.867 E.6718
G1 X104.889 Y83.867 E.01314
G1 X104.889 Y105.462 E.6771
M204 S1000
;WIPE_START
G1 F8640
G1 X104.889 Y101.997 E-.8
;WIPE_END
G1 Z.6 F720
G1 X135.893 Y126.583 F10800
G1 Z.2 F720
G1 E.8 F2100
M204 S800
G1 F1200
G1 X135.893 Y113.97 E.39547
G1 X135.474 Y113.97 E.01314
G1 X135.474 Y126.725 E.39992
G1 X135.055 Y127.081 E.01724
G1 X135.055 Y113.97 E.41109
G1 X134.636 Y113.97 E.01314
G1 X134.636 Y127.401 E.42112
G1 X134.217 Y127.722 E.01655
G1 X134.217 Y113.97 E.43118
G1 X133.97 Y113.97 E.00774
G1 X133.97 Y118.601 E.1452
G1 X133.799 Y118.601 E.00536
G1 X133.799 Y128.025 E.29548
G1 X133.38 Y128.302 E.01575
G1 X133.38 Y118.601 E.30417
G1 X132.961 Y118.601 E.01314
G1 X132.961 Y128.578 E.31282
G1 X132.542 Y128.84 E.01549
M73 P6 R28
G1 X132.542 Y118.601 E.32104
G1 X132.123 Y118.601 E.01314
M73 Q6 S28
G1 X132.123 Y129.077 E.32847
G1 X131.704 Y129.314 E.01509
G1 X131.654 Y118.601 E.3359
G1 X131.654 Y120.917 E.07262
G1 X131.285 Y120.917 E.01157
G1 X131.285 Y129.543 E.27046
G1 X130.866 Y129.743 E.01456
G1 X130.866 Y120.917 E.27673
G1 X130.447 Y120.917 E.01314
G1 X130.447 Y129.943 E.283
G1 X130.028 Y130.142 E.01454
G1 X130.028 Y120.917 E.28924
G1 X129.609 Y120.917 E.01314
G1 X129.609 Y130.31 E.29451
G1 X129.19 Y130.475 E.01412
G1 X129.19 Y123.232 E.2271
G1 X128.771 Y123.232 E.01314
G1 X128.771 Y130.641 E.2323
G1 X128.352 Y130.787 E.01391
G1 X128.352 Y123.232 E.23688
G1 X127.933 Y123.232 E.01314
G1 X127.933 Y130.92 E.24105
G1 X127.514 Y131.052 E.01377
G1 X127.514 Y123.232 E.24519
G1 X127.095 Y123.232 E.01314
G1 X127.095 Y131.181 E.24924
G1 X126.676 Y131.283 E.01352
G1 X126.676 Y123.232 E.25243
G1 X126.257 Y123.232 E.01314
G1 X126.257 Y131.384 E.2556
G1 X125.838 Y131.485 E.01351
G1 X125.838 Y123.232 E.25877
G1 X125.419 Y123.232 E.01314
G1 X125.419 Y131.568 E.26137
G1 X125 Y131.64 E.01333
G1 X125 Y123.232 E.26363
G1 X124.707 Y123.232 E.00919
G1 X124.707 Y125.548 E.07262
G1 X124.581 Y125.548 E.00395
G1 X124.581 Y131.711 E.19324
G1 X124.162 Y131.782 E.01332
G1 X124.162 Y125.548 E.19546
G1 X123.743 Y125.548 E.01314
G1 X123.743 Y131.833 E.19706
G1 X123.324 Y131.877 E.01321
G1 X123.324 Y125.548 E.19844
G1 X122.905 Y125.548 E.01314
G1 X122.905 Y131.913 E.19957
G1 X122.486 Y131.94 E.01316
G1 X122.486 Y125.548 E.20042
G1 X122.067 Y125.548 E.01314
G1 X122.067 Y131.959 E.20101
G1 X121.648 Y131.97 E.01314
M73 P6 R27
G1 X121.648 Y125.548 E.20136
G1 X121.229 Y125.548 E.01314
G1 X121.229 Y131.973 E.20145
G1 X120.81 Y131.969 E.01314
G1 X120.81 Y125.548 E.20133
G1 X120.391 Y125.548 E.01314
G1 X120.391 Y131.957 E.20095
G1 X119.972 Y131.936 E.01315
G1 X119.972 Y125.548 E.20029
G1 X119.553 Y125.548 E.01314
G1 X119.553 Y131.909 E.19944
G1 X119.369 Y131.896 E.00578
G1 X119.134 Y132.116 E.01009
G1 X119.134 Y125.548 E.20594
G1 X118.715 Y125.548 E.01314
G1 X118.715 Y137.711 E.38136
G1 X118.296 Y137.711 E.01314
G1 X118.296 Y123.232 E.45398
G1 X117.877 Y123.232 E.01314
G1 X117.877 Y137.711 E.45398
G1 X117.458 Y137.711 E.01314
G1 X117.458 Y123.232 E.45398
G1 X117.039 Y123.232 E.01314
G1 X117.039 Y137.711 E.45398
G1 X116.62 Y137.711 E.01314
M73 P7 R27
G1 X116.62 Y123.232 E.45398
G1 X116.201 Y123.232 E.01314
M73 Q7 S28
G1 X116.201 Y137.711 E.45398
G1 X115.783 Y137.711 E.01311
G1 X115.783 Y123.232 E.45398
G1 X115.364 Y123.232 E.01314
G1 X115.364 Y137.711 E.45398
G1 X114.945 Y137.711 E.01314
G1 X114.945 Y123.232 E.45398
G1 X114.526 Y123.232 E.01314
G1 X114.526 Y137.711 E.45398
G1 X114.107 Y137.711 E.01314
G1 X114.107 Y123.232 E.45398
G1 X113.715 Y123.232 E.01229
G1 X113.688 Y120.917 E.07259
G1 X113.688 Y137.711 E.52656
G1 X113.269 Y137.711 E.01314
G1 X113.269 Y120.917 E.52656
G1 X112.85 Y120.917 E.01314
G1 X112.85 Y135.396 E.45398
G1 X112.431 Y135.396 E.01314
G1 X112.431 Y120.917 E.45398
G1 X112.012 Y120.917 E.01314
G1 X112.012 Y135.396 E.45398
G1 X111.593 Y135.396 E.01314
G1 X111.593 Y120.917 E.45398
G1 X111.399 Y120.917 E.00608
M73 Q7 S27
G1 X111.399 Y118.601 E.07262
G1 X111.174 Y118.601 E.00705
G1 X111.174 Y135.396 E.5266
G1 X110.755 Y135.396 E.01314
G1 X110.755 Y118.601 E.5266
G1 X110.336 Y118.601 E.01314
G1 X110.336 Y135.396 E.5266
