; generated by PrusaSlicer 2.9.3 on 2025-10-31 at 14:51:31 UTC


;
;
; 

; external perimeters extrusion width = 0.60mm
; perimeters extrusion width = 0.50mm
; infill extrusion width = 0.50mm
; solid infill extrusion width = 0.50mm
; top infill extrusion width = 0.45mm
; support material extrusion width = 0.38mm
; first layer extrusion width = 0.42mm

M73 P0 R91
M73 Q0 S92
M201 X1000 Y1000 Z200 E5000 ; sets maximum accelerations, mm/sec^2
M203 X200 Y200 Z12 E120 ; sets maximum feedrates, mm / sec
M204 S1250 T1250 ; sets acceleration (S) and retract acceleration (R), mm/sec^2
M205 X8.00 Y8.00 Z0.40 E4.50 ; sets the jerk limits, mm/sec
M205 S0 T0 ; sets the minimum extruding and travel feed rate, mm/sec

; printing object sofle_pico_keyplate_notched_no_tenting_puck.stl id:0 copy 0
; stop printing object sofle_pico_keyplate_notched_no_tenting_puck.stl id:0 copy 0

;TYPE:Custom
M862.3 P "MK3S" ; printer model check
M862.1 P0.4 ; nozzle diameter check
M115 U3.14.1 ; tell printer latest fw version
G90 ; use absolute coordinates
M83 ; extruder relative mode
M104 S215 ; set extruder temp
M140 S60 ; set bed temp
M190 S60 ; wait for bed temp
M109 S215 ; wait for extruder temp
G28 W ; home all without mesh bed level
G80 X39.7649 Y35.9761 W170.068 H140.913 ; mesh bed levelling

G1 Z0.2 F720
G1 Y-3 F1000 ; go outside print area
G92 E0
G1 X60 E9 F1000 ; intro line
G1 X100 E12.5 F1000 ; intro line

G92 E0
M221 S95

; Don't change E values below. Excessive value can damage the printer.

M907 E538 ; set extruder motor current
G21 ; set units to millimeters
G90 ; use absolute coordinates
M83 ; use relative distances for extrusion

M900 K0.05 ; Filament gcode LA 1.5
M900 K30 ; Filament gcode LA 1.0




M107
;LAYER_CHANGE
;Z:0.4
;HEIGHT:0.4
G1 E-.8 F2100
G1 Z.8 F720
G1 X55.444 Y40.151 F10800
G1 Z.4 F720
G1 E.8 F2100
M204 S800
;TYPE:Skirt/Brim
;WIDTH:0.42
G1 F1200
G1 X56.449 Y38.971 E.08613
G1 X57.689 Y37.925 E.09015
G1 X58.86 Y37.213 E.07616
G1 X60.36 Y36.595 E.09015
G1 X61.942 Y36.236 E.09015
G1 X63.489 Y36.145 E.08612
G1 X65.436 Y36.386 E.10902
G1 X201.808 Y66.515 E7.76107
G1 X203.036 Y66.883 E.07124
G1 X203.996 Y67.301 E.05819
G1 X205.053 Y67.92 E.06807
G1 X206.079 Y68.716 E.07216
G1 X207.395 Y70.149 E.10812
G1 X207.976 Y71.02 E.05818
G1 X208.429 Y71.882 E.05411
G1 X209.063 Y73.721 E.1081
G1 X209.239 Y74.679 E.05413
G1 X209.321 Y75.902 E.06812
G1 X209.661 Y156.993 E4.50634
G1 X209.462 Y158.675 E.09412
G1 X209 Y160.23 E.09015
G1 X208.283 Y161.686 E.09019
G1 X207.167 Y163.19 E.10407
G1 X205.924 Y164.342 E.09418
G1 X204.34 Y165.341 E.10407
G1 X202.765 Y165.967 E.09418
G1 X200.927 Y166.326 E.10407
G1 X76.839 Y176.683 E6.91966
G1 X74.877 Y176.66 E.10904
G1 X72.976 Y176.248 E.10809
G1 X71.196 Y175.462 E.10813
M73 Q0 S91
G1 X69.609 Y174.337 E.1081
G1 X68.908 Y173.66 E.05416
G1 X68.129 Y172.714 E.0681
G1 X67.564 Y171.833 E.05816
G1 X67.026 Y170.732 E.0681
G1 X40.649 Y107.076 E3.82909
G1 X40.153 Y105.479 E.09293
G1 X39.942 Y103.871 E.09012
G1 X39.968 Y102.573 E.07215
G1 X40.168 Y101.295 E.07188
G1 X54.114 Y42.742 E3.34486
G1 X54.722 Y41.317 E.0861
G1 X55.413 Y40.202 E.0729
M204 S1000
;WIPE_START
G1 F8640
G1 X55.444 Y40.151 E-.01378
G1 X56.449 Y38.971 E-.35789
G1 X57.689 Y37.925 E-.37458
G1 X57.888 Y37.804 E-.05375
;WIPE_END
G1 Z.8 F720
; printing object sofle_pico_keyplate_notched_no_tenting_puck.stl id:0 copy 0
G1 X137.13 Y121.61 F10800
G1 Z.4 F720
G1 E.8 F2100
M204 S800
;TYPE:Perimeter
;WIDTH:0.42
G1 F1200
G1 X137.08 Y121.667 E.00421
G1 X136.955 Y121.736 E.00793
G1 X136.779 Y121.768 E.00994
G1 X122.293 Y121.768 E.805
G1 X122.117 Y121.736 E.00994
G1 X121.893 Y121.569 E.01553
G1 X121.802 Y121.367 E.01231
G1 X121.792 Y119.527 E.10225
G1 X121.792 Y106.781 E.70831
G1 X121.819 Y106.618 E.00918
G1 X121.992 Y106.38 E.01635
G1 X122.293 Y106.279 E.01764
G1 X136.779 Y106.279 E.805
G1 X136.955 Y106.311 E.00994
G1 X137.18 Y106.48 E.01564
G1 X137.253 Y106.618 E.00868
G1 X137.28 Y106.781 E.00918
G1 X137.28 Y121.266 E.80494
G1 X137.216 Y121.512 E.01413
G1 X137.17 Y121.564 E.00386
M204 S1000
G1 X136.903 Y121.352 F10800
M204 S800
;TYPE:External perimeter
G1 F1200
G1 X136.879 Y121.4 E.00298
G1 X136.779 Y121.434 E.00587
G1 X122.293 Y121.434 E.805
G1 X122.16 Y121.367 E.00828
G1 X122.126 Y121.266 E.00592
G1 X122.126 Y119.527 E.09664
G1 X122.126 Y106.781 E.70831
G1 X122.193 Y106.647 E.00833
G1 X122.293 Y106.614 E.00585
G1 X136.779 Y106.614 E.805
G1 X136.913 Y106.68 E.0083
G1 X136.946 Y106.781 E.0059
G1 X136.946 Y121.266 E.80494
G1 X136.93 Y121.298 E.00199
M204 S1000
;WIPE_START
G1 F8640
G1 X136.903 Y121.352 E-.01394
G1 X136.879 Y121.4 E-.01239
G1 X136.779 Y121.434 E-.02439
G1 X133.534 Y121.434 E-.74928
;WIPE_END
G1 Z.8 F720
G1 X137.13 Y140.659 F10800
G1 Z.4 F720
G1 E.8 F2100
M204 S800
;TYPE:Perimeter
G1 F1200
G1 X137.08 Y140.717 E.00426
G1 X136.955 Y140.786 E.00793
G1 X136.779 Y140.818 E.00994
G1 X122.293 Y140.818 E.805
G1 X122.117 Y140.786 E.00994
G1 X121.893 Y140.619 E.01553
G1 X121.802 Y140.417 E.01231
G1 X121.792 Y139.338 E.05996
G1 X121.792 Y125.831 E.7506
G1 X121.819 Y125.668 E.00918
G1 X121.992 Y125.43 E.01635
G1 X122.293 Y125.329 E.01764
G1 X136.779 Y125.329 E.805
G1 X136.955 Y125.361 E.00994
G1 X137.18 Y125.53 E.01564
G1 X137.253 Y125.668 E.00868
G1 X137.28 Y125.831 E.00918
G1 X137.28 Y140.316 E.80494
G1 X137.216 Y140.562 E.01413
G1 X137.17 Y140.614 E.00386
M204 S1000
G1 X136.903 Y140.402 F10800
M204 S800
;TYPE:External perimeter
G1 F1200
G1 X136.879 Y140.45 E.00298
G1 X136.779 Y140.483 E.00585
G1 X122.293 Y140.483 E.805
G1 X122.16 Y140.417 E.00825
G1 X122.126 Y140.316 E.00592
G1 X122.126 Y125.831 E.80494
G1 X122.193 Y125.697 E.00833
G1 X122.293 Y125.664 E.00585
G1 X136.779 Y125.664 E.805
G1 X136.913 Y125.73 E.0083
G1 X136.946 Y125.831 E.0059
G1 X136.946 Y140.316 E.80494
G1 X136.93 Y140.348 E.00199
M204 S1000
;WIPE_START
G1 F8640
G1 X136.903 Y140.402 E-.01394
G1 X136.879 Y140.45 E-.01239
G1 X136.779 Y140.483 E-.02432
G1 X133.534 Y140.483 E-.74935
;WIPE_END
G1 Z.8 F720
G1 X156.179 Y138.149 F10800
G1 Z.4 F720
G1 E.8 F2100
M204 S800
;TYPE:Perimeter
G1 F1200
G1 X156.129 Y138.217 E.00469
G1 X156.005 Y138.286 E.00789
G1 X155.829 Y138.318 E.00994
G1 X141.343 Y138.318 E.805
G1 X141.167 Y138.286 E.00994
G1 X140.942 Y138.117 E.01564
G1 X140.849 Y137.903 E.01297
G1 X140.842 Y137.816 E.00485
G1 X140.842 Y123.549 E.79283
G1 X140.87 Y123.165 E.0214
G1 X141.012 Y122.954 E.01413
G1 X141.167 Y122.861 E.01004
G1 X141.343 Y122.829 E.00994
G1 X155.829 Y122.829 E.805
G1 X156.005 Y122.861 E.00994
G1 X156.23 Y123.03 E.01564
G1 X156.303 Y123.168 E.00868
G1 X156.33 Y123.331 E.00918
G1 X156.33 Y137.816 E.80494
G1 X156.303 Y137.979 E.00918
G1 X156.215 Y138.1 E.00831
M204 S1000
G1 X155.953 Y137.902 F10800
M204 S800
;TYPE:External perimeter
G1 F1200
G1 X155.929 Y137.95 E.00298
G1 X155.829 Y137.983 E.00585
G1 X141.343 Y137.983 E.805
G1 X141.209 Y137.917 E.0083
M73 P0 R90
G1 X141.176 Y137.816 E.0059
G1 X141.176 Y123.549 E.79283
G1 X141.197 Y123.249 E.01671
G1 X141.343 Y123.164 E.00939
G1 X155.829 Y123.164 E.805
G1 X155.962 Y123.23 E.00825
G1 X155.996 Y123.331 E.00592
G1 X155.996 Y137.816 E.80494
G1 X155.98 Y137.848 E.00199
M204 S1000
;WIPE_START
G1 F8640
G1 X155.953 Y137.902 E-.01394
G1 X155.929 Y137.95 E-.01239
G1 X155.829 Y137.983 E-.02432
G1 X152.584 Y137.983 E-.74935
;WIPE_END
G1 Z.8 F720
G1 X156.179 Y119.099 F10800
G1 Z.4 F720
G1 E.8 F2100
M204 S800
;TYPE:Perimeter
G1 F1200
G1 X156.129 Y119.167 E.00469
G1 X156.005 Y119.236 E.00789
G1 X155.829 Y119.268 E.00994
G1 X141.343 Y119.268 E.805
G1 X141.167 Y119.236 E.00994
M73 P1 R90
M73 Q1 S91
G1 X140.942 Y119.067 E.01564
G1 X140.849 Y118.853 E.01297
G1 X140.842 Y118.766 E.00485
G1 X140.842 Y104.281 E.80494
G1 X140.906 Y104.035 E.01413
G1 X141.042 Y103.88 E.01146
G1 X141.343 Y103.78 E.01763
G1 X155.829 Y103.78 E.805
G1 X156.005 Y103.811 E.00993
G1 X156.23 Y103.98 E.01564
G1 X156.303 Y104.118 E.00868
G1 X156.33 Y104.281 E.00918
G1 X156.33 Y115.388 E.61723
G1 X156.33 Y118.766 E.18772
G1 X156.303 Y118.929 E.00918
G1 X156.215 Y119.05 E.00831
M204 S1000
G1 X155.953 Y118.852 F10800
M204 S800
;TYPE:External perimeter
G1 F1200
G1 X155.929 Y118.9 E.00298
G1 X155.829 Y118.934 E.00587
G1 X141.343 Y118.934 E.805
G1 X141.209 Y118.867 E.00833
G1 X141.176 Y118.766 E.0059
G1 X141.176 Y104.281 E.80494
G1 X141.243 Y104.147 E.00833
G1 X141.343 Y104.114 E.00585
G1 X155.829 Y104.114 E.805
G1 X155.962 Y104.181 E.00828
G1 X155.996 Y104.281 E.00587
G1 X155.996 Y115.388 E.61723
G1 X155.996 Y118.766 E.18772
G1 X155.98 Y118.798 E.00199
M204 S1000
;WIPE_START
G1 F8640
G1 X155.953 Y118.852 E-.01394
G1 X155.929 Y118.9 E-.01239
G1 X155.829 Y118.934 E-.02439
G1 X152.584 Y118.934 E-.74928
;WIPE_END
G1 Z.8 F720
G1 X175.236 Y133.247 F10800
G1 Z.4 F720
G1 E.8 F2100
M204 S800
;TYPE:Perimeter
G1 F1200
G1 X175.201 Y133.3 E.00353
G1 X174.994 Y133.404 E.01287
G1 X174.168 Y133.418 E.04591
G1 X160.393 Y133.418 E.76549
G1 X160.217 Y133.386 E.00994
G1 X160.092 Y133.317 E.00793
G1 X159.919 Y133.079 E.01635
G1 X159.892 Y132.916 E.00918
G1 X159.892 Y118.431 E.80494
G1 X159.919 Y118.268 E.00918
G1 X160.092 Y118.03 E.01635
G1 X160.393 Y117.929 E.01764
G1 X174.879 Y117.929 E.805
G1 X175.103 Y117.982 E.01279
G1 X175.28 Y118.13 E.01282
G1 X175.365 Y118.309 E.01101
G1 X175.38 Y118.431 E.00683
G1 X175.38 Y132.916 E.80494
G1 X175.357 Y133.065 E.00838
G1 X175.269 Y133.197 E.00882
M204 S1000
G1 X175.002 Y133.002 F10800
M204 S800
;TYPE:External perimeter
G1 F1200
G1 X174.976 Y133.052 E.00313
G1 X174.879 Y133.083 E.00566
G1 X160.393 Y133.083 E.805
G1 X160.293 Y133.05 E.00585
G1 X160.226 Y132.916 E.00833
G1 X160.226 Y118.431 E.80494
G1 X160.293 Y118.297 E.00833
G1 X160.393 Y118.264 E.00585
G1 X174.879 Y118.264 E.805
G1 X175.012 Y118.33 E.00825
G1 X175.046 Y118.431 E.00592
G1 X175.046 Y132.916 E.80494
G1 X175.029 Y132.949 E.00206
M204 S1000
;WIPE_START
G1 F8640
G1 X175.002 Y133.002 E-.01373
G1 X174.976 Y133.052 E-.01301
G1 X174.879 Y133.083 E-.02351
G1 X171.632 Y133.083 E-.74975
;WIPE_END
G1 Z.8 F720
G1 X175.584 Y134.295 F10800
G1 Z.4 F720
G1 E.8 F2100
M204 S800
;TYPE:Perimeter
G1 F1200
G1 X175.586 Y134.291 E.00025
G1 X175.919 Y133.865 E.03005
G1 X176.355 Y133.568 E.02932
G1 X176.762 Y133.417 E.02412
G1 X177.18 Y133.376 E.02334
G1 X177.715 Y133.451 E.03002
G1 X178.153 Y133.651 E.02676
G1 X178.524 Y133.957 E.02672
G1 X178.81 Y134.365 E.02769
G1 X178.972 Y134.8 E.0258
G1 X179.018 Y135.279 E.02674
G1 X178.938 Y135.753 E.02671
G1 X178.765 Y136.136 E.02335
G1 X178.449 Y136.548 E.02885
G1 X178.04 Y136.841 E.02796
G1 X177.589 Y137.01 E.02676
G1 X177.11 Y137.055 E.02674
G1 X176.636 Y136.976 E.0267
G1 X176.198 Y136.776 E.02676
G1 X175.827 Y136.47 E.02672
G1 X175.522 Y136.016 E.03039
G1 X175.38 Y135.627 E.02301
G1 X175.334 Y135.148 E.02674
G1 X175.413 Y134.674 E.0267
G1 X175.56 Y134.35 E.01977
M204 S1000
G1 X175.875 Y134.462 F10800
M204 S800
;TYPE:External perimeter
G1 F1200
G1 X176.122 Y134.13 E.023
G1 X176.482 Y133.876 E.02448
G1 X176.806 Y133.749 E.01934
G1 X177.147 Y133.708 E.01909
G1 X177.587 Y133.76 E.02462
G1 X177.95 Y133.916 E.02196
G1 X178.259 Y134.161 E.02191
G1 X178.501 Y134.493 E.02283
G1 X178.641 Y134.844 E.021
G1 X178.686 Y135.235 E.02187
G1 X178.629 Y135.626 E.02196
G1 X178.494 Y135.941 E.01904
G1 X178.235 Y136.292 E.02424
G1 X177.878 Y136.547 E.02438
G1 X177.546 Y136.678 E.01983
G1 X177.154 Y136.724 E.02193
G1 X176.764 Y136.667 E.0219
G1 X176.401 Y136.511 E.02196
G1 X176.092 Y136.266 E.02191
G1 X175.831 Y135.888 E.02553
G1 X175.711 Y135.583 E.01821
G1 X175.665 Y135.192 E.02188
G1 X175.722 Y134.801 E.02196
G1 X175.846 Y134.514 E.01737
M204 S1000
;WIPE_START
G1 F8640
G1 X175.875 Y134.462 E-.01375
G1 X176.122 Y134.13 E-.09555
G1 X176.482 Y133.876 E-.10173
G1 X176.806 Y133.749 E-.08035
G1 X177.147 Y133.708 E-.0793
G1 X177.587 Y133.76 E-.1023
G1 X177.95 Y133.916 E-.09123
G1 X178.259 Y134.161 E-.09105
G1 X178.501 Y134.493 E-.09486
G1 X178.581 Y134.693 E-.04988
;WIPE_END
G1 Z.8 F720
G1 X194.271 Y152.311 F10800
G1 Z.4 F720
G1 E.8 F2100
M204 S800
;TYPE:Perimeter
G1 F1200
G1 X194.175 Y152.403 E.00739
G1 X193.929 Y152.467 E.01413
G1 X179.443 Y152.467 E.805
G1 X179.202 Y152.406 E.01381
G1 X179.006 Y152.211 E.01536
G1 X178.942 Y151.966 E.01407
G1 X178.942 Y138.84 E.72942
G1 X178.942 Y137.481 E.07552
G1 X178.963 Y137.336 E.00814
G1 X179.059 Y137.158 E.01124
G1 X179.332 Y136.992 E.01776
G1 X193.929 Y136.979 E.81117
G1 X194.135 Y137.024 E.01172
G1 X194.273 Y137.117 E.00925
G1 X194.385 Y137.275 E.01076
G1 X194.43 Y137.481 E.01172
G1 X194.43 Y151.966 E.80494
G1 X194.355 Y152.229 E.0152
G1 X194.314 Y152.269 E.00318
M204 S1000
G1 X194.054 Y152.051 F10800
M204 S800
;TYPE:External perimeter
G1 F1200
G1 X194.032 Y152.098 E.00288
G1 X193.929 Y152.133 E.00605
G1 X179.443 Y152.133 E.805
G1 X179.315 Y152.074 E.00783
G1 X179.276 Y151.966 E.00638
G1 X179.276 Y138.84 E.72942
G1 X179.276 Y137.481 E.07552
G1 X179.345 Y137.345 E.00847
G1 X179.452 Y137.313 E.00621
G1 X193.929 Y137.313 E.8045
G1 X194.043 Y137.359 E.00683
G1 X194.096 Y137.481 E.00739
G1 X194.096 Y151.966 E.80494
G1 X194.08 Y151.998 E.00199
M204 S1000
;WIPE_START
G1 F8640
G1 X194.054 Y152.051 E-.01363
G1 X194.032 Y152.098 E-.01198
G1 X193.929 Y152.133 E-.02512
G1 X190.684 Y152.133 E-.74927
;WIPE_END
G1 Z.8 F720
G1 X194.291 Y133.256 F10800
G1 Z.4 F720
G1 E.8 F2100
M204 S800
;TYPE:Perimeter
G1 F1200
G1 X194.273 Y133.28 E.00167
G1 X194.039 Y133.405 E.01474
G1 X193.929 Y133.418 E.00616
G1 X179.443 Y133.418 E.805
G1 X179.147 Y133.321 E.01731
G1 X178.967 Y133.073 E.01703
G1 X178.942 Y132.916 E.00883
G1 X178.942 Y118.431 E.80494
G1 X178.994 Y118.207 E.01278
G1 X179.142 Y118.03 E.01282
G1 X179.443 Y117.929 E.01764
G1 X193.929 Y117.929 E.805
G1 X194.135 Y117.974 E.01172
G1 X194.273 Y118.067 E.00925
G1 X194.385 Y118.225 E.01076
G1 X194.43 Y118.431 E.01172
G1 X194.43 Y132.916 E.80494
G1 X194.385 Y133.122 E.01172
G1 X194.325 Y133.207 E.00578
M204 S1000
G1 X194.06 Y133 F10800
M204 S800
;TYPE:External perimeter
G1 F1200
G1 X194.043 Y133.038 E.00231
G1 X193.929 Y133.083 E.00681
G1 X179.44 Y133.083 E.80517
G1 X179.313 Y133.021 E.00785
G1 X179.276 Y132.916 E.00619
G1 X179.276 Y118.431 E.80494
G1 X179.343 Y118.297 E.00833
G1 X179.443 Y118.264 E.00585
G1 X193.929 Y118.264 E.805
G1 X194.043 Y118.309 E.00681
G1 X194.096 Y118.431 E.00739
G1 X194.096 Y132.916 E.80494
G1 X194.084 Y132.945 E.00174
M204 S1000
;WIPE_START
G1 F8640
G1 X194.06 Y133 E-.01386
G1 X194.043 Y133.038 E-.00961
G1 X193.929 Y133.083 E-.0283
G1 X190.689 Y133.083 E-.74823
;WIPE_END
G1 Z.8 F720
G1 X175.218 Y152.307 F10800
G1 Z.4 F720
G1 E.8 F2100
M204 S800
;TYPE:Perimeter
G1 F1200
G1 X175.116 Y152.408 E.00798
G1 X174.879 Y152.467 E.01357
G1 X160.393 Y152.467 E.805
G1 X160.117 Y152.384 E.01602
G1 X159.923 Y152.14 E.01732
G1 X159.892 Y151.966 E.00982
G1 X159.892 Y137.481 E.80494
G1 X159.919 Y137.318 E.00918
G1 X160.092 Y137.08 E.01635
G1 X160.393 Y136.979 E.01764
G1 X174.879 Y136.979 E.805
G1 X175.036 Y137.005 E.00884
G1 X175.283 Y137.184 E.01695
G1 X175.38 Y137.481 E.01736
G1 X175.38 Y151.966 E.80494
G1 X175.316 Y152.211 E.01407
G1 X175.261 Y152.265 E.00428
M204 S1000
G1 X175.008 Y152.05 F10800
M204 S800
;TYPE:External perimeter
G1 F1200
G1 X174.99 Y152.091 E.00249
G1 X174.879 Y152.133 E.0066
G1 X160.393 Y152.133 E.805
G1 X160.301 Y152.106 E.00533
M73 Q1 S90
G1 X160.226 Y151.966 E.00883
G1 X160.226 Y137.481 E.80494
G1 X160.293 Y137.347 E.00833
G1 X160.393 Y137.313 E.00587
G1 X174.879 Y137.313 E.805
G1 X175.013 Y137.382 E.00838
G1 X175.046 Y137.481 E.0058
G1 X175.046 Y151.966 E.80494
G1 X175.033 Y151.995 E.00177
M204 S1000
;WIPE_START
G1 F8640
G1 X175.008 Y152.05 E-.01395
G1 X174.99 Y152.091 E-.01034
G1 X174.879 Y152.133 E-.0274
G1 X171.638 Y152.133 E-.74831
;WIPE_END
G1 Z.8 F720
G1 X156.187 Y157.21 F10800
G1 Z.4 F720
G1 E.8 F2100
M204 S800
;TYPE:Perimeter
G1 F1200
G1 X156.165 Y157.238 E.00198
G1 X155.893 Y157.363 E.01664
G1 X141.343 Y157.367 E.80856
G1 X141.073 Y157.289 E.01562
G1 X140.96 Y157.189 E.00839
G1 X140.849 Y156.953 E.01449
G1 X140.842 Y156.866 E.00485
G1 X140.842 Y142.38 E.805
G1 X140.906 Y142.135 E.01407
G1 X141.042 Y141.979 E.0115
G1 X141.343 Y141.879 E.01763
