; generated by PrusaSlicer 2.9.3 on 2025-10-30 at 16:22:18 UTC


;
;
; 

; external perimeters extrusion width = 0.45mm
; perimeters extrusion width = 0.45mm
; infill extrusion width = 0.45mm
; solid infill extrusion width = 0.45mm
; top infill extrusion width = 0.40mm
; first layer extrusion width = 0.42mm

M73 P0 R173
M73 Q0 S174
M201 X1000 Y1000 Z200 E5000 ; sets maximum accelerations, mm/sec^2
M203 X200 Y200 Z12 E120 ; sets maximum feedrates, mm / sec
M204 S1250 T1250 ; sets acceleration (S) and retract acceleration (R), mm/sec^2
M205 X8.00 Y8.00 Z0.40 E4.50 ; sets the jerk limits, mm/sec
M205 S0 T0 ; sets the minimum extruding and travel feed rate, mm/sec

; printing object sofle_pico_keyplate_notched_no_tenting_puck.stl id:0 copy 0
; stop printing object sofle_pico_keyplate_notched_no_tenting_puck.stl id:0 copy 0

;TYPE:Custom
M862.3 P "MK3S" ; printer model check
M862.1 P0.4 ; nozzle diameter check
M115 U3.14.1 ; tell printer latest fw version
G90 ; use absolute coordinates
M83 ; extruder relative mode
M104 S215 ; set extruder temp
M140 S60 ; set bed temp
M190 S60 ; wait for bed temp
M109 S215 ; wait for extruder temp
G28 W ; home all without mesh bed level
G80 X39.7648 Y36.1829 W169.85 H140.185 ; mesh bed levelling

G1 Z0.2 F720
G1 Y-3 F1000 ; go outside print area
G92 E0
G1 X60 E9 F1000 ; intro line
G1 X100 E12.5 F1000 ; intro line

G92 E0
M221 S95

; Don't change E values below. Excessive value can damage the printer.
M907 E430 ; set extruder motor current
G21 ; set units to millimeters
G90 ; use absolute coordinates
M83 ; use relative distances for extrusion

M900 K0.05 ; Filament gcode LA 1.5
M900 K30 ; Filament gcode LA 1.0




M107
;LAYER_CHANGE
;Z:0.2
;HEIGHT:0.2
G1 E-.8 F2100
G1 Z.6 F720
G1 X54.954 Y40.388 F10800
G1 Z.2 F720
G1 E.8 F2100
M204 S800
;TYPE:Skirt/Brim
;WIDTH:0.42
G1 F900
G1 X55.96 Y39.206 E.04867
G1 X57.203 Y38.158 E.05098
G1 X58.377 Y37.444 E.04308
G1 X59.88 Y36.824 E.05098
G1 X61.466 Y36.465 E.05099
G1 X63.016 Y36.374 E.04868
G1 X64.691 Y36.556 E.05283
G1 X201.16 Y64.759 E4.36931
G1 X202.169 Y65.046 E.03289
G1 X203.368 Y65.551 E.04079
G1 X204.428 Y66.171 E.0385
G1 X205.456 Y66.969 E.0408
G1 X206.775 Y68.405 E.06114
G1 X207.32 Y69.215 E.03061
G1 X207.811 Y70.142 E.03289
G1 X208.175 Y71.048 E.03061
G1 X208.502 Y72.231 E.03848
G1 X208.705 Y74.171 E.06116
G1 X209.422 Y158.279 E2.63724
G1 X209.223 Y159.967 E.05329
M73 Q0 S173
G1 X208.759 Y161.525 E.05097
G1 X208.041 Y162.983 E.05096
G1 X206.923 Y164.491 E.05886
G1 X205.677 Y165.646 E.05327
G1 X204.09 Y166.647 E.05883
G1 X202.268 Y167.343 E.06115
G1 X200.595 Y167.641 E.05328
G1 X76.09 Y176.162 E3.9129
G1 X74.157 Y176.086 E.06065
M73 P0 R172
G1 X72.263 Y175.623 E.06113
G1 X70.718 Y174.917 E.05326
G1 X69.128 Y173.789 E.06112
G1 X68.256 Y172.925 E.03849
G1 X67.602 Y172.103 E.03294
G1 X66.956 Y171.06 E.03847
G1 X66.53 Y170.152 E.03145
G1 X40.671 Y107.461 E2.12629
G1 X40.175 Y105.863 E.05246
G1 X39.963 Y104.251 E.05098
G1 X39.99 Y102.95 E.0408
G1 X40.185 Y101.688 E.04004
G1 X53.621 Y42.984 E1.88822
G1 X54.23 Y41.557 E.04865
G1 X54.922 Y40.439 E.04123
M204 S1000
;WIPE_START
G1 F8640
G1 X54.954 Y40.388 E-.0139
G1 X55.96 Y39.206 E-.3584
G1 X57.203 Y38.158 E-.37541
G1 X57.397 Y38.04 E-.05229
;WIPE_END
G1 Z.6 F720
; printing object sofle_pico_keyplate_notched_no_tenting_puck.stl id:0 copy 0
G1 X137.137 Y87.358 F10800
G1 Z.2 F720
G1 E.8 F2100
M204 S800
;TYPE:Perimeter
;WIDTH:0.419999
G1 F900
G1 X137.21 Y87.413 E.00287
G1 X137.292 Y87.569 E.00553
G1 X137.323 Y87.752 E.00582
G1 X137.323 Y101.999 E.4467
G1 X137.29 Y102.385 E.01215
G1 X137.127 Y102.623 E.00904
G1 X136.956 Y102.725 E.00624
G1 X136.757 Y102.761 E.00634
G1 X122.315 Y102.761 E.45282
G1 X122.116 Y102.725 E.00634
G1 X121.866 Y102.539 E.00977
G1 X121.761 Y102.31 E.0079
G1 X121.749 Y101.231 E.03383
G1 X121.749 Y87.752 E.42262
G1 X121.78 Y87.569 E.00582
G1 X121.975 Y87.3 E.01042
G1 X122.265 Y87.189 E.00974
G1 X122.315 Y87.187 E.00157
G1 X136.757 Y87.187 E.45282
G1 X136.956 Y87.223 E.00634
G1 X137.089 Y87.322 E.0052
M204 S1000
G1 X136.86 Y87.615 F10800
M204 S800
;TYPE:External perimeter
G1 F900
G1 X136.908 Y87.639 E.00168
G1 X136.946 Y87.752 E.00374
G1 X136.946 Y101.999 E.4467
G1 X136.921 Y102.288 E.0091
G1 X136.824 Y102.372 E.00402
G1 X136.757 Y102.384 E.00213
G1 X122.315 Y102.384 E.45282
G1 X122.165 Y102.31 E.00524
G1 X122.126 Y102.195 E.00381
G1 X122.126 Y87.752 E.45285
G1 X122.201 Y87.602 E.00526
G1 X122.315 Y87.564 E.00377
G1 X136.757 Y87.564 E.45282
G1 X136.807 Y87.588 E.00174
M204 S1000
;WIPE_START
G1 F8640
G1 X136.86 Y87.615 E-.01373
G1 X136.908 Y87.639 E-.01239
G1 X136.946 Y87.752 E-.02753
G1 X136.946 Y90.984 E-.74635
;WIPE_END
G1 Z.6 F720
G1 X156.201 Y119.123 F10800
G1 Z.2 F720
G1 E.8 F2100
M204 S800
;TYPE:Perimeter
G1 F900
G1 X156.147 Y119.198 E.0029
G1 X156.006 Y119.275 E.00504
G1 X155.807 Y119.311 E.00634
G1 X141.364 Y119.311 E.45285
G1 X141.166 Y119.275 E.00631
G1 X140.912 Y119.084 E.00996
G1 X140.807 Y118.843 E.00824
G1 X140.799 Y118.745 E.00308
G1 X140.799 Y104.302 E.45285
G1 X140.873 Y104.023 E.00905
G1 X141.025 Y103.85 E.00722
G1 X141.315 Y103.739 E.00974
G1 X141.364 Y103.737 E.00154
G1 X155.807 Y103.737 E.45285
G1 X156.006 Y103.773 E.00634
G1 X156.26 Y103.963 E.00995
G1 X156.342 Y104.119 E.00553
G1 X156.373 Y104.302 E.00582
G1 X156.373 Y118.745 E.45285
G1 X156.342 Y118.928 E.00582
G1 X156.236 Y119.074 E.00566
M204 S1000
G1 X155.944 Y118.848 F10800
M204 S800
;TYPE:External perimeter
G1 F900
G1 X155.92 Y118.896 E.00168
G1 X155.807 Y118.934 E.00374
G1 X141.364 Y118.934 E.45285
G1 X141.214 Y118.858 E.00527
G1 X141.176 Y118.745 E.00374
G1 X141.176 Y104.302 E.45285
G1 X141.241 Y104.16 E.0049
G1 X141.364 Y104.114 E.00412
G1 X155.807 Y104.114 E.45285
G1 X155.958 Y104.189 E.00529
G1 X155.996 Y104.302 E.00374
G1 X155.996 Y118.745 E.45285
G1 X155.971 Y118.794 E.00172
M204 S1000
;WIPE_START
G1 F8640
G1 X155.944 Y118.848 E-.01394
G1 X155.92 Y118.896 E-.01239
G1 X155.807 Y118.934 E-.02753
G1 X152.576 Y118.934 E-.74614
;WIPE_END
G1 Z.6 F720
G1 X156.201 Y100.073 F10800
G1 Z.2 F720
G1 E.8 F2100
M204 S800
;TYPE:Perimeter
G1 F900
G1 X156.147 Y100.148 E.0029
G1 X156.006 Y100.225 E.00504
G1 X155.807 Y100.261 E.00634
G1 X141.364 Y100.261 E.45285
G1 X141.166 Y100.225 E.00631
G1 X140.912 Y100.035 E.00995
G1 X140.807 Y99.793 E.00827
G1 X140.799 Y99.695 E.00308
G1 X140.799 Y85.252 E.45285
G1 X140.873 Y84.973 E.00905
G1 X141.025 Y84.8 E.00722
G1 X141.315 Y84.689 E.00974
G1 X141.364 Y84.687 E.00154
G1 X155.807 Y84.687 E.45285
G1 X156.006 Y84.723 E.00634
G1 X156.26 Y84.913 E.00995
G1 X156.342 Y85.069 E.00553
G1 X156.373 Y85.252 E.00582
G1 X156.373 Y96.331 E.34737
G1 X156.373 Y99.695 E.10548
G1 X156.342 Y99.879 E.00585
G1 X156.236 Y100.024 E.00563
M204 S1000
G1 X155.944 Y99.798 F10800
M204 S800
;TYPE:External perimeter
G1 F900
G1 X155.92 Y99.846 E.00168
G1 X155.807 Y99.884 E.00374
G1 X141.364 Y99.884 E.45285
G1 X141.214 Y99.808 E.00527
G1 X141.176 Y99.695 E.00374
G1 X141.176 Y85.252 E.45285
G1 X141.241 Y85.11 E.0049
G1 X141.364 Y85.064 E.00412
G1 X155.807 Y85.064 E.45285
G1 X155.958 Y85.139 E.00529
G1 X155.996 Y85.252 E.00374
G1 X155.996 Y96.331 E.34737
G1 X155.996 Y99.695 E.10548
G1 X155.971 Y99.744 E.00172
M204 S1000
;WIPE_START
G1 F8640
G1 X155.944 Y99.798 E-.01394
G1 X155.92 Y99.846 E-.01239
G1 X155.807 Y99.884 E-.02753
G1 X152.576 Y99.884 E-.74614
;WIPE_END
G1 Z.6 F720
G1 X160.035 Y95.189 F10800
G1 Z.2 F720
G1 E.8 F2100
M204 S800
;TYPE:Perimeter
G1 F900
G1 X159.962 Y95.135 E.00285
G1 X159.857 Y94.893 E.00827
G1 X159.849 Y94.795 E.00308
G1 X159.849 Y80.645 E.44366
G1 X159.879 Y80.169 E.01495
G1 X160.075 Y79.9 E.01044
G1 X160.312 Y79.796 E.00811
G1 X160.414 Y79.787 E.00321
G1 X174.857 Y79.787 E.45285
G1 X175.135 Y79.86 E.00901
G1 X175.318 Y80.025 E.00773
G1 X175.39 Y80.163 E.00488
G1 X175.423 Y80.352 E.00602
G1 X175.423 Y94.795 E.45285
G1 X175.396 Y94.969 E.00552
G1 X175.221 Y95.229 E.00983
G1 X175.031 Y95.334 E.00681
G1 X174.163 Y95.361 E.02723
G1 X160.414 Y95.361 E.43109
G1 X160.216 Y95.325 E.00631
G1 X160.083 Y95.225 E.00522
M204 S1000
G1 X160.312 Y94.932 F10800
M204 S800
;TYPE:External perimeter
G1 F900
G1 X160.264 Y94.908 E.00168
G1 X160.226 Y94.795 E.00374
G1 X160.226 Y80.645 E.44366
G1 X160.236 Y80.291 E.0111
G1 X160.342 Y80.178 E.00486
G1 X160.414 Y80.164 E.0023
G1 X174.857 Y80.164 E.45285
G1 X174.986 Y80.215 E.00435
G1 X175.046 Y80.352 E.00469
G1 X175.046 Y94.795 E.45285
G1 X174.972 Y94.945 E.00524
G1 X174.857 Y94.984 E.00381
G1 X160.414 Y94.984 E.45285
G1 X160.365 Y94.959 E.00172
M204 S1000
;WIPE_START
G1 F8640
G1 X160.312 Y94.932 E-.01373
G1 X160.264 Y94.908 E-.01239
G1 X160.226 Y94.795 E-.02753
G1 X160.226 Y91.563 E-.74635
;WIPE_END
G1 Z.6 F720
G1 X156.201 Y81.023 F10800
G1 Z.2 F720
G1 E.8 F2100
M204 S800
;TYPE:Perimeter
G1 F900
G1 X156.147 Y81.098 E.0029
G1 X156.006 Y81.175 E.00504
G1 X155.807 Y81.211 E.00634
G1 X141.364 Y81.211 E.45285
G1 X141.166 Y81.175 E.00631
G1 X140.912 Y80.985 E.00995
G1 X140.807 Y80.743 E.00827
G1 X140.799 Y80.645 E.00308
G1 X140.799 Y66.202 E.45285
G1 X140.842 Y65.985 E.00694
G1 X140.945 Y65.824 E.00599
G1 X141.125 Y65.69 E.00704
G1 X141.364 Y65.637 E.00768
G1 X155.807 Y65.637 E.45285
G1 X156.082 Y65.708 E.00891
M73 Q0 S172
G1 X156.27 Y65.877 E.00793
G1 X156.35 Y66.044 E.00581
G1 X156.373 Y66.202 E.00501
G1 X156.373 Y80.645 E.45285
G1 X156.342 Y80.829 E.00585
G1 X156.236 Y80.975 E.00566
M204 S1000
G1 X155.944 Y80.748 F10800
M204 S800
;TYPE:External perimeter
G1 F900
G1 X155.92 Y80.796 E.00168
G1 X155.807 Y80.834 E.00374
G1 X141.364 Y80.834 E.45285
G1 X141.214 Y80.758 E.00527
G1 X141.176 Y80.645 E.00374
G1 X141.176 Y66.202 E.45285
G1 X141.225 Y66.076 E.00424
G1 X141.364 Y66.014 E.00477
G1 X155.807 Y66.014 E.45285
G1 X155.961 Y66.094 E.00544
G1 X155.996 Y66.202 E.00356
G1 X155.996 Y80.645 E.45285
G1 X155.971 Y80.694 E.00172
M204 S1000
;WIPE_START
G1 F8640
G1 X155.944 Y80.748 E-.01394
G1 X155.92 Y80.796 E-.01239
G1 X155.807 Y80.834 E-.02753
G1 X152.576 Y80.834 E-.74614
;WIPE_END
G1 Z.6 F720
G1 X178.094 Y98.716 F10800
G1 Z.2 F720
G1 E.8 F2100
M204 S800
;TYPE:Perimeter
G1 F900
G1 X177.983 Y98.79 E.00418
G1 X177.577 Y98.938 E.01355
G1 X177.087 Y98.983 E.01543
G1 X176.602 Y98.9 E.01543
G1 X176.155 Y98.694 E.01543
G1 X175.776 Y98.379 E.01545
G1 X175.469 Y97.921 E.01729
G1 X175.322 Y97.515 E.01354
G1 X175.277 Y97.025 E.01543
G1 X175.322 Y96.682 E.01085
G1 X175.492 Y96.221 E.01541
G1 X175.792 Y95.799 E.01623
G1 X176.155 Y95.504 E.01467
G1 X176.602 Y95.298 E.01543
G1 X177.134 Y95.215 E.01688
G1 X177.719 Y95.298 E.01853
G1 X178.167 Y95.504 E.01546
G1 X178.545 Y95.819 E.01543
G1 X178.852 Y96.276 E.01726
G1 X179 Y96.682 E.01355
G1 X179.045 Y97.173 E.01546
G1 X178.962 Y97.658 E.01543
G1 X178.755 Y98.105 E.01545
G1 X178.441 Y98.483 E.01541
G1 X178.144 Y98.682 E.01121
M204 S1000
G1 X177.909 Y98.394 F10800
M204 S800
;TYPE:External perimeter
G1 F900
G1 X177.839 Y98.442 E.00266
G1 X177.528 Y98.564 E.01047
G1 X177.136 Y98.609 E.01237
G1 X176.746 Y98.551 E.01236
G1 X176.384 Y98.394 E.01237
G1 X176.075 Y98.149 E.01236
G1 X175.817 Y97.777 E.01419
G1 X175.696 Y97.466 E.01046
G1 X175.65 Y97.074 E.01238
G1 X175.696 Y96.732 E.01082
G1 X175.865 Y96.322 E.0139
G1 X176.11 Y96.013 E.01236
G1 X176.483 Y95.755 E.01422
G1 X176.794 Y95.634 E.01046
G1 X177.145 Y95.593 E.01108
G1 X177.575 Y95.646 E.01358
G1 X177.937 Y95.803 E.01237
G1 X178.246 Y96.048 E.01236
G1 X178.504 Y96.421 E.01422
G1 X178.626 Y96.732 E.01047
G1 X178.671 Y97.123 E.01234
G1 X178.613 Y97.513 E.01236
G1 X178.456 Y97.875 E.01237
G1 X178.211 Y98.184 E.01236
G1 X177.958 Y98.36 E.00966
M204 S1000
;WIPE_START
G1 F8640
G1 X177.909 Y98.394 E-.01377
G1 X177.839 Y98.442 E-.0196
G1 X177.528 Y98.564 E-.07714
G1 X177.136 Y98.609 E-.09111
G1 X176.746 Y98.551 E-.09104
G1 X176.384 Y98.394 E-.09111
G1 X176.075 Y98.149 E-.09105
G1 X175.817 Y97.777 E-.10453
G1 X175.696 Y97.466 E-.07705
G1 X175.65 Y97.074 E-.09113
G1 X175.68 Y96.849 E-.05247
;WIPE_END
G1 Z.6 F720
G1 X160.035 Y114.239 F10800
G1 Z.2 F720
G1 E.8 F2100
M204 S800
;TYPE:Perimeter
G1 F900
G1 X159.962 Y114.184 E.00287
G1 X159.857 Y113.943 E.00824
G1 X159.849 Y113.845 E.00308
G1 X159.849 Y99.402 E.45285
G1 X159.879 Y99.219 E.00581
G1 X160.075 Y98.95 E.01044
G1 X160.365 Y98.839 E.00974
G1 X160.414 Y98.837 E.00154
G1 X174.885 Y98.837 E.45373
G1 X175.031 Y98.864 E.00466
G1 X175.29 Y99.039 E.0098
G1 X175.396 Y99.229 E.00682
G1 X175.423 Y100.097 E.02723
G1 X175.423 Y113.845 E.43106
G1 X175.363 Y114.098 E.00815
G1 X175.197 Y114.298 E.00815
G1 X174.994 Y114.394 E.00704
G1 X174.857 Y114.411 E.00433
G1 X160.414 Y114.411 E.45285
G1 X160.216 Y114.375 E.00631
M73 P0 R171
G1 X160.083 Y114.275 E.00522
M204 S1000
G1 X160.312 Y113.982 F10800
M204 S800
;TYPE:External perimeter
G1 F900
G1 X160.264 Y113.958 E.00168
G1 X160.226 Y113.845 E.00374
G1 X160.226 Y99.402 E.45285
G1 X160.301 Y99.251 E.00529
G1 X160.414 Y99.214 E.00373
G1 X174.867 Y99.214 E.45316
G1 X175.007 Y99.287 E.00495
G1 X175.046 Y99.402 E.00381
G1 X175.046 Y113.845 E.45285
G1 X174.99 Y113.978 E.00452
G1 X174.857 Y114.034 E.00452
G1 X160.414 Y114.034 E.45285
G1 X160.365 Y114.009 E.00172
M204 S1000
;WIPE_START
G1 F8640
G1 X160.312 Y113.982 E-.01373
G1 X160.264 Y113.958 E-.01239
G1 X160.226 Y113.845 E-.02753
G1 X160.226 Y110.613 E-.74635
;WIPE_END
G1 Z.6 F720
G1 X194.314 Y95.181 F10800
G1 Z.2 F720
G1 E.8 F2100
M204 S800
;TYPE:Perimeter
G1 F900
G1 X194.297 Y95.205 E.00092
G1 X194.033 Y95.347 E.0094
G1 X193.907 Y95.361 E.00397
G1 X180.159 Y95.361 E.43106
G1 X179.464 Y95.361 E.02179
G1 X179.291 Y95.334 E.00549
G1 X179.101 Y95.229 E.00681
G1 X178.926 Y94.969 E.00983
G1 X178.899 Y94.057 E.02861
G1 X178.899 Y80.352 E.42971
G1 X178.931 Y80.163 E.00601
G1 X179.077 Y79.94 E.00836
G1 X179.298 Y79.812 E.00801
G1 X179.464 Y79.787 E.00526
G1 X193.907 Y79.787 E.45285
G1 X194.191 Y79.863 E.00922
G1 X194.387 Y80.054 E.00858
G1 X194.473 Y80.352 E.00972
G1 X194.473 Y94.795 E.45285
G1 X194.423 Y95.027 E.00744
G1 X194.349 Y95.132 E.00403
M204 S1000
G1 X194.052 Y94.897 F10800
M204 S800
;TYPE:External perimeter
G1 F900
G1 X194.037 Y94.932 E.00119
G1 X193.907 Y94.984 E.00439
G1 X180.159 Y94.984 E.43106
G1 X179.464 Y94.984 E.02179
G1 X179.315 Y94.91 E.00522
G1 X179.276 Y94.795 E.00381
G1 X179.276 Y80.352 E.45285
G1 X179.335 Y80.215 E.00468
G1 X179.464 Y80.164 E.00435
G1 X193.907 Y80.164 E.45285
G1 X194.05 Y80.23 E.00494
M73 P1 R171
M73 Q1 S172
G1 X194.096 Y80.352 E.00409
G1 X194.096 Y94.795 E.45285
G1 X194.076 Y94.841 E.00157
M204 S1000
;WIPE_START
G1 F8640
G1 X194.052 Y94.897 E-.01407
G1 X194.037 Y94.932 E-.00879
G1 X193.907 Y94.984 E-.03233
G1 X190.681 Y94.984 E-.74481
;WIPE_END
G1 Z.6 F720
G1 X194.314 Y114.231 F10800
G1 Z.2 F720
G1 E.8 F2100
M204 S800
;TYPE:Perimeter
G1 F900
G1 X194.297 Y114.255 E.00092
G1 X194.033 Y114.397 E.0094
G1 X193.907 Y114.411 E.00397
G1 X179.464 Y114.411 E.45285
G1 X179.327 Y114.394 E.00433
G1 X179.064 Y114.245 E.00948
G1 X178.916 Y113.982 E.00946
G1 X178.899 Y113.845 E.00433
G1 X178.899 Y99.402 E.45285
G1 X178.926 Y99.229 E.00549
G1 X179.031 Y99.039 E.00681
G1 X179.291 Y98.864 E.00983
G1 X180.159 Y98.837 E.02723
G1 X193.907 Y98.837 E.43106
G1 X194.142 Y98.888 E.00754
G1 X194.297 Y98.993 E.00587
G1 X194.423 Y99.17 E.00681
G1 X194.473 Y99.402 E.00744
G1 X194.473 Y113.845 E.45285
G1 X194.423 Y114.077 E.00744
G1 X194.349 Y114.182 E.00403
M204 S1000
G1 X194.052 Y113.946 F10800
M204 S800
;TYPE:External perimeter
G1 F900
G1 X194.037 Y113.982 E.00122
G1 X193.907 Y114.034 E.00439
G1 X179.419 Y114.028 E.45426
G1 X179.296 Y113.929 E.00495
G1 X179.276 Y113.845 E.00271
G1 X179.276 Y99.402 E.45285
G1 X179.349 Y99.253 E.0052
G1 X179.464 Y99.214 E.00381
G1 X193.907 Y99.214 E.45285
G1 X194.037 Y99.266 E.00439
G1 X194.096 Y99.402 E.00465
G1 X194.096 Y113.845 E.45285
G1 X194.076 Y113.891 E.00157
M204 S1000
;WIPE_START
G1 F8640
G1 X194.052 Y113.946 E-.01386
G1 X194.037 Y113.982 E-.00901
G1 X193.907 Y114.034 E-.03233
G1 X190.681 Y114.033 E-.7448
;WIPE_END
G1 Z.6 F720
G1 X194.314 Y133.281 F10800
G1 Z.2 F720
G1 E.8 F2100
M204 S800
;TYPE:Perimeter
G1 F900
G1 X194.297 Y133.305 E.00092
G1 X194.033 Y133.446 E.00938
G1 X193.907 Y133.461 E.00398
