; generated by PrusaSlicer 2.9.3 on 2025-10-30 at 16:15:21 UTC


;
;
; 

; external perimeters extrusion width = 0.45mm
; perimeters extrusion width = 0.45mm
; infill extrusion width = 0.45mm
; solid infill extrusion width = 0.45mm
; top infill extrusion width = 0.40mm
; first layer extrusion width = 0.42mm

M73 P0 R159
M73 Q0 S160
M201 X1000 Y1000 Z200 E5000 ; sets maximum accelerations, mm/sec^2
M203 X200 Y200 Z12 E120 ; sets maximum feedrates, mm / sec
M204 S1250 T1250 ; sets acceleration (S) and retract acceleration (R), mm/sec^2
M205 X8.00 Y8.00 Z0.40 E4.50 ; sets the jerk limits, mm/sec
M205 S0 T0 ; sets the minimum extruding and travel feed rate, mm/sec

; printing object sofle_pico_keyplate_notched_no_tenting_puck.stl id:0 copy 0
; stop printing object sofle_pico_keyplate_notched_no_tenting_puck.stl id:0 copy 0

;TYPE:Custom
M862.3 P "MK3" ; printer model check
M862.1 P0.4 ; nozzle diameter check
M115 U3.14.1 ; tell printer latest fw version
G90 ; use absolute coordinates
M83 ; extruder relative mode
M104 S215 ; set extruder temp
M140 S60 ; set bed temp
M190 S60 ; wait for bed temp
M109 S215 ; wait for extruder temp
G28 W ; home all without mesh bed level
G80 X40.8226 Y36.8324 W168.859 H140.157 ; mesh bed levelling

G1 Z0.2 F720
G1 Y-3 F1000 ; go outside print area
G92 E0
G1 X60 E9 F1000 ; intro line
G1 X100 E12.5 F1000 ; intro line

G92 E0
M221 S95

; Don't change E values below. Excessive value can damage the printer.
M907 E430 ; set extruder motor current
G21 ; set units to millimeters
G90 ; use absolute coordinates
M83 ; use relative distances for extrusion

M900 K0.05 ; Filament gcode LA 1.5
M900 K30 ; Filament gcode LA 1.0




M107
;LAYER_CHANGE
;Z:0.2
;HEIGHT:0.2
G1 E-.8 F2100
G1 Z.6 F720
G1 X56.887 Y40.777 F10800
G1 Z.2 F720
G1 E.8 F2100
M204 S800
;TYPE:Skirt/Brim
;WIDTH:0.42
G1 F900
G1 X57.933 Y39.63 E.04867
G1 X59.001 Y38.765 E.04309
G1 X60.342 Y37.981 E.0487
G1 X61.619 Y37.474 E.04308
G1 X63.132 Y37.125 E.04868
G1 X64.754 Y37.023 E.05096
G1 X66.438 Y37.207 E.05311
G1 X201.231 Y65.594 E4.31904
G1 X202.24 Y65.882 E.0329
G1 X203.439 Y66.387 E.04079
G1 X204.499 Y67.006 E.03849
G1 X205.527 Y67.804 E.0408
G1 X206.846 Y69.24 E.06114
G1 X207.391 Y70.05 E.03061
G1 X207.882 Y70.977 E.03289
G1 X208.518 Y72.821 E.06116
G1 X208.694 Y73.781 E.0306
G1 X208.776 Y75.006 E.03849
G1 X209.489 Y157.389 E2.58316
G1 X209.304 Y159.004 E.05097
G1 X208.825 Y160.635 E.0533
G1 X207.975 Y162.307 E.05881
G1 X206.989 Y163.6 E.05098
G1 X205.743 Y164.755 E.05327
G1 X204.156 Y165.757 E.05885
G1 X202.577 Y166.384 E.05327
G1 X200.735 Y166.744 E.05885
G1 X76.331 Y176.762 E3.91323
G1 X74.371 Y176.739 E.06146
G1 X72.465 Y176.325 E.06115
G1 X70.681 Y175.538 E.06114
G1 X69.091 Y174.41 E.06112
G1 X68.219 Y173.546 E.03849
G1 X67.566 Y172.724 E.03292
G1 X66.919 Y171.68 E.03851
G1 X66.476 Y170.732 E.03281
G1 X41.62 Y106.794 E2.15089
G1 X41.182 Y105.228 E.05099
G1 X41.012 Y103.611 E.05098
G1 X41.073 Y102.312 E.04077
G1 X41.307 Y101.032 E.0408
G1 X55.158 Y44.32 E1.83043
G1 X55.443 Y43.396 E.03032
G1 X56.125 Y41.92 E.05098
G1 X56.854 Y40.827 E.04119
M204 S1000
;WIPE_START
G1 F8640
G1 X56.887 Y40.777 E-.01383
G1 X57.933 Y39.63 E-.35844
G1 X59.001 Y38.765 E-.31734
G1 X59.414 Y38.524 E-.11039
;WIPE_END
G1 Z.6 F720
; printing object sofle_pico_keyplate_notched_no_tenting_puck.stl id:0 copy 0
G1 X137.137 Y87.358 F10800
G1 Z.2 F720
G1 E.8 F2100
M204 S800
;TYPE:Perimeter
;WIDTH:0.419999
G1 F900
G1 X137.21 Y87.413 E.00287
G1 X137.292 Y87.569 E.00553
G1 X137.323 Y87.752 E.00582
G1 X137.323 Y102.195 E.45285
G1 X137.249 Y102.474 E.00905
G1 X137.097 Y102.648 E.00724
G1 X136.956 Y102.725 E.00504
G1 X136.757 Y102.761 E.00634
G1 X122.265 Y102.759 E.45439
G1 X121.975 Y102.648 E.00974
G1 X121.8 Y102.43 E.00877
G1 X121.749 Y102.195 E.00754
G1 X121.749 Y87.752 E.45285
G1 X121.78 Y87.569 E.00582
G1 X121.975 Y87.3 E.01042
G1 X122.265 Y87.189 E.00974
G1 X122.315 Y87.187 E.00157
G1 X136.757 Y87.187 E.45282
G1 X136.956 Y87.223 E.00634
M73 Q0 S159
G1 X137.089 Y87.322 E.0052
M204 S1000
G1 X136.86 Y87.615 F10800
M204 S800
;TYPE:External perimeter
G1 F900
G1 X136.908 Y87.639 E.00168
G1 X136.946 Y87.752 E.00374
G1 X136.946 Y102.195 E.45285
G1 X136.881 Y102.338 E.00493
G1 X136.757 Y102.384 E.00415
G1 X122.298 Y102.383 E.45335
G1 X122.165 Y102.31 E.00476
G1 X122.126 Y102.195 E.00381
G1 X122.126 Y87.752 E.45285
G1 X122.201 Y87.602 E.00526
G1 X122.315 Y87.564 E.00377
G1 X136.757 Y87.564 E.45282
G1 X136.807 Y87.588 E.00174
M204 S1000
;WIPE_START
G1 F8640
G1 X136.86 Y87.615 E-.01373
G1 X136.908 Y87.639 E-.01239
G1 X136.946 Y87.752 E-.02753
G1 X136.946 Y90.984 E-.74635
;WIPE_END
G1 Z.6 F720
G1 X118.101 Y119.123 F10800
G1 Z.2 F720
G1 E.8 F2100
M204 S800
;TYPE:Perimeter
G1 F900
G1 X118.047 Y119.198 E.0029
G1 X117.906 Y119.275 E.00504
G1 X117.708 Y119.311 E.00631
G1 X103.265 Y119.311 E.45285
G1 X103.066 Y119.275 E.00634
G1 X102.816 Y119.089 E.00977
G1 X102.711 Y118.86 E.0079
G1 X102.699 Y117.781 E.03383
G1 X102.699 Y104.302 E.42262
G1 X102.79 Y103.995 E.01004
G1 X103.008 Y103.798 E.00921
G1 X103.265 Y103.737 E.00828
G1 X117.708 Y103.737 E.45285
G1 X117.906 Y103.773 E.00631
G1 X118.157 Y103.958 E.00978
G1 X118.261 Y104.188 E.00791
G1 X118.273 Y105.267 E.03383
G1 X118.273 Y118.745 E.42259
G1 X118.243 Y118.928 E.00581
G1 X118.137 Y119.074 E.00566
M204 S1000
G1 X117.845 Y118.848 F10800
M204 S800
;TYPE:External perimeter
G1 F900
G1 X117.821 Y118.896 E.00168
G1 X117.774 Y118.922 E.00168
G1 X103.265 Y118.934 E.45492
G1 X103.115 Y118.86 E.00524
G1 X103.076 Y118.745 E.00381
G1 X103.076 Y104.302 E.45285
G1 X103.151 Y104.152 E.00526
G1 X103.265 Y104.114 E.00377
G1 X117.708 Y104.114 E.45285
G1 X117.857 Y104.188 E.00522
G1 X117.896 Y104.302 E.00378
G1 X117.896 Y118.745 E.45285
G1 X117.872 Y118.794 E.00171
M73 P0 R158
M204 S1000
;WIPE_START
G1 F8640
G1 X117.845 Y118.848 E-.01394
G1 X117.821 Y118.896 E-.01239
G1 X117.774 Y118.922 E-.0124
G1 X114.477 Y118.925 E-.76127
;WIPE_END
G1 Z.6 F720
G1 X137.153 Y121.633 F10800
G1 Z.2 F720
G1 E.8 F2100
M204 S800
;TYPE:Perimeter
G1 F900
G1 X137.097 Y121.698 E.00269
G1 X136.956 Y121.775 E.00504
G1 X136.757 Y121.811 E.00634
G1 X122.315 Y121.811 E.45282
G1 X122.116 Y121.775 E.00634
G1 X121.866 Y121.589 E.00977
G1 X121.761 Y121.36 E.0079
G1 X121.749 Y106.802 E.45646
G1 X121.78 Y106.619 E.00582
G1 X121.975 Y106.35 E.01042
G1 X122.265 Y106.239 E.00974
G1 X122.315 Y106.237 E.00157
G1 X136.757 Y106.237 E.45282
G1 X136.956 Y106.273 E.00634
G1 X137.21 Y106.463 E.00995
G1 X137.292 Y106.619 E.00553
G1 X137.323 Y106.802 E.00582
G1 X137.323 Y121.245 E.45285
G1 X137.249 Y121.524 E.00905
G1 X137.193 Y121.588 E.00267
M204 S1000
G1 X136.899 Y121.347 F10800
M204 S800
;TYPE:External perimeter
G1 F900
G1 X136.881 Y121.388 E.0014
G1 X136.757 Y121.434 E.00415
G1 X122.315 Y121.434 E.45282
G1 X122.165 Y121.36 E.00524
G1 X122.126 Y121.245 E.00381
G1 X122.126 Y106.802 E.45285
G1 X122.201 Y106.651 E.00529
G1 X122.315 Y106.614 E.00376
G1 X136.757 Y106.614 E.45282
G1 X136.908 Y106.689 E.00529
G1 X136.946 Y106.802 E.00374
G1 X136.946 Y121.245 E.45285
G1 X136.924 Y121.292 E.00163
M204 S1000
;WIPE_START
G1 F8640
G1 X136.899 Y121.347 E-.01395
G1 X136.881 Y121.388 E-.01034
G1 X136.757 Y121.434 E-.03054
G1 X133.53 Y121.434 E-.74517
;WIPE_END
G1 Z.6 F720
G1 X137.153 Y140.683 F10800
G1 Z.2 F720
G1 E.8 F2100
M204 S800
;TYPE:Perimeter
G1 F900
G1 X137.097 Y140.747 E.00267
G1 X136.956 Y140.824 E.00504
G1 X136.757 Y140.861 E.00635
G1 X122.315 Y140.861 E.45282
G1 X122.116 Y140.824 E.00635
G1 X121.866 Y140.639 E.00975
G1 X121.761 Y140.41 E.0079
G1 X121.749 Y139.331 E.03383
G1 X121.749 Y125.852 E.42262
G1 X121.78 Y125.669 E.00582
G1 X121.975 Y125.4 E.01042
G1 X122.265 Y125.289 E.00974
G1 X122.315 Y125.286 E.00157
G1 X136.757 Y125.286 E.45282
G1 X136.956 Y125.322 E.00634
G1 X137.21 Y125.513 E.00996
G1 X137.292 Y125.669 E.00553
G1 X137.323 Y125.852 E.00582
G1 X137.323 Y140.295 E.45285
G1 X137.249 Y140.574 E.00905
G1 X137.193 Y140.638 E.00267
M204 S1000
G1 X136.896 Y140.395 F10800
M204 S800
;TYPE:External perimeter
G1 F900
G1 X136.871 Y140.446 E.00178
G1 X136.757 Y140.483 E.00376
G1 X122.315 Y140.483 E.45282
G1 X122.165 Y140.41 E.00523
G1 X122.126 Y140.295 E.00381
G1 X122.126 Y125.852 E.45285
G1 X122.201 Y125.701 E.00529
G1 X122.315 Y125.664 E.00376
G1 X136.757 Y125.664 E.45282
G1 X136.908 Y125.739 E.00529
G1 X136.946 Y125.852 E.00374
G1 X136.946 Y140.295 E.45285
G1 X136.923 Y140.342 E.00164
M204 S1000
;WIPE_START
G1 F8640
G1 X136.896 Y140.395 E-.01373
G1 X136.871 Y140.446 E-.01311
G1 X136.757 Y140.483 E-.02767
G1 X133.528 Y140.483 E-.74549
;WIPE_END
G1 Z.6 F720
G1 X137.163 Y159.734 F10800
G1 Z.2 F720
G1 E.8 F2100
M204 S800
;TYPE:Perimeter
G1 F900
G1 X137.145 Y159.756 E.00089
G1 X136.855 Y159.902 E.01018
G1 X136.757 Y159.91 E.00308
G1 X122.315 Y159.91 E.45282
G1 X122.075 Y159.857 E.00771
G1 X121.895 Y159.724 E.00702
G1 X121.792 Y159.562 E.00602
G1 X121.749 Y159.345 E.00694
G1 X121.749 Y144.902 E.45285
G1 X121.78 Y144.718 E.00585
G1 X121.975 Y144.449 E.01042
G1 X122.265 Y144.338 E.00974
G1 X122.315 Y144.336 E.00157
G1 X136.757 Y144.336 E.45282
G1 X136.956 Y144.372 E.00634
G1 X137.21 Y144.563 E.00996
G1 X137.292 Y144.718 E.0055
G1 X137.323 Y144.902 E.00585
G1 X137.323 Y159.345 E.45285
G1 X137.255 Y159.614 E.0087
G1 X137.199 Y159.686 E.00286
M204 S1000
G1 X136.902 Y159.446 F10800
M204 S800
;TYPE:External perimeter
G1 F900
G1 X136.887 Y159.482 E.00122
G1 X136.757 Y159.533 E.00438
G1 X122.315 Y159.533 E.45282
G1 X122.175 Y159.471 E.0048
G1 X122.126 Y159.345 E.00424
G1 X122.126 Y144.902 E.45285
G1 X122.201 Y144.751 E.00529
G1 X122.315 Y144.713 E.00377
G1 X136.757 Y144.713 E.45282
G1 X136.908 Y144.789 E.0053
G1 X136.946 Y144.902 E.00374
G1 X136.946 Y159.345 E.45285
G1 X136.926 Y159.391 E.00157
M204 S1000
;WIPE_START
G1 F8640
G1 X136.902 Y159.446 E-.01386
G1 X136.887 Y159.482 E-.00901
G1 X136.757 Y159.533 E-.03224
G1 X133.531 Y159.533 E-.74489
;WIPE_END
G1 Z.6 F720
G1 X156.211 Y157.234 F10800
G1 Z.2 F720
G1 E.8 F2100
M204 S800
;TYPE:Perimeter
G1 F900
G1 X156.187 Y157.264 E.0012
G1 X155.976 Y157.385 E.00763
G1 X155.807 Y157.41 E.00536
G1 X141.364 Y157.41 E.45285
G1 X141.101 Y157.346 E.00849
G1 X140.93 Y157.207 E.00691
G1 X140.807 Y156.942 E.00916
G1 X140.799 Y156.845 E.00305
G1 X140.799 Y142.402 E.45285
G1 X140.873 Y142.123 E.00905
G1 X141.025 Y141.949 E.00724
G1 X141.315 Y141.838 E.00974
G1 X141.364 Y141.836 E.00154
G1 X155.807 Y141.836 E.45285
G1 X156.006 Y141.872 E.00634
G1 X156.26 Y142.063 E.00996
G1 X156.342 Y142.218 E.0055
G1 X156.373 Y142.402 E.00585
G1 X156.373 Y156.845 E.45285
G1 X156.3 Y157.122 E.00898
G1 X156.248 Y157.187 E.00261
M204 S1000
G1 X155.951 Y156.946 F10800
M204 S800
;TYPE:External perimeter
G1 F900
G1 X155.934 Y156.985 E.00133
G1 X155.807 Y157.033 E.00426
G1 X141.364 Y157.033 E.45285
G1 X141.22 Y156.965 E.00499
G1 X141.176 Y156.845 E.00401
G1 X141.176 Y142.402 E.45285
G1 X141.201 Y142.309 E.00302
G1 X141.298 Y142.225 E.00402
G1 X141.364 Y142.213 E.0021
G1 X155.807 Y142.213 E.45285
G1 X155.958 Y142.289 E.0053
G1 X155.996 Y142.402 E.00374
G1 X155.996 Y156.845 E.45285
G1 X155.975 Y156.892 E.00161
M204 S1000
;WIPE_START
G1 F8640
G1 X155.951 Y156.946 E-.01364
G1 X155.934 Y156.985 E-.00982
G1 X155.807 Y157.033 E-.03135
G1 X152.58 Y157.033 E-.74519
;WIPE_END
G1 Z.6 F720
G1 X156.201 Y138.173 F10800
G1 Z.2 F720
G1 E.8 F2100
M204 S800
;TYPE:Perimeter
G1 F900
G1 X156.147 Y138.247 E.00287
G1 X156.006 Y138.325 E.00505
G1 X155.807 Y138.361 E.00634
G1 X141.364 Y138.361 E.45285
G1 X141.166 Y138.325 E.00631
M73 P1 R158
M73 Q1 S159
G1 X140.912 Y138.134 E.00996
G1 X140.807 Y137.893 E.00824
G1 X140.799 Y137.795 E.00308
G1 X140.799 Y123.352 E.45285
G1 X140.873 Y123.073 E.00905
G1 X141.025 Y122.9 E.00722
G1 X141.315 Y122.789 E.00974
G1 X141.364 Y122.786 E.00154
G1 X155.807 Y122.786 E.45285
G1 X156.006 Y122.822 E.00634
G1 X156.26 Y123.013 E.00996
G1 X156.342 Y123.169 E.00553
G1 X156.373 Y123.352 E.00582
G1 X156.373 Y137.795 E.45285
G1 X156.342 Y137.978 E.00582
G1 X156.236 Y138.124 E.00566
M204 S1000
G1 X155.944 Y137.898 F10800
M204 S800
;TYPE:External perimeter
G1 F900
G1 X155.92 Y137.946 E.00168
G1 X155.807 Y137.983 E.00373
G1 X141.364 Y137.983 E.45285
G1 X141.214 Y137.908 E.00526
G1 X141.176 Y137.795 E.00374
G1 X141.176 Y123.352 E.45285
G1 X141.241 Y123.209 E.00493
G1 X141.364 Y123.164 E.00411
G1 X155.807 Y123.164 E.45285
G1 X155.958 Y123.239 E.00529
G1 X155.996 Y123.352 E.00374
G1 X155.996 Y137.795 E.45285
G1 X155.971 Y137.844 E.00172
M204 S1000
;WIPE_START
G1 F8640
G1 X155.944 Y137.898 E-.01394
G1 X155.92 Y137.946 E-.01239
G1 X155.807 Y137.983 E-.02746
G1 X152.575 Y137.983 E-.74621
;WIPE_END
G1 Z.6 F720
G1 X175.26 Y152.334 F10800
G1 Z.2 F720
G1 E.8 F2100
M204 S800
;TYPE:Perimeter
G1 F900
G1 X175.234 Y152.366 E.00129
G1 X174.997 Y152.493 E.00843
G1 X174.857 Y152.51 E.00442
G1 X160.414 Y152.51 E.45285
G1 X160.231 Y152.48 E.00581
G1 X159.977 Y152.303 E.00971
G1 X159.857 Y152.043 E.00898
G1 X159.849 Y151.945 E.00308
G1 X159.849 Y137.502 E.45285
G1 X159.879 Y137.319 E.00581
G1 X160.075 Y137.049 E.01046
G1 X160.365 Y136.939 E.00972
G1 X160.414 Y136.936 E.00154
G1 X174.857 Y136.936 E.45285
G1 X175.042 Y136.967 E.00588
G1 X175.294 Y137.143 E.00964
G1 X175.399 Y137.34 E.007
G1 X175.423 Y138.225 E.02776
G1 X175.423 Y151.945 E.43018
G1 X175.351 Y152.221 E.00894
M73 Q1 S158
G1 X175.298 Y152.287 E.00265
M204 S1000
G1 X175 Y152.047 F10800
M204 S800
;TYPE:External perimeter
G1 F900
G1 X174.983 Y152.085 E.00131
G1 X174.857 Y152.133 E.00423
G1 X160.414 Y152.133 E.45285
G1 X160.268 Y152.064 E.00506
G1 X160.226 Y151.945 E.00396
G1 X160.226 Y137.502 E.45285
G1 X160.301 Y137.351 E.00529
G1 X160.414 Y137.313 E.00374
G1 X174.857 Y137.313 E.45285
G1 X175.003 Y137.382 E.00506
G1 X175.046 Y137.502 E.004
G1 X175.046 Y151.945 E.45285
G1 X175.025 Y151.992 E.00161
M204 S1000
;WIPE_START
G1 F8640
G1 X175 Y152.047 E-.01395
G1 X174.983 Y152.085 E-.00961
G1 X174.857 Y152.133 E-.03113
G1 X171.629 Y152.133 E-.74531
;WIPE_END
G1 Z.6 F720
G1 X194.3 Y152.332 F10800
G1 Z.2 F720
G1 E.8 F2100
M204 S800
;TYPE:Perimeter
G1 F900
G1 X194.226 Y152.412 E.00342
G1 X194.053 Y152.491 E.00596
G1 X193.123 Y152.51 E.02917
G1 X179.464 Y152.51 E.42827
G1 X179.32 Y152.492 E.00455
G1 X179.087 Y152.366 E.00831
G1 X178.971 Y152.221 E.00582
G1 X178.899 Y151.945 E.00894
G1 X178.899 Y137.502 E.45285
G1 X178.925 Y137.33 E.00545
G1 X179.031 Y137.138 E.00688
G1 X179.293 Y136.963 E.00988
G1 X180.16 Y136.936 E.0272
G1 X193.907 Y136.936 E.43103
G1 X194.142 Y136.987 E.00754
G1 X194.297 Y137.092 E.00587
G1 X194.423 Y137.27 E.00684
G1 X194.473 Y137.502 E.00744
G1 X194.473 Y151.945 E.45285
G1 X194.398 Y152.225 E.00909
G1 X194.34 Y152.288 E.00268
M204 S1000
G1 X194.048 Y152.047 F10800
M204 S800
;TYPE:External perimeter
G1 F900
G1 X194.029 Y152.089 E.00145
G1 X193.907 Y152.133 E.00407
G1 X179.416 Y152.127 E.45435
G1 X179.3 Y152.037 E.0046
G1 X179.276 Y151.945 E.00298
G1 X179.276 Y137.502 E.45285
G1 X179.349 Y137.352 E.00523
G1 X179.464 Y137.313 E.00381
G1 X193.907 Y137.313 E.45285
G1 X194.037 Y137.365 E.00439
M73 P1 R157
G1 X194.096 Y137.502 E.00468
G1 X194.096 Y151.945 E.45285
G1 X194.074 Y151.993 E.00166
M204 S1000
;WIPE_START
G1 F8640
G1 X194.048 Y152.047 E-.01384
G1 X194.029 Y152.089 E-.01064
G1 X193.907 Y152.133 E-.02995
G1 X190.678 Y152.132 E-.74557
;WIPE_END
G1 Z.6 F720
G1 X175.849 Y133.887 F10800
G1 Z.2 F720
G1 E.8 F2100
M204 S800
;TYPE:Perimeter
G1 F900
G1 X175.895 Y133.829 E.00232
G1 X176.358 Y133.52 E.01745
G1 X176.759 Y133.374 E.01338
G1 X177.2 Y133.332 E.01389
G1 X177.734 Y133.413 E.01693
G1 X178.182 Y133.619 E.01546
G1 X178.56 Y133.933 E.01541
G1 X178.858 Y134.368 E.01653
G1 X179.015 Y134.797 E.01432
G1 X179.06 Y135.287 E.01543
G1 X178.977 Y135.772 E.01543
G1 X178.77 Y136.219 E.01545
G1 X178.456 Y136.598 E.01543
G1 X178.003 Y136.903 E.01712
G1 X177.735 Y137.014 E.0091
G1 X177.172 Y137.102 E.01787
G1 X176.617 Y137.014 E.01762
G1 X176.17 Y136.808 E.01543
G1 X175.791 Y136.494 E.01543
G1 X175.507 Y136.092 E.01543
G1 X175.337 Y135.63 E.01544
G1 X175.292 Y135.14 E.01543
G1 X175.375 Y134.654 E.01546
G1 X175.559 Y134.252 E.01386
