; generated by PrusaSlicer 2.9.4 on 2025-11-16 at 05:14:23 UTC


;
;
; 

; external perimeters extrusion width = 0.60mm
; perimeters extrusion width = 0.50mm
; infill extrusion width = 0.50mm
; solid infill extrusion width = 0.50mm
; top infill extrusion width = 0.45mm
; support material extrusion width = 0.38mm
; first layer extrusion width = 0.42mm

M73 P0 R116
M73 Q0 S116
M201 X1000 Y1000 Z200 E5000 ; sets maximum accelerations, mm/sec^2
M203 X200 Y200 Z12 E120 ; sets maximum feedrates, mm / sec
M204 S1250 T1250 ; sets acceleration (S) and retract acceleration (R), mm/sec^2
M205 X8.00 Y8.00 Z0.40 E4.50 ; sets the jerk limits, mm/sec
M205 S0 T0 ; sets the minimum extruding and travel feed rate, mm/sec

; printing object lh_sofle_pico_backplate_v3.4.stl id:0 copy 0
; stop printing object lh_sofle_pico_backplate_v3.4.stl id:0 copy 0

;TYPE:Custom
M862.3 P "MK3S" ; printer model check
M862.1 P0.4 ; nozzle diameter check
M115 U3.14.1 ; tell printer latest fw version
G90 ; use absolute coordinates
M83 ; extruder relative mode
M104 S215 ; set extruder temp
M140 S60 ; set bed temp
M190 S60 ; wait for bed temp
M109 S215 ; wait for extruder temp
G28 W ; home all without mesh bed level
G80 X45.0127 Y39.57 W159.975 H130.855 ; mesh bed levelling

G1 Z0.2 F720
G1 Y-3 F1000 ; go outside print area
G92 E0
G1 X60 E9 F1000 ; intro line
G1 X100 E12.5 F1000 ; intro line

G92 E0
M221 S95

; Don't change E values below. Excessive value can damage the printer.

M907 E538 ; set extruder motor current
G21 ; set units to millimeters
G90 ; use absolute coordinates
M83 ; use relative distances for extrusion

M900 K0.05 ; Filament gcode LA 1.5
M900 K30 ; Filament gcode LA 1.0




M107
;LAYER_CHANGE
;Z:0.2
;HEIGHT:0.2
G1 E-.8 F2100
M73 P0 R115
G1 Z.6 F720
G1 X49.112 Y70.844 F10800
G1 Z.2 F720
G1 E.8 F2100
M204 S800
;TYPE:Skirt/Brim
;WIDTH:0.42
G1 F1200
G1 X50.554 Y70.09 E.05102
G1 X90.199 Y55.503 E1.32451
G1 X183.755 Y39.924 E2.97377
G1 X184.771 Y39.781 E.03217
G1 X185.601 Y39.763 E.02603
G1 X186.722 Y39.861 E.03528
G1 X187.535 Y40.03 E.02604
G1 X188.605 Y40.379 E.03529
G1 X189.359 Y40.727 E.02604
G1 X190.323 Y41.309 E.03531
G1 X190.978 Y41.819 E.02603
G1 X191.786 Y42.602 E.03528
G1 X192.309 Y43.247 E.02604
G1 X192.991 Y44.332 E.04018
G1 X203.906 Y65.753 E.75381
G1 X204.456 Y67.158 E.04731
G1 X204.738 Y68.527 E.04383
G1 X204.799 Y69.518 E.03113
G1 X204.799 Y161.802 E2.8935
G1 X204.591 Y163.548 E.05513
M73 Q0 S115
G1 X204.326 Y164.465 E.02993
G1 X203.94 Y165.396 E.0316
G1 X203.479 Y166.231 E.02991
G1 X202.707 Y167.268 E.04054
G1 X201.83 Y168.145 E.03889
G1 X200.793 Y168.918 E.04055
G1 X199.957 Y169.378 E.02992
G1 X199.027 Y169.764 E.03157
G1 X197.829 Y170.085 E.03889
G1 X196.364 Y170.237 E.04618
G1 X110.648 Y170.232 E2.68756
G1 X52.474 Y162.745 E1.83905
G1 X51.074 Y162.409 E.04514
G1 X49.422 Y161.652 E.05698
G1 X48.475 Y161.002 E.03601
G1 X47.173 Y159.734 E.05698
G1 X46.338 Y158.53 E.04594
G1 X45.608 Y156.866 E.05697
G1 X45.332 Y155.751 E.03602
G1 X45.201 Y154.391 E.04284
G1 X45.201 Y77.912 E2.39795
G1 X45.365 Y76.358 E.049
G1 X45.575 Y75.536 E.0266
G1 X45.982 Y74.461 E.03604
G1 X46.376 Y73.71 E.02659
G1 X47.02 Y72.757 E.03606
G1 X48.228 Y71.502 E.05462
G1 X49.064 Y70.88 E.03267
M204 S1000
;WIPE_START
G1 F8640
G1 X49.112 Y70.844 E-.01385
G1 X50.554 Y70.09 E-.37573
G1 X52.222 Y69.476 E-.41042
;WIPE_END
G1 Z.6 F720
G1 X50.41 Y73.037 F10800
G1 Z.2 F720
G1 E.8 F2100
M204 S800
G1 F1200
G1 X51.409 Y72.413 E.03693
G1 X90.642 Y57.942 E1.31113
G1 X129.348 Y57.787 E1.21361
G1 X183.874 Y42.429 E1.77615
G1 X184.979 Y42.253 E.03508
G1 X186.104 Y42.277 E.03528
G1 X187.521 Y42.619 E.0457
G1 X188.82 Y43.286 E.04578
G1 X189.924 Y44.242 E.04579
G1 X190.752 Y45.399 E.04461
G1 X201.705 Y66.885 E.75616
G1 X202.086 Y67.882 E.03347
G1 X202.291 Y68.93 E.03348
G1 X202.324 Y161.787 E2.91147
G1 X202.151 Y163.081 E.04093
G1 X201.723 Y164.303 E.0406
G1 X200.234 Y166.258 E.07705
G1 X199.289 Y166.927 E.0363
G1 X198.23 Y167.421 E.03664
G1 X196.385 Y167.762 E.05883
G1 X110.804 Y167.762 E2.68333
G1 X52.917 Y160.31 E1.82998
G1 X51.771 Y160.025 E.03703
G1 X50.686 Y159.527 E.03743
G1 X48.977 Y158.03 E.07123
G1 X48.396 Y157.125 E.03372
G1 X47.969 Y156.126 E.03406
G1 X47.676 Y154.41 E.05458
G1 X47.676 Y77.919 E2.39832
G1 X47.843 Y76.638 E.0405
G1 X48.265 Y75.436 E.03994
G1 X48.928 Y74.346 E.04
G1 X49.787 Y73.426 E.03947
G1 X50.359 Y73.069 E.02114
M204 S1000
G1 X50.555 Y73.384 F10800
M204 S800
G1 F1200
G1 X51.557 Y72.76 E.03701
G1 X90.741 Y58.307 E1.3095
G1 X129.4 Y58.164 E1.21213
G1 X183.965 Y42.795 E1.77742
G1 X185.02 Y42.628 E.03349
M73 P0 R114
G1 X186.074 Y42.654 E.03306
G1 X187.409 Y42.98 E.04309
G1 X188.626 Y43.61 E.04297
G1 X189.659 Y44.511 E.04298
G1 X190.437 Y45.606 E.04212
G1 X201.364 Y67.047 E.75454
G1 X201.728 Y68.001 E.03202
G1 X201.916 Y68.963 E.03073
G1 X201.947 Y161.775 E2.91006
G1 X201.789 Y162.975 E.03795
M73 P1 R114
M73 Q1 S115
G1 X201.377 Y164.15 E.03904
G1 X199.993 Y165.967 E.07162
G1 X199.086 Y166.61 E.03486
G1 X198.094 Y167.068 E.03426
G1 X196.368 Y167.385 E.05502
G1 X110.816 Y167.385 E2.68242
G1 X52.976 Y159.937 E1.82851
G1 X51.88 Y159.664 E.03541
M73 Q1 S114
G1 X50.869 Y159.196 E.03493
G1 X49.28 Y157.804 E.06624
G1 X48.722 Y156.934 E.03241
G1 X48.325 Y156 E.03182
G1 X48.053 Y154.394 E.05107
G1 X48.053 Y77.931 E2.39744
G1 X48.206 Y76.742 E.03759
G1 X48.598 Y75.613 E.03747
G1 X49.217 Y74.588 E.03754
G1 X50.045 Y73.701 E.03805
G1 X50.505 Y73.416 E.01697
M204 S1000
G1 X50.7 Y73.731 F10800
M204 S800
G1 F1200
G1 X51.706 Y73.108 E.0371
G1 X90.84 Y58.672 E1.30784
G1 X129.453 Y58.541 E1.21069
G1 X184.057 Y43.161 E1.77869
G1 X185.029 Y43.006 E.03086
G1 X186.044 Y43.03 E.03183
G1 X187.296 Y43.34 E.04044
G1 X188.431 Y43.933 E.04015
G1 X189.392 Y44.779 E.04014
G1 X190.121 Y45.812 E.03964
G1 X201.024 Y67.21 E.75299
G1 X201.361 Y68.09 E.02955
G1 X201.54 Y68.997 E.02899
G1 X201.57 Y161.762 E2.90858
G1 X201.418 Y162.905 E.03615
G1 X201.031 Y163.997 E.03633
G1 X199.751 Y165.676 E.0662
G1 X198.911 Y166.275 E.03235
G1 X197.958 Y166.716 E.03292
G1 X196.351 Y167.008 E.05121
G1 X110.828 Y167.008 E2.68151
G1 X53.035 Y159.564 E1.82703
G1 X52.022 Y159.314 E.03271
G1 X51.052 Y158.865 E.03351
G1 X49.582 Y157.577 E.06128
G1 X49.062 Y156.772 E.03005
G1 X48.681 Y155.873 E.03061
G1 X48.43 Y154.379 E.0475
G1 X48.43 Y77.943 E2.3966
G1 X48.577 Y76.811 E.03579
G1 X48.947 Y75.757 E.03502
G1 X49.529 Y74.802 E.03507
G1 X50.303 Y73.978 E.03545
G1 X50.649 Y73.763 E.01277
M204 S1000
G1 X50.845 Y74.079 F10800
M204 S800
G1 F1200
G1 X51.854 Y73.455 E.0372
G1 X90.94 Y59.038 E1.30622
G1 X129.506 Y58.917 E1.20922
G1 X184.148 Y43.527 E1.77992
G1 X185.07 Y43.381 E.02927
G1 X186.013 Y43.407 E.02958
G1 X187.143 Y43.685 E.03649
G1 X188.2 Y44.233 E.03733
G1 X189.098 Y45.015 E.03734
G1 X189.791 Y45.995 E.03763
G1 X200.684 Y67.372 E.75226
G1 X200.994 Y68.18 E.02713
G1 X201.164 Y69.031 E.02721
G1 X201.193 Y161.749 E2.90711
G1 X201.047 Y162.835 E.03436
G1 X200.686 Y163.842 E.03354
G1 X199.509 Y165.386 E.06087
G1 X198.707 Y165.957 E.03087
G1 X197.822 Y166.363 E.03053
G1 X196.334 Y166.631 E.04741
G1 X110.84 Y166.631 E2.6806
G1 X53.094 Y159.192 E1.82555
M73 P1 R113
G1 X52.131 Y158.952 E.03112
G1 X51.236 Y158.535 E.03096
G1 X49.885 Y157.35 E.05635
G1 X49.388 Y156.582 E.02868
G1 X49.037 Y155.748 E.02837
G1 X48.807 Y154.363 E.04402
G1 X48.807 Y77.955 E2.39572
G1 X48.94 Y76.917 E.03281
G1 X49.296 Y75.901 E.03375
G1 X49.839 Y75.016 E.03256
G1 X50.559 Y74.255 E.03285
G1 X50.794 Y74.11 E.00866
M204 S1000
G1 X50.988 Y74.427 F10800
M204 S800
G1 F1200
G1 X52.002 Y73.802 E.03735
G1 X91.039 Y59.403 E1.30459
G1 X129.558 Y59.294 E1.20774
G1 X184.24 Y43.893 E1.78122
M73 Q1 S113
G1 X185.111 Y43.756 E.02765
M73 P2 R113
M73 Q2 S113
G1 X185.981 Y43.783 E.02729
G1 X187.029 Y44.045 E.03387
G1 X188.005 Y44.556 E.03454
G1 X188.832 Y45.283 E.03452
G1 X189.461 Y46.178 E.0343
G1 X200.343 Y67.534 E.75152
G1 X200.636 Y68.299 E.02569
G1 X200.788 Y69.065 E.02449
G1 X200.815 Y161.737 E2.90567
G1 X200.685 Y162.727 E.03131
G1 X200.341 Y163.687 E.03197
G1 X199.266 Y165.096 E.05557
G1 X198.533 Y165.622 E.02829
G1 X197.687 Y166.01 E.02918
G1 X196.318 Y166.254 E.0436
G1 X110.852 Y166.253 E2.67973
G1 X53.153 Y158.819 E1.82407
G1 X52.241 Y158.591 E.02948
G1 X51.421 Y158.205 E.02842
G1 X50.186 Y157.123 E.05148
G1 X49.729 Y156.42 E.02629
G1 X49.394 Y155.622 E.02714
G1 X49.185 Y154.348 E.04048
G1 X49.185 Y77.967 E2.39487
G1 X49.303 Y77.021 E.02989
G1 X49.628 Y76.081 E.03118
G1 X50.15 Y75.231 E.03128
G1 X50.815 Y74.533 E.03023
G1 X50.937 Y74.458 E.00449
M204 S1000
G1 X51.131 Y74.774 F10800
M204 S800
G1 F1200
G1 X52.15 Y74.15 E.03746
G1 X91.139 Y59.768 E1.30299
G1 X129.611 Y59.671 E1.20627
G1 X184.331 Y44.259 E1.78246
G1 X185.117 Y44.133 E.02496
G1 X185.948 Y44.159 E.02607
G1 X186.913 Y44.405 E.03122
G1 X187.809 Y44.878 E.03177
G1 X188.536 Y45.519 E.03039
G1 X189.131 Y46.362 E.03235
G1 X200.003 Y67.697 E.75079
G1 X200.27 Y68.39 E.02329
G1 X200.413 Y69.1 E.02271
G1 X200.438 Y161.725 E2.90419
G1 X200.314 Y162.656 E.02945
G1 X199.997 Y163.531 E.02918
G1 X199.024 Y164.806 E.05029
G1 X198.328 Y165.305 E.02685
G1 X197.553 Y165.657 E.02669
G1 X196.302 Y165.876 E.03982
G1 X110.864 Y165.876 E2.67885
G1 X53.212 Y158.447 E1.82258
G1 X52.384 Y158.242 E.02675
G1 X51.605 Y157.875 E.027
G1 X50.488 Y156.896 E.04657
G1 X50.055 Y156.229 E.02493
G1 X49.75 Y155.498 E.02484
G1 X49.562 Y154.333 E.037
G1 X49.562 Y77.979 E2.39403
G1 X49.674 Y77.088 E.02816
M73 P2 R112
G1 X49.977 Y76.226 E.02865
G1 X50.46 Y75.447 E.02874
G1 X51.07 Y74.812 E.02761
G1 X51.08 Y74.806 E.00037
M204 S1000
G1 X51.323 Y75.092 F10800
M204 S800
G1 F1200
G1 X52.297 Y74.497 E.03579
G1 X91.238 Y60.133 E1.30138
G1 X129.663 Y60.048 E1.20479
G1 X184.423 Y44.625 E1.78376
G1 X185.158 Y44.509 E.02333
G1 X185.914 Y44.535 E.02372
G1 X186.796 Y44.764 E.02857
G1 X187.61 Y45.2 E.02895
G1 X188.269 Y45.785 E.02763
G1 X188.801 Y46.544 E.02906
G1 X199.663 Y67.86 E.75012
G1 X199.904 Y68.481 E.02089
G1 X200.037 Y69.135 E.02093
G1 X200.061 Y161.712 E2.90269
G1 X199.943 Y162.585 E.02762
G1 X199.653 Y163.374 E.02636
G1 X198.78 Y164.517 E.0451
G1 X198.155 Y164.97 E.0242
G1 X197.42 Y165.304 E.02531
G1 X196.286 Y165.499 E.03608
G1 X110.876 Y165.499 E2.67797
G1 X53.271 Y158.074 E1.82111
M73 Q2 S112
G1 X52.494 Y157.881 E.0251
G1 X51.791 Y157.546 E.02442
G1 X50.79 Y156.667 E.04177
G1 X50.396 Y156.067 E.02251
G1 X50.107 Y155.374 E.02354
G1 X49.939 Y154.319 E.0335
G1 X49.939 Y77.991 E2.39321
G1 X50.046 Y77.157 E.02636
M73 P3 R112
M73 Q3 S112
G1 X50.325 Y76.372 E.02612
G1 X50.768 Y75.664 E.02619
G1 X51.282 Y75.135 E.02313
M204 S1000
G1 X51.552 Y75.398 F10800
M204 S800
G1 F1200
G1 X51.577 Y75.372 E.00113
G1 X52.445 Y74.845 E.03184
G1 X91.337 Y60.499 E1.29975
G1 X129.716 Y60.425 E1.20335
G1 X184.514 Y44.991 E1.785
G1 X185.197 Y44.884 E.02168
G1 X185.878 Y44.911 E.02137
G1 X186.678 Y45.123 E.02595
G1 X187.378 Y45.498 E.0249
G1 X187.974 Y46.021 E.02486
G1 X188.471 Y46.728 E.0271
G1 X199.322 Y68.023 E.74938
G1 X199.546 Y68.602 E.01947
G1 X199.661 Y69.17 E.01817
G1 X199.684 Y161.7 E2.90121
G1 X199.582 Y162.475 E.02451
G1 X199.309 Y163.217 E.02479
G1 X198.537 Y164.228 E.03988
G1 X197.95 Y164.652 E.0227
G1 X197.288 Y164.95 E.02276
G1 X196.27 Y165.122 E.03237
G1 X110.888 Y165.122 E2.67709
G1 X53.329 Y157.701 E1.81966
G1 X52.638 Y157.532 E.0223
G1 X51.976 Y157.217 E.02299
G1 X51.091 Y156.439 E.03695
G1 X50.721 Y155.876 E.02112
G1 X50.464 Y155.251 E.02119
G1 X50.316 Y154.304 E.03005
G1 X50.316 Y78.002 E2.3924
G1 X50.408 Y77.262 E.02338
G1 X50.657 Y76.553 E.02356
G1 X51.053 Y75.912 E.02362
G1 X51.511 Y75.441 E.0206
M204 S1000
G1 X51.779 Y75.705 F10800
M204 S800
G1 F1200
G1 X51.829 Y75.654 E.00224
G1 X52.592 Y75.192 E.02797
G1 X91.437 Y60.864 E1.29817
G1 X129.768 Y60.802 E1.20184
G1 X184.605 Y45.357 E1.78627
G1 X185.235 Y45.26 E.01999
G1 X185.839 Y45.287 E.01896
G1 X186.557 Y45.481 E.02332
G1 X187.178 Y45.818 E.02215
G1 X187.706 Y46.287 E.02214
G1 X188.141 Y46.91 E.02382
G1 X198.982 Y68.186 E.7487
G1 X199.286 Y69.206 E.03337
G1 X199.307 Y161.687 E2.89968
G1 X199.211 Y162.403 E.02265
M73 P3 R111
G1 X198.966 Y163.059 E.02196
G1 X198.292 Y163.94 E.03478
G1 X197.777 Y164.317 E.02001
G1 X197.156 Y164.595 E.02133
G1 X196.255 Y164.745 E.02864
G1 X110.901 Y164.745 E2.67621
G1 X53.389 Y157.329 E1.81818
G1 X52.749 Y157.17 E.02068
G1 X52.164 Y156.889 E.02035
G1 X51.391 Y156.21 E.03226
G1 X51.063 Y155.715 E.01862
G1 X50.822 Y155.129 E.01987
G1 X50.693 Y154.29 E.02662
G1 X50.693 Y78.014 E2.39158
G1 X50.78 Y77.33 E.02162
M73 Q3 S111
G1 X51.005 Y76.7 E.02098
G1 X51.361 Y76.13 E.02107
G1 X51.737 Y75.747 E.01683
M204 S1000
G1 X52.004 Y76.012 F10800
M204 S800
G1 F1200
G1 X52.08 Y75.936 E.00337
G1 X52.739 Y75.54 E.02411
G1 X91.536 Y61.229 E1.29657
G1 X129.82 Y61.179 E1.20037
G1 X184.697 Y45.723 E1.78757
G1 X185.238 Y45.637 E.01718
G1 X185.801 Y45.662 E.01767
G1 X186.434 Y45.838 E.0206
G1 X186.976 Y46.137 E.01941
G1 X187.437 Y46.552 E.01945
G1 X187.811 Y47.092 E.0206
G1 X198.642 Y68.349 E.74803
G1 X198.91 Y69.243 E.02926
G1 X198.93 Y161.675 E2.89814
G1 X198.85 Y162.291 E.01948
G1 X198.622 Y162.9 E.02039
G1 X198.047 Y163.651 E.02966
G1 X197.571 Y164 E.01851
G1 X197.026 Y164.241 E.01868
G1 X196.24 Y164.368 E.02496
G1 X110.913 Y164.368 E2.67537
G1 X53.448 Y156.956 E1.8167
G1 X52.86 Y156.81 E.019
M73 P4 R111
M73 Q4 S111
G1 X52.352 Y156.561 E.01774
G1 X51.692 Y155.981 E.02755
G1 X51.388 Y155.522 E.01726
G1 X51.18 Y155.009 E.01736
G1 X51.07 Y154.276 E.02324
G1 X51.07 Y78.025 E2.3908
G1 X51.142 Y77.437 E.01857
G1 X51.352 Y76.847 E.01964
G1 X51.668 Y76.351 E.01844
G1 X51.962 Y76.055 E.01308
M204 S1000
G1 X52.226 Y76.322 F10800
M204 S800
G1 F1200
G1 X52.328 Y76.221 E.0045
G1 X52.885 Y75.888 E.02035
G1 X91.635 Y61.595 E1.29499
G1 X129.873 Y61.556 E1.19893
G1 X184.788 Y46.089 E1.78881
G1 X185.759 Y46.038 E.03049
G1 X186.308 Y46.194 E.01789
G1 X186.771 Y46.454 E.01665
G1 X187.166 Y46.815 E.01678
G1 X187.48 Y47.274 E.01744
G1 X198.302 Y68.513 E.7474
G1 X198.535 Y69.28 E.02513
G1 X198.553 Y161.663 E2.8966
G1 X198.479 Y162.219 E.01759
G1 X198.28 Y162.74 E.01749
G1 X197.803 Y163.363 E.0246
G1 X197.366 Y163.683 E.01698
G1 X196.9 Y163.885 E.01592
G1 X196.226 Y163.991 E.02139
G1 X110.925 Y163.991 E2.67455
G1 X53.506 Y156.584 E1.81525
G1 X53.007 Y156.462 E.01611
G1 X52.541 Y156.234 E.01627
G1 X51.992 Y155.751 E.02293
G1 X51.713 Y155.331 E.01581
G1 X51.539 Y154.891 E.01484
G1 X51.447 Y154.263 E.0199
G1 X51.447 Y78.036 E2.39004
G1 X51.505 Y77.54 E.01566
M73 P4 R110
G1 X51.683 Y77.03 E.01694
G1 X51.974 Y76.572 E.01701
G1 X52.184 Y76.364 E.00927
M204 S1000
G1 X52.49 Y76.612 F10800
M204 S800
G1 F1200
G1 X52.574 Y76.507 E.00422
G1 X53.032 Y76.236 E.01669
G1 X91.734 Y61.96 E1.2934
G1 X129.925 Y61.933 E1.19745
G1 X184.879 Y46.455 E1.79008
G1 X185.312 Y46.389 E.01373
G1 X186.146 Y46.535 E.02655
G1 X186.537 Y46.75 E.01399
G1 X186.869 Y47.048 E.01399
G1 X187.15 Y47.456 E.01553
G1 X197.962 Y68.676 E.74672
G1 X198.159 Y69.317 E.02103
G1 X198.176 Y161.65 E2.89504
G1 X198.109 Y162.145 E.01566
M73 Q4 S110
G1 X197.939 Y162.576 E.01453
G1 X197.556 Y163.077 E.01977
G1 X197.195 Y163.346 E.01412
G1 X196.773 Y163.529 E.01442
G1 X196.212 Y163.614 E.01779
G1 X110.937 Y163.614 E2.67374
G1 X53.565 Y156.211 E1.81377
G1 X52.731 Y155.908 E.02782
G1 X52.291 Y155.52 E.01839
G1 X51.898 Y154.773 E.02647
G1 X51.824 Y154.25 E.01656
G1 X51.824 Y78.047 E2.38929
G1 X51.877 Y77.607 E.0139
G1 X52.03 Y77.179 E.01425
G1 X52.452 Y76.658 E.02102
M204 S1000
G1 X52.741 Y76.892 F10800
M204 S800
G1 F1200
G1 X52.821 Y76.793 E.00399
G1 X53.177 Y76.584 E.01294
G1 X91.833 Y62.325 E1.29186
G1 X129.977 Y62.31 E1.19598
G1 X184.971 Y46.821 E1.79138
G1 X185.671 Y46.788 E.02197
G1 X186.331 Y47.067 E.02247
G1 X186.819 Y47.638 E.02355
G1 X197.623 Y68.84 E.74611
G1 X197.784 Y69.356 E.01695
G1 X197.799 Y161.639 E2.89347
G1 X197.598 Y162.414 E.0251
G1 X197.31 Y162.79 E.01485
G1 X196.65 Y163.171 E.02389
G1 X196.199 Y163.237 E.01429
G1 X110.949 Y163.237 E2.67295
G1 X53.622 Y155.838 E1.81236
M73 P5 R110
M73 Q5 S110
G1 X52.922 Y155.581 E.02338
G1 X52.59 Y155.289 E.01386
G1 X52.258 Y154.66 E.0223
G1 X52.201 Y154.238 E.01335
