; generated by PrusaSlicer 2.9.3 on 2025-11-02 at 21:44:11 UTC


;
;
; 

; external perimeters extrusion width = 0.60mm
; perimeters extrusion width = 0.50mm
; infill extrusion width = 0.50mm
; solid infill extrusion width = 0.50mm
; top infill extrusion width = 0.45mm
; first layer extrusion width = 0.42mm

; external perimeters extrusion width = 0.60mm
; perimeters extrusion width = 0.50mm
; infill extrusion width = 0.50mm
; solid infill extrusion width = 0.50mm
; top infill extrusion width = 0.45mm
; first layer extrusion width = 0.42mm

M73 P0 R40
M73 Q0 S40
M201 X1000 Y1000 Z200 E5000 ; sets maximum accelerations, mm/sec^2
M203 X200 Y200 Z12 E120 ; sets maximum feedrates, mm / sec
M204 S1250 T1250 ; sets acceleration (S) and retract acceleration (R), mm/sec^2
M205 X8.00 Y8.00 Z0.40 E4.50 ; sets the jerk limits, mm/sec
M205 S0 T0 ; sets the minimum extruding and travel feed rate, mm/sec

; printing object OLED_circle_window_with_mounting_holes.stl id:0 copy 0
; stop printing object OLED_circle_window_with_mounting_holes.stl id:0 copy 0
; printing object OLED_circle_window_with_mounting_holes.stl id:1 copy 0
; stop printing object OLED_circle_window_with_mounting_holes.stl id:1 copy 0

;TYPE:Custom
M862.3 P "MK3S" ; printer model check
M862.1 P0.4 ; nozzle diameter check
M115 U3.14.1 ; tell printer latest fw version
G90 ; use absolute coordinates
M83 ; extruder relative mode
M104 S215 ; set extruder temp
M140 S60 ; set bed temp
M190 S60 ; wait for bed temp
M109 S215 ; wait for extruder temp
G28 W ; home all without mesh bed level
G80 X67.8974 Y51.8371 W114.099 H105.161 ; mesh bed levelling

G1 Z0.2 F720
G1 Y-3 F1000 ; go outside print area
G92 E0
G1 X60 E9 F1000 ; intro line
G1 X100 E12.5 F1000 ; intro line

G92 E0
M221 S95

; Don't change E values below. Excessive value can damage the printer.

M907 E538 ; set extruder motor current
G21 ; set units to millimeters
G90 ; use absolute coordinates
M83 ; use relative distances for extrusion

M900 K0.05 ; Filament gcode LA 1.5
M900 K30 ; Filament gcode LA 1.0




M107
;LAYER_CHANGE
;Z:0.35
;HEIGHT:0.35
G1 E-.8 F2100
G1 Z.75 F720
G1 X77.435 Y69.75 F10800
M73 P0 R39
G1 Z.35 F720
G1 E.8 F2100
M204 S800
;TYPE:Skirt/Brim
;WIDTH:0.42
G1 F1200
G1 X78.376 Y68.787 E.06757
G1 X79.47 Y67.864 E.07183
G1 X80.4 Y67.209 E.05709
G1 X81.563 Y66.531 E.06756
G1 X82.863 Y65.93 E.07188
G1 X121.061 Y52.721 E2.02838
G1 X122.121 Y52.421 E.05529
G1 X123.443 Y52.164 E.06759
G1 X125.847 Y52.012 E.12089
G1 X127.953 Y52.208 E.10615
G1 X130.288 Y52.798 E.12087
G1 X166.605 Y66.12 E1.94136
G1 X168.7 Y67.207 E.11845
G1 X170.628 Y68.651 E.12089
G1 X172.105 Y70.166 E.10619
G1 X173.5 Y72.13 E.1209
G1 X174.183 Y73.429 E.07365
G1 X174.733 Y74.791 E.07372
G1 X175.142 Y76.201 E.07368
G1 X175.408 Y77.645 E.07369
G1 X181.755 Y136.556 E2.97361
G1 X181.813 Y138.548 E.10001
G1 X181.545 Y140.819 E.11476
G1 X181.024 Y142.744 E.10008
G1 X180.261 Y144.546 E.09821
G1 X179.488 Y145.894 E.07798
G1 X178.606 Y147.114 E.07555
G1 X177.395 Y148.443 E.09023
G1 X176.262 Y149.433 E.07551
G1 X174.96 Y150.346 E.07981
G1 X173.378 Y151.202 E.09027
G1 X171.982 Y151.763 E.0755
G1 X170.487 Y152.188 E.078
G1 X168.659 Y152.484 E.09293
G1 X126.274 Y156.798 E2.13812
G1 X124.195 Y156.778 E.10434
G1 X81.011 Y152.663 E2.17705
G1 X79.681 Y152.451 E.06759
M73 Q0 S39
G1 X78.577 Y152.176 E.0571
G1 X77.223 Y151.71 E.07186
G1 X75.998 Y151.152 E.06756
G1 X74.29 Y150.124 E.10005
G1 X72.765 Y148.897 E.09823
G1 X71.418 Y147.477 E.09823
G1 X70.274 Y145.89 E.09818
G1 X69.353 Y144.163 E.09823
G1 X68.671 Y142.329 E.0982
G1 X68.229 Y140.335 E.1025
G1 X68.07 Y138.384 E.09824
G1 X68.126 Y136.89 E.07503
G1 X73.838 Y77.777 E2.98046
G1 X74.071 Y76.365 E.07182
M73 P1 R39
M73 Q1 S39
G1 X74.345 Y75.298 E.05529
G1 X74.787 Y74.027 E.06753
G1 X75.251 Y72.988 E.05711
G1 X75.902 Y71.81 E.06755
G1 X76.712 Y70.629 E.07187
G1 X77.397 Y69.797 E.05409
M204 S1000
;WIPE_START
G1 F8640
G1 X77.435 Y69.75 E-.01396
G1 X78.376 Y68.787 E-.31089
G1 X79.47 Y67.864 E-.3305
G1 X79.982 Y67.503 E-.14465
;WIPE_END
G1 Z.75 F720
G1 X79.286 Y71.478 F10800
G1 Z.35 F720
G1 E.8 F2100
M204 S800
G1 F1200
G1 X79.724 Y70.986 E.03306
G1 X80.825 Y69.997 E.07427
G1 X82.538 Y68.863 E.1031
G1 X84.502 Y68.007 E.10752
G1 X85.932 Y67.626 E.07427
G1 X88.082 Y67.391 E.10854
G1 X89.427 Y67.44 E.06754
G1 X90.601 Y67.608 E.05952
G1 X91.757 Y67.891 E.05973
G1 X92.945 Y68.314 E.06329
G1 X93.988 Y68.807 E.0579
G1 X94.965 Y69.389 E.05707
G1 X95.999 Y70.155 E.06458
G1 X96.946 Y71.028 E.06464
G1 X98.292 Y72.678 E.10686
G1 X98.892 Y73.66 E.05775
G1 X99.383 Y74.666 E.05618
G1 X99.812 Y75.812 E.06141
G1 X103.918 Y75.782 E.20607
G1 X104.461 Y75.705 E.02752
G1 X105.511 Y75.392 E.05499
G1 X106.48 Y74.879 E.05502
G1 X106.922 Y74.554 E.02753
G1 X107.329 Y74.187 E.0275
G1 X108.026 Y73.342 E.05497
G1 X108.309 Y72.872 E.02753
G1 X108.73 Y71.86 E.05501
G1 X108.945 Y70.783 E.05512
G1 X109.002 Y69.779 E.05047
G1 X109.175 Y68.782 E.05078
G1 X109.686 Y67.528 E.06796
G1 X110.457 Y66.465 E.0659
G1 X111.612 Y65.516 E.07502
G1 X112.883 Y64.935 E.07013
G1 X113.634 Y64.786 E.03842
G1 X113.897 Y63.525 E.06465
G1 X114.248 Y62.41 E.05866
G1 X114.725 Y61.293 E.06096
G1 X115.3 Y60.25 E.05977
G1 X115.974 Y59.269 E.05973
G1 X116.823 Y58.274 E.06564
G1 X117.721 Y57.422 E.06212
G1 X118.704 Y56.665 E.06227
G1 X119.76 Y56.012 E.06231
G1 X120.873 Y55.474 E.06204
G1 X122.014 Y55.059 E.06093
G1 X123.193 Y54.76 E.06104
G1 X124.383 Y54.583 E.06038
G1 X126.173 Y54.541 E.08986
G1 X127.236 Y54.644 E.0536
G1 X128.414 Y54.869 E.06019
G1 X129.579 Y55.216 E.061
G1 X130.706 Y55.68 E.06117
G1 X131.743 Y56.232 E.05896
G1 X132.931 Y57.042 E.07216
G1 X133.876 Y57.855 E.06256
G1 X134.744 Y58.773 E.0634
G1 X135.681 Y60.032 E.07876
G1 X136.483 Y61.483 E.0832
G1 X137.072 Y63.004 E.08186
G1 X137.519 Y65.124 E.10873
G1 X138.557 Y65.623 E.0578
G1 X139.586 Y66.511 E.06821
G1 X140.487 Y67.859 E.08137
G1 X140.891 Y69.04 E.06264
G1 X141.136 Y71.328 E.11548
G1 X141.27 Y71.86 E.02753
G1 X141.691 Y72.872 E.05501
G1 X142.301 Y73.781 E.05494
G1 X142.671 Y74.187 E.02757
G1 X143.52 Y74.879 E.05497
G1 X144.489 Y75.392 E.05502
G1 X145.539 Y75.705 E.05499
G1 X146.082 Y75.782 E.02752
G1 X149.515 Y75.812 E.17229
G1 X150.139 Y74.243 E.08474
G1 X150.699 Y73.227 E.05822
G1 X151.398 Y72.214 E.06177
G1 X152.162 Y71.314 E.05925
G1 X153.761 Y69.885 E.10762
G1 X154.71 Y69.247 E.05739
G1 X155.774 Y68.672 E.0607
G1 X156.883 Y68.21 E.06029
G1 X158.096 Y67.845 E.06357
G1 X160.082 Y67.531 E.10091
G1 X161.711 Y67.523 E.08175
G1 X162.955 Y67.665 E.06284
G1 X164.558 Y68.048 E.08271
G1 X166.407 Y68.799 E.10016
G1 X167.854 Y69.665 E.08463
G1 X169.304 Y70.853 E.09407
G1 X170.553 Y72.253 E.09416
G1 X171.48 Y73.664 E.08473
G1 X172.056 Y74.838 E.06563
G1 X172.597 Y76.4 E.08296
G1 X172.839 Y77.496 E.05633
G1 X173.013 Y79.275 E.08971
G1 X172.91 Y81.159 E.09469
G1 X172.704 Y82.284 E.0574
G1 X172.184 Y83.959 E.08802
G1 X171.762 Y84.911 E.05226
G1 X171.299 Y85.757 E.0484
G1 X170.073 Y87.449 E.10486
G1 X168.653 Y88.838 E.09969
G1 X167.806 Y89.479 E.05331
G1 X166.25 Y90.388 E.09044
G1 X165.249 Y90.822 E.05475
G1 X163.355 Y91.371 E.09896
G1 X161.963 Y91.559 E.07049
G1 X161.963 Y127.142 E1.78577
G1 X162.803 Y126.775 E.046
G1 X164.367 Y126.274 E.08242
G1 X166.428 Y125.952 E.10469
G1 X167.596 Y125.929 E.05863
G1 X168.748 Y126.017 E.05798
G1 X169.977 Y126.236 E.06265
G1 X171.164 Y126.576 E.06197
G1 X172.278 Y127.021 E.0602
G1 X173.324 Y127.564 E.05915
G1 X174.991 Y128.735 E.10224
G1 X176.157 Y129.852 E.08104
G1 X177.358 Y131.406 E.09857
G1 X178.213 Y132.96 E.08901
G1 X178.875 Y134.776 E.097
G1 X179.194 Y136.327 E.07947
G1 X179.308 Y137.925 E.0804
G1 X179.283 Y138.75 E.04142
G1 X179.055 Y140.434 E.08528
G1 X178.478 Y142.374 E.10158
G1 X177.851 Y143.725 E.07475
G1 X177.317 Y144.616 E.05213
G1 X176.173 Y146.089 E.0936
G1 X175.003 Y147.214 E.08146
G1 X173.695 Y148.169 E.08128
G1 X172.348 Y148.906 E.07706
G1 X171.475 Y149.271 E.04749
G1 X170.218 Y149.665 E.06611
G1 X169.063 Y149.899 E.05914
G1 X167.89 Y150.018 E.05917
G1 X166.753 Y150.025 E.05706
G1 X164.741 Y149.771 E.10178
G1 X162.893 Y149.219 E.09679
G1 X162.017 Y148.84 E.0479
G1 X160.354 Y147.867 E.09669
G1 X159.404 Y147.131 E.06031
G1 X158.487 Y146.257 E.06358
G1 X157.696 Y145.314 E.06177
G1 X137.025 Y145.318 E1.03739
G1 X136.416 Y147.093 E.09418
G1 X135.37 Y148.993 E.10885
G1 X134.002 Y150.674 E.10877
G1 X133.18 Y151.441 E.05642
G1 X131.51 Y152.631 E.10291
G1 X129.703 Y153.506 E.10076
G1 X128.511 Y153.894 E.06291
G1 X127.429 Y154.132 E.0556
G1 X126.341 Y154.27 E.05504
G1 X124.167 Y154.248 E.10911
G1 X122.059 Y153.844 E.10772
G1 X120.955 Y153.47 E.0585
G1 X119.895 Y152.992 E.05836
G1 X118.19 Y151.934 E.1007
G1 X116.609 Y150.53 E.10611
G1 X115.281 Y148.846 E.10763
G1 X114.36 Y147.156 E.09659
G1 X113.725 Y145.318 E.09759
G1 X92.338 Y145.315 E1.07333
G1 X91.084 Y146.788 E.09708
G1 X90.326 Y147.471 E.05121
G1 X89.376 Y148.181 E.05952
G1 X88.353 Y148.799 E.05998
G1 X87.257 Y149.319 E.06088
G1 X86.12 Y149.725 E.06059
G1 X84.963 Y150.012 E.05982
G1 X83.763 Y150.185 E.06085
G1 X82.536 Y150.237 E.06163
G1 X81.361 Y150.17 E.05906
G1 X80.199 Y149.988 E.05903
G1 X79.025 Y149.683 E.06087
G1 X77.923 Y149.276 E.05896
G1 X76.874 Y148.768 E.05849
G1 X75.079 Y147.571 E.10828
G1 X74.177 Y146.767 E.06064
G1 X73.341 Y145.854 E.06213
G1 X72.623 Y144.888 E.0604
G1 X71.997 Y143.842 E.06118
G1 X71.48 Y142.74 E.06109
G1 X71.078 Y141.592 E.06104
G1 X70.79 Y140.393 E.06188
G1 X70.628 Y139.19 E.06092
G1 X70.587 Y137.973 E.06111
G1 X70.672 Y136.741 E.06198
G1 X70.872 Y135.568 E.05972
G1 X71.178 Y134.449 E.05822
G1 X71.954 Y132.602 E.10054
G1 X72.573 Y131.551 E.06121
G1 X73.304 Y130.556 E.06196
G1 X74.123 Y129.651 E.06126
G1 X75.027 Y128.835 E.06112
G1 X76.008 Y128.115 E.06107
G1 X77.07 Y127.491 E.06182
G1 X78.192 Y126.977 E.06194
G1 X79.344 Y126.586 E.06105
G1 X80.526 Y126.313 E.06088
G1 X81.684 Y126.164 E.05859
G1 X83.762 Y126.178 E.10429
G1 X84.914 Y126.342 E.0584
G1 X86.07 Y126.624 E.05972
G1 X87.214 Y127.027 E.06087
G1 X88.037 Y127.413 E.04562
G1 X88.037 Y91.489 E1.80288
G1 X86.956 Y91.424 E.05435
G1 X85.764 Y91.227 E.06063
G1 X84.626 Y90.922 E.05913
G1 X83.446 Y90.474 E.06334
G1 X81.635 Y89.48 E.10368
G1 X80.709 Y88.799 E.05769
G1 X79.849 Y88.028 E.05797
G1 X78.992 Y87.088 E.06384
G1 X78.238 Y86.064 E.06382
G1 X77.668 Y85.102 E.05612
G1 X77.185 Y84.079 E.05677
G1 X76.769 Y82.913 E.06213
G1 X76.347 Y80.902 E.10312
G1 X76.26 Y79.62 E.06449
G1 X76.311 Y78.318 E.06539
G1 X76.464 Y77.228 E.05524
G1 X76.72 Y76.141 E.05604
G1 X77.132 Y74.941 E.06367
G1 X77.671 Y73.782 E.06415
G1 X78.253 Y72.803 E.05716
G1 X78.918 Y71.892 E.0566
G1 X79.246 Y71.523 E.02478
M204 S1000
G1 X79.503 Y71.752 F10800
M204 S800
G1 F1200
G1 X79.975 Y71.223 E.03558
G1 X81.035 Y70.271 E.0715
G1 X82.697 Y69.169 E.10008
G1 X84.617 Y68.332 E.10511
G1 X85.994 Y67.965 E.07152
G1 X88.095 Y67.735 E.10607
M73 P2 R39
G1 X89.405 Y67.785 E.06579
M73 Q2 S39
G1 X90.543 Y67.948 E.05769
G1 X91.666 Y68.223 E.05802
G1 X92.821 Y68.635 E.06154
G1 X93.833 Y69.115 E.05621
G1 X94.781 Y69.681 E.05541
G1 X95.786 Y70.427 E.06281
G1 X96.694 Y71.264 E.06198
G1 X98.011 Y72.878 E.10454
G1 X98.586 Y73.819 E.05534
G1 X99.07 Y74.81 E.05535
G1 X99.544 Y76.157 E.07166
G1 X103.95 Y76.126 E.22112
G1 X104.527 Y76.044 E.02925
G1 X105.642 Y75.711 E.0584
G1 X106.671 Y75.167 E.05841
G1 X107.573 Y74.432 E.05839
G1 X107.965 Y74.001 E.02924
G1 X108.614 Y73.035 E.0584
G1 X109.061 Y71.961 E.05838
G1 X109.203 Y71.396 E.02924
G1 X109.511 Y68.859 E.12826
G1 X109.978 Y67.712 E.06215
G1 X110.694 Y66.717 E.06152
G1 X111.813 Y65.797 E.0727
G1 X113.006 Y65.258 E.0657
G1 X113.955 Y65.076 E.04849
G1 X114.229 Y63.62 E.07435
G1 X114.574 Y62.522 E.05776
G1 X115.031 Y61.452 E.05839
G1 X115.589 Y60.438 E.05808
G1 X116.253 Y59.472 E.05883
G1 X117.067 Y58.517 E.06298
G1 X117.939 Y57.689 E.06035
G1 X118.893 Y56.953 E.06047
G1 X119.918 Y56.319 E.06049
G1 X121 Y55.795 E.06033
G1 X122.108 Y55.391 E.05919
G1 X123.253 Y55.1 E.05929
G1 X125.364 Y54.874 E.10655
G1 X127.179 Y54.984 E.09125
G1 X128.325 Y55.202 E.05854
G1 X129.456 Y55.538 E.05921
G1 X130.551 Y55.988 E.05941
G1 X131.563 Y56.527 E.05754
G1 X132.723 Y57.317 E.07043
G1 X133.645 Y58.11 E.06103
G1 X134.488 Y59.004 E.06167
G1 X135.388 Y60.214 E.07568
G1 X136.169 Y61.624 E.08089
G1 X136.741 Y63.101 E.07949
G1 X137.102 Y64.606 E.07767
G1 X137.201 Y65.357 E.03802
G1 X138.35 Y65.899 E.06376
G1 X139.343 Y66.757 E.06586
G1 X140.168 Y67.993 E.07458
G1 X140.552 Y69.104 E.05899
G1 X140.797 Y71.396 E.11568
G1 X140.939 Y71.961 E.02924
G1 X141.386 Y73.035 E.05838
G1 X142.035 Y74.001 E.0584
G1 X142.427 Y74.432 E.02924
G1 X143.329 Y75.167 E.05839
G1 X144.358 Y75.711 E.05841
G1 X145.473 Y76.044 E.0584
G1 X146.05 Y76.126 E.02925
G1 X149.767 Y76.156 E.18655
G1 X150.445 Y74.402 E.09437
G1 X150.988 Y73.416 E.05649
G1 X151.677 Y72.417 E.0609
G1 X152.408 Y71.555 E.05672
G1 X153.973 Y70.158 E.10528
G1 X154.881 Y69.546 E.05495
G1 X155.93 Y68.98 E.05982
G1 X157.008 Y68.532 E.05859
G1 X158.171 Y68.181 E.06097
G1 X160.102 Y67.876 E.09811
G1 X161.694 Y67.867 E.0799
G1 X162.894 Y68.004 E.06061
G1 X164.449 Y68.376 E.08024
G1 X166.247 Y69.104 E.09735
G1 X167.651 Y69.944 E.08211
G1 X169.07 Y71.106 E.09204
G1 X170.283 Y72.468 E.09153
G1 X171.181 Y73.837 E.08217
G1 X171.737 Y74.969 E.06329
G1 X172.265 Y76.495 E.08104
G1 X172.499 Y77.55 E.05423
G1 X172.668 Y79.289 E.08768
G1 X172.567 Y81.118 E.09193
G1 X172.366 Y82.215 E.05597
G1 X171.86 Y83.838 E.08532
G1 X171.008 Y85.573 E.097
G1 X170.382 Y86.512 E.05664
G1 X169.142 Y87.935 E.09472
G1 X168.428 Y88.577 E.04819
G1 X166.867 Y89.668 E.09558
G1 X165.133 Y90.498 E.09648
G1 X164.236 Y90.798 E.04747
G1 X163.279 Y91.034 E.04947
G1 X161.618 Y91.24 E.084
G1 X161.618 Y127.724 E1.83098
G1 X162.925 Y127.097 E.07275
G1 X163.679 Y126.827 E.04019
G1 X165.315 Y126.43 E.08449
G1 X166.46 Y126.295 E.05786
G1 X167.594 Y126.274 E.05692
G1 X168.713 Y126.36 E.05632
G1 X169.907 Y126.574 E.06088
G1 X171.044 Y126.9 E.05936
G1 X172.142 Y127.338 E.05933
G1 X173.143 Y127.858 E.05661
G1 X174.092 Y128.474 E.05678
G1 X175.361 Y129.53 E.08285
G1 X176.484 Y130.774 E.08411
G1 X177.517 Y132.342 E.09423
G1 X178.304 Y134.106 E.09694
G1 X178.544 Y134.873 E.04033
G1 X178.852 Y136.368 E.0766
G1 X178.963 Y137.932 E.07869
G1 X178.939 Y138.734 E.04027
G1 X178.717 Y140.368 E.08276
G1 X178.155 Y142.255 E.09881
G1 X177.546 Y143.564 E.07246
G1 X177.032 Y144.421 E.05015
G1 X175.921 Y145.853 E.09096
G1 X174.785 Y146.946 E.07911
G1 X173.515 Y147.875 E.07897
G1 X172.197 Y148.595 E.07537
G1 X171.364 Y148.945 E.04535
G1 X170.14 Y149.329 E.06438
G1 X169.019 Y149.556 E.0574
G1 X167.88 Y149.674 E.05747
G1 X166.776 Y149.681 E.05541
G1 X164.807 Y149.433 E.0996
G1 X163.011 Y148.895 E.09409
G1 X162.161 Y148.526 E.0465
G1 X160.545 Y147.58 E.09397
G1 X159.622 Y146.864 E.05862
G1 X158.732 Y146.014 E.06176
G1 X157.857 Y144.969 E.0684
G1 X136.767 Y144.973 E1.05842
G1 X136.103 Y146.947 E.10452
G1 X135.08 Y148.806 E.10649
G1 X133.75 Y150.438 E.10566
G1 X132.962 Y151.174 E.05411
G1 X131.34 Y152.331 E.09999
G1 X129.572 Y153.186 E.09856
G1 X128.429 Y153.559 E.06034
G1 X126.321 Y153.926 E.10738
G1 X124.193 Y153.904 E.1068
G1 X122.147 Y153.511 E.10456
G1 X121.074 Y153.146 E.05688
G1 X120.044 Y152.681 E.05672
G1 X118.39 Y151.653 E.09773
G1 X116.865 Y150.299 E.10235
G1 X115.565 Y148.65 E.10538
G1 X114.673 Y147.011 E.09365
G1 X113.981 Y144.973 E.10801
G1 X92.166 Y144.97 E1.09481
G1 X91.568 Y145.762 E.0498
G1 X90.837 Y146.547 E.05383
G1 X89.176 Y147.9 E.10751
G1 X88.183 Y148.499 E.0582
G1 X87.133 Y148.997 E.05832
G1 X86.029 Y149.392 E.05884
G1 X84.905 Y149.672 E.05813
G1 X83.722 Y149.843 E.05999
G1 X82.547 Y149.892 E.05902
G1 X81.39 Y149.826 E.05816
G1 X80.261 Y149.648 E.05736
G1 X79.136 Y149.356 E.05833
G1 X78.065 Y148.962 E.05727
G1 X77.032 Y148.461 E.05762
G1 X75.302 Y147.308 E.10434
G1 X74.426 Y146.528 E.05886
G1 X73.613 Y145.641 E.06038
G1 X72.905 Y144.689 E.05954
G1 X72.298 Y143.673 E.0594
G1 X71.797 Y142.602 E.05934
G1 X71.406 Y141.486 E.05935
G1 X71.127 Y140.321 E.06012
G1 X70.971 Y139.153 E.05914
G1 X70.932 Y137.971 E.05935
G1 X71.015 Y136.774 E.06022
