; generated by PrusaSlicer 2.9.3 on 2025-11-05 at 06:32:56 UTC


;
;
; 

; external perimeters extrusion width = 0.60mm
; perimeters extrusion width = 0.50mm
; infill extrusion width = 0.50mm
; solid infill extrusion width = 0.50mm
; top infill extrusion width = 0.45mm
; support material extrusion width = 0.38mm
; first layer extrusion width = 0.42mm

M73 P0 R32
M73 Q0 S32
M201 X1000 Y1000 Z200 E5000 ; sets maximum accelerations, mm/sec^2
M203 X200 Y200 Z12 E120 ; sets maximum feedrates, mm / sec
M204 S1250 T1250 ; sets acceleration (S) and retract acceleration (R), mm/sec^2
M205 X8.00 Y8.00 Z0.40 E4.50 ; sets the jerk limits, mm/sec
M205 S0 T0 ; sets the minimum extruding and travel feed rate, mm/sec

; printing object Sofle_pico_v3.4_Acrylic_case_v20_no_tenting_puck.stl id:0 copy 0
; stop printing object Sofle_pico_v3.4_Acrylic_case_v20_no_tenting_puck.stl id:0 copy 0

;TYPE:Custom
M862.3 P "MK3S" ; printer model check
M862.1 P0.4 ; nozzle diameter check
M115 U3.14.1 ; tell printer latest fw version
G90 ; use absolute coordinates
M83 ; extruder relative mode
M104 S215 ; set extruder temp
M140 S60 ; set bed temp
M190 S60 ; wait for bed temp
M109 S215 ; wait for extruder temp
G28 W ; home all without mesh bed level
G80 X87.8558 Y61.9928 W79.1958 H86.0145 ; mesh bed levelling

G1 Z0.2 F720
G1 Y-3 F1000 ; go outside print area
G92 E0
G1 X60 E9 F1000 ; intro line
G1 X100 E12.5 F1000 ; intro line

G92 E0
M221 S95

; Don't change E values below. Excessive value can damage the printer.

M907 E538 ; set extruder motor current
G21 ; set units to millimeters
G90 ; use absolute coordinates
M83 ; use relative distances for extrusion

M900 K0.05 ; Filament gcode LA 1.5
M900 K30 ; Filament gcode LA 1.0




M107
;LAYER_CHANGE
;Z:0.35
;HEIGHT:0.35
G1 E-.8 F2100
G1 Z.75 F720
G1 X93.106 Y79.338 F10800
G1 Z.35 F720
G1 E.8 F2100
M204 S800
;TYPE:Skirt/Brim
;WIDTH:0.42
G1 F1200
G1 X93.507 Y78.937 E.02846
G1 X94.017 Y78.583 E.03116
G1 X114.957 Y67.453 E1.19012
G1 X123.59 Y62.956 E.48851
G1 X124.4 Y62.62 E.04401
G1 X125.315 Y62.356 E.04779
G1 X126.452 Y62.192 E.05765
G1 X133.819 Y62.17 E.36972
G1 X135.289 Y62.355 E.07436
G1 X136.204 Y62.62 E.04781
G1 X137.203 Y63.044 E.05446
G1 X158.788 Y74.545 E1.22744
G1 X159.72 Y75.237 E.05826
G1 X160.594 Y76.111 E.06203
G1 X161.128 Y76.806 E.04399
G1 X161.62 Y77.622 E.04782
G1 X162.081 Y78.687 E.05824
G1 X162.346 Y79.602 E.04781
G1 X162.508 Y80.713 E.05635
G1 X166.873 Y137.22 E2.8443
G1 X166.86 Y138.222 E.05029
G1 X166.669 Y139.691 E.07434
G1 X166.467 Y140.486 E.04117
G1 X165.699 Y142.391 E.10308
G1 X164.911 Y143.645 E.07433
G1 X164.404 Y144.29 E.04117
G1 X163.356 Y145.336 E.07431
G1 X162.718 Y145.851 E.04115
G1 X161.462 Y146.637 E.07436
G1 X160.725 Y146.996 E.04114
G1 X159.326 Y147.481 E.07431
G1 X158.285 Y147.704 E.05343
G1 X156.736 Y147.835 E.07802
G1 X127.403 Y147.835 E1.4721
G1 X125.914 Y147.679 E.07514
G1 X92.367 Y142.843 E1.70099
G1 X90.872 Y142.32 E.07949
G1 X89.884 Y141.65 E.05991
G1 X89.379 Y141.155 E.03549
G1 X88.689 Y140.182 E.05986
G1 X88.234 Y139.078 E.05993
G1 X88.121 Y138.603 E.0245
G1 X88.028 Y137.474 E.05685
G1 X92.371 Y81.2 E2.83256
G1 X92.664 Y80.036 E.06024
M73 P1 R32
M73 Q1 S32
G1 X93.074 Y79.389 E.03844
M204 S1000
;WIPE_START
G1 F8640
G1 X93.106 Y79.338 E-.0139
G1 X93.507 Y78.937 E-.13094
G1 X94.017 Y78.583 E-.14335
G1 X95.974 Y77.543 E-.51181
;WIPE_END
G1 Z.75 F720
G1 X121.564 Y79.419 F10800
G1 Z.35 F720
G1 E.8 F2100
M204 S800
G1 F1200
G1 X121.575 Y69.545 E.49554
G1 X121.87 Y68.312 E.06363
G1 X122.278 Y67.451 E.04782
G1 X122.831 Y66.655 E.04864
G1 X124.012 Y65.609 E.07917
G1 X125.5 Y64.917 E.08236
G1 X126.935 Y64.682 E.07298
G1 X133.725 Y64.684 E.34076
G1 X135.047 Y64.897 E.0672
G1 X136.293 Y65.422 E.06786
G1 X137.725 Y66.603 E.09315
G1 X138.426 Y67.628 E.06232
G1 X138.889 Y68.809 E.06366
G1 X139.251 Y71.575 E.14
G1 X139.73 Y72.833 E.06756
G1 X140.498 Y73.94 E.06762
G1 X140.976 Y74.415 E.03382
G1 X142.087 Y75.176 E.06758
G1 X143.176 Y75.595 E.05856
G1 X144.013 Y75.766 E.04287
G1 X155.047 Y75.848 E.55377
G1 X156.376 Y76.153 E.06843
G1 X157.577 Y76.767 E.06769
G1 X158.437 Y77.487 E.05629
G1 X159.081 Y78.28 E.05127
G1 X159.753 Y79.674 E.07766
G1 X160.019 Y81.188 E.07715
G1 X160.019 Y130.71 E2.48531
G1 X161.436 Y131.581 E.08347
G1 X162.729 Y132.882 E.09205
G1 X163.708 Y134.514 E.09551
G1 X164.192 Y136.021 E.07944
G1 X164.361 Y137.614 E.08039
G1 X164.198 Y139.192 E.07961
G1 X163.729 Y140.676 E.07811
G1 X162.824 Y142.235 E.09047
G1 X161.375 Y143.705 E.10359
G1 X159.595 Y144.739 E.10331
G1 X158.174 Y145.167 E.07448
G1 X156.727 Y145.318 E.07301
G1 X127.299 Y145.311 E1.47687
G1 X125.646 Y145.006 E.08436
G1 X124.138 Y144.263 E.08437
G1 X123.277 Y143.544 E.0563
G1 X122.559 Y142.684 E.05622
G1 X121.79 Y141.107 E.08805
G1 X121.501 Y139.435 E.08516
G1 X121.564 Y79.479 E3.00895
M204 S1000
G1 X121.905 Y79.479 F10800
M73 P1 R31
M204 S800
G1 F1200
G1 X121.915 Y69.604 E.49559
G1 X122.189 Y68.443 E.05987
G1 X122.583 Y67.612 E.04615
G1 X123.102 Y66.869 E.04548
G1 X124.22 Y65.885 E.07474
G1 X125.622 Y65.24 E.07745
G1 X126.949 Y65.027 E.06745
G1 X133.711 Y65.029 E.33936
G1 X134.971 Y65.234 E.06407
G1 X136.135 Y65.729 E.06348
G1 X137.454 Y66.817 E.08581
G1 X138.13 Y67.806 E.06012
G1 X138.561 Y68.916 E.05976
G1 X138.915 Y71.658 E.13875
G1 X139.424 Y72.994 E.07175
G1 X140.24 Y74.17 E.07183
G1 X140.748 Y74.675 E.03595
G1 X141.928 Y75.483 E.07177
G1 X143.075 Y75.925 E.06169
G1 X143.973 Y76.11 E.04601
G1 X155.026 Y76.193 E.55472
G1 X156.276 Y76.483 E.0644
G1 X157.402 Y77.064 E.06359
G1 X158.181 Y77.718 E.05105
G1 X158.779 Y78.448 E.04736
G1 X159.432 Y79.802 E.07544
G1 X159.675 Y81.202 E.07131
G1 X159.675 Y130.943 E2.4963
G1 X160.089 Y131.113 E.02246
G1 X161.205 Y131.837 E.06676
G1 X162.444 Y133.079 E.08804
G1 X163.386 Y134.639 E.09146
M73 Q2 S32
G1 X163.852 Y136.076 E.07581
M73 P2 R31
G1 X164.016 Y137.598 E.07683
G1 X163.864 Y139.105 E.07601
G1 X163.406 Y140.554 E.07627
G1 X162.537 Y142.043 E.08652
G1 X161.182 Y143.419 E.09692
G1 X159.475 Y144.415 E.09918
G1 X158.122 Y144.826 E.07097
G1 X156.718 Y144.973 E.07085
G1 X127.345 Y144.968 E1.47411
G1 X125.776 Y144.686 E.08
G1 X124.343 Y143.984 E.08008
G1 X123.532 Y143.311 E.05289
G1 X122.837 Y142.478 E.05444
G1 X122.126 Y141.023 E.08127
G1 X121.846 Y139.42 E.08167
G1 X121.905 Y79.539 E3.00518
M204 S1000
G1 X122.246 Y79.539 F10800
M204 S800
G1 F1200
G1 X122.255 Y69.663 E.49564
G1 X122.509 Y68.573 E.05617
G1 X122.874 Y67.797 E.04304
G1 X123.373 Y67.084 E.04368
G1 X124.427 Y66.162 E.07028
G1 X125.743 Y65.564 E.07254
G1 X126.962 Y65.372 E.06193
G1 X133.697 Y65.374 E.338
G1 X134.855 Y65.559 E.05885
G1 X135.977 Y66.037 E.06121
G1 X137.184 Y67.033 E.07854
G1 X137.816 Y67.95 E.05589
G1 X138.233 Y69.024 E.05782
G1 X138.58 Y71.741 E.13746
G1 X139.119 Y73.155 E.07594
G1 X139.982 Y74.399 E.07598
G1 X140.519 Y74.934 E.03804
G1 X141.769 Y75.79 E.07603
G1 X142.974 Y76.255 E.06482
G1 X143.933 Y76.453 E.04914
G1 X155.005 Y76.538 E.55567
G1 X156.175 Y76.814 E.06033
M73 Q2 S31
G1 X157.225 Y77.361 E.05942
G1 X157.925 Y77.95 E.04591
G1 X158.478 Y78.619 E.04356
G1 X159.097 Y79.886 E.07077
G1 X159.33 Y81.217 E.06781
G1 X159.33 Y131.178 E2.50734
G1 X159.916 Y131.412 E.03167
G1 X161.002 Y132.117 E.06498
G1 X162.16 Y133.275 E.08219
G1 X163.064 Y134.766 E.08751
G1 X163.511 Y136.132 E.07213
G1 X163.671 Y137.581 E.07316
G1 X163.522 Y139.053 E.07425
G1 X163.083 Y140.431 E.07258
G1 X162.251 Y141.849 E.08251
G1 X160.953 Y143.16 E.09259
G1 X159.355 Y144.091 E.09281
G1 X158.069 Y144.485 E.0675
G1 X156.709 Y144.629 E.06863
G1 X127.389 Y144.626 E1.47145
G1 X125.904 Y144.365 E.07567
G1 X124.547 Y143.705 E.07573
G1 X123.765 Y143.056 E.051
G1 X123.116 Y142.274 E.051
G1 X122.461 Y140.939 E.07463
G1 X122.191 Y139.405 E.07817
G1 X122.246 Y79.599 E3.00142
M204 S1000
G1 X122.587 Y79.6 F10800
M204 S800
G1 F1200
G1 X122.596 Y69.721 E.49579
G1 X122.829 Y68.702 E.05246
G1 X123.18 Y67.958 E.04128
G1 X123.642 Y67.3 E.04035
G1 X124.634 Y66.439 E.06592
G1 X125.862 Y65.889 E.06753
G1 X126.975 Y65.717 E.05652
G1 X133.683 Y65.718 E.33665
G1 X134.779 Y65.896 E.05572
G1 X135.818 Y66.344 E.05678
G1 X136.914 Y67.248 E.0713
G1 X137.52 Y68.128 E.05362
G1 X137.904 Y69.129 E.05381
G1 X138.245 Y71.824 E.13633
G1 X138.813 Y73.317 E.08017
G1 X139.724 Y74.629 E.08016
G1 X140.291 Y75.193 E.04014
G1 X141.609 Y76.096 E.08018
G1 X142.873 Y76.585 E.06802
G1 X143.894 Y76.796 E.05232
G1 X154.983 Y76.883 E.55653
G1 X156.073 Y77.144 E.05625
M73 P3 R31
G1 X157.047 Y77.657 E.05525
G1 X157.671 Y78.183 E.04096
M73 Q3 S31
G1 X158.179 Y78.79 E.03972
G1 X158.761 Y79.971 E.06608
G1 X158.985 Y81.233 E.06432
G1 X158.985 Y131.414 E2.51838
G1 X159.743 Y131.711 E.04086
G1 X160.799 Y132.396 E.06317
G1 X161.877 Y133.473 E.07647
G1 X162.743 Y134.893 E.08347
G1 X163.17 Y136.189 E.06848
G1 X163.326 Y137.566 E.06955
G1 X163.188 Y138.965 E.07055
G1 X162.761 Y140.307 E.07068
G1 X161.965 Y141.655 E.07856
G1 X160.725 Y142.901 E.08822
G1 X159.235 Y143.767 E.08649
G1 X157.984 Y144.15 E.06566
G1 X156.7 Y144.284 E.06479
G1 X127.433 Y144.284 E1.46879
G1 X126.031 Y144.044 E.07138
G1 X124.75 Y143.426 E.07138
G1 X124.019 Y142.823 E.04756
G1 X123.394 Y142.069 E.04915
G1 X122.796 Y140.854 E.06796
G1 X122.535 Y139.39 E.07463
G1 X122.587 Y79.66 E2.99761
M204 S1000
G1 X122.929 Y79.66 F10800
M204 S800
G1 F1200
G1 X122.937 Y69.778 E.49594
G1 X123.15 Y68.831 E.04871
G1 X123.471 Y68.143 E.0381
G1 X123.912 Y67.516 E.03847
G1 X124.839 Y66.718 E.06139
G1 X125.98 Y66.214 E.0626
G1 X126.987 Y66.062 E.05111
G1 X133.669 Y66.063 E.33534
G1 X134.701 Y66.233 E.05249
G1 X135.658 Y66.65 E.05239
G1 X136.643 Y67.464 E.06413
G1 X137.224 Y68.307 E.05138
G1 X137.575 Y69.234 E.04975
G1 X137.909 Y71.907 E.13519
G1 X138.161 Y72.71 E.04224
G1 X138.507 Y73.478 E.04227
G1 X138.945 Y74.197 E.04225
G1 X139.466 Y74.859 E.04228
G1 X140.063 Y75.453 E.04226
G1 X140.728 Y75.97 E.04227
G1 X141.45 Y76.403 E.04225
G1 X142.772 Y76.914 E.07113
G1 X143.854 Y77.139 E.05546
G1 X154.924 Y77.223 E.55557
G1 X155.934 Y77.46 E.05206
G1 X156.841 Y77.934 E.05136
G1 X157.416 Y78.417 E.03769
G1 X157.901 Y78.996 E.03791
G1 X158.426 Y80.056 E.05936
G1 X158.64 Y81.248 E.06078
G1 X158.64 Y131.651 E2.52952
G1 X159.571 Y132.01 E.05008
G1 X160.596 Y132.676 E.06135
G1 X161.594 Y133.671 E.07073
G1 X162.422 Y135.021 E.07948
G1 X162.83 Y136.246 E.0648
G1 X162.981 Y137.551 E.06593
G1 X162.847 Y138.913 E.06868
G1 X162.438 Y140.183 E.06696
G1 X161.679 Y141.46 E.07455
G1 X160.531 Y142.614 E.08169
G1 X159.114 Y143.444 E.08241
G1 X157.931 Y143.809 E.06213
G1 X156.691 Y143.939 E.06257
G1 X127.448 Y143.939 E1.46759
G1 X126.114 Y143.708 E.06794
G1 X124.953 Y143.147 E.06471
G1 X124.252 Y142.567 E.04566
G1 X123.673 Y141.865 E.04567
G1 X123.132 Y140.769 E.06134
G1 X122.88 Y139.375 E.07109
G1 X122.929 Y79.72 E2.99384
M204 S1000
G1 X123.27 Y79.72 F10800
M73 P4 R31
M204 S800
G1 F1200
G1 X123.277 Y69.834 E.49614
G1 X123.471 Y68.959 E.04498
M73 Q4 S31
G1 X123.777 Y68.304 E.03628
G1 X124.18 Y67.734 E.03503
G1 X125.043 Y66.997 E.05695
G1 X126.096 Y66.539 E.05763
G1 X126.999 Y66.407 E.0458
G1 X133.654 Y66.408 E.33399
G1 X134.622 Y66.569 E.04925
G1 X135.496 Y66.956 E.04797
G1 X136.374 Y67.68 E.05711
G1 X136.909 Y68.449 E.04701
G1 X137.246 Y69.338 E.04771
G1 X137.414 Y71.12 E.08983
G1 X137.574 Y71.99 E.04439
G1 X137.838 Y72.833 E.04433
G1 X138.202 Y73.639 E.04438
G1 X138.661 Y74.394 E.04434
G1 X139.208 Y75.089 E.04439
G1 X139.835 Y75.712 E.04436
G1 X140.532 Y76.255 E.04434
G1 X141.291 Y76.709 E.04439
G1 X142.098 Y77.069 E.04435
G1 X142.944 Y77.328 E.0444
G1 X143.814 Y77.483 E.04435
G1 X144.792 Y77.536 E.04915
G1 X154.866 Y77.563 E.50557
G1 X155.795 Y77.777 E.04784
G1 X156.634 Y78.211 E.04741
G1 X157.182 Y78.671 E.03591
G1 X157.623 Y79.201 E.0346
G1 X158.092 Y80.142 E.05277
G1 X158.295 Y81.264 E.05722
G1 X158.295 Y131.89 E2.54071
G1 X159.399 Y132.31 E.05928
G1 X160.394 Y132.956 E.05954
G1 X161.311 Y133.869 E.06494
G1 X162.102 Y135.15 E.07556
G1 X162.489 Y136.305 E.06113
G1 X162.636 Y137.537 E.06227
G1 X162.513 Y138.826 E.06498
G1 X162.116 Y140.058 E.06496
G1 X161.395 Y141.265 E.07056
G1 X160.303 Y142.354 E.0774
G1 X158.993 Y143.12 E.07616
G1 X157.846 Y143.474 E.06024
G1 X156.682 Y143.594 E.05873
G1 X127.462 Y143.594 E1.46643
G1 X126.241 Y143.386 E.06216
G1 X125.157 Y142.867 E.06032
G1 X124.485 Y142.312 E.04374
G1 X123.952 Y141.662 E.04219
G1 X123.466 Y140.683 E.05485
G1 X123.225 Y139.359 E.06754
G1 X123.27 Y79.78 E2.99003
M204 S1000
G1 X123.611 Y79.78 F10800
M204 S800
G1 F1200
G1 X123.618 Y69.888 E.49644
G1 X123.792 Y69.086 E.04119
G1 X124.067 Y68.49 E.03294
G1 X124.449 Y67.951 E.03315
G1 X125.245 Y67.277 E.05234
G1 X126.209 Y66.866 E.05259
G1 X127.011 Y66.751 E.04066
G1 X133.641 Y66.753 E.33273
G1 X134.503 Y66.894 E.04384
G1 X135.335 Y67.261 E.04564
G1 X136.104 Y67.897 E.05008
G1 X136.613 Y68.628 E.0447
G1 X136.916 Y69.44 E.0435
G1 X137.071 Y71.162 E.08677
G1 X137.238 Y72.073 E.04648
G1 X137.515 Y72.956 E.04644
G1 X137.896 Y73.8 E.04647
G1 X138.377 Y74.591 E.04646
G1 X138.95 Y75.319 E.04649
G1 X139.606 Y75.972 E.04645
G1 X140.337 Y76.54 E.04646
G1 X141.131 Y77.016 E.04646
G1 X142.57 Y77.574 E.07746
G1 X143.774 Y77.826 E.06173
G1 X154.809 Y77.904 E.55382
G1 X155.658 Y78.094 E.04366
G1 X156.428 Y78.488 E.04341
G1 X156.927 Y78.904 E.0326
G1 X157.346 Y79.407 E.03285
G1 X157.757 Y80.228 E.04608
G1 X157.95 Y81.28 E.05368
G1 X157.95 Y132.129 E2.5519
G1 X159.227 Y132.609 E.06847
M73 P4 R30
G1 X160.191 Y133.235 E.05768
G1 X161.029 Y134.069 E.05933
G1 X161.782 Y135.28 E.07157
G1 X162.149 Y136.365 E.05748
G1 X162.29 Y137.523 E.05854
G1 X162.171 Y138.774 E.06307
G1 X161.795 Y139.932 E.0611
G1 X161.11 Y141.068 E.06657
G1 X160.109 Y142.069 E.07104
G1 X158.871 Y142.797 E.07208
G1 X157.793 Y143.133 E.05667
G1 X156.674 Y143.249 E.05646
G1 X127.476 Y143.249 E1.46533
G1 X126.366 Y143.064 E.05647
G1 X125.358 Y142.587 E.05597
G1 X124.74 Y142.08 E.04012
G1 X124.232 Y141.459 E.04026
G1 X123.787 Y140.553 E.05066
G1 X123.57 Y139.344 E.06164
G1 X123.611 Y79.84 E2.98626
M204 S1000
G1 X123.953 Y79.841 F10800
M73 P5 R30
M73 Q5 S31
M204 S800
G1 F1200
G1 X123.959 Y69.942 E.49679
G1 X124.113 Y69.213 E.03739
G1 X124.373 Y68.65 E.03112
G1 X124.716 Y68.17 E.02961
G1 X125.446 Y67.559 E.04777
G1 X126.321 Y67.193 E.0476
G1 X127.022 Y67.096 E.03552
G1 X133.626 Y67.098 E.33143
G1 X134.424 Y67.23 E.04059
G1 X135.172 Y67.566 E.04115
G1 X135.836 Y68.115 E.04324
G1 X136.298 Y68.769 E.04019
G1 X136.586 Y69.543 E.04145
G1 X136.728 Y71.204 E.08366
G1 X136.903 Y72.156 E.04858
G1 X137.192 Y73.079 E.04854
G1 X137.59 Y73.961 E.04856
G1 X138.093 Y74.788 E.04858
G1 X138.692 Y75.549 E.0486
G1 X139.378 Y76.231 E.04855
G1 X140.142 Y76.825 E.04857
G1 X140.972 Y77.323 E.04858
G1 X141.856 Y77.716 E.04855
G1 X142.782 Y77.999 E.04859
G1 X143.734 Y78.169 E.04853
G1 X144.773 Y78.226 E.05222
G1 X154.755 Y78.245 E.50096
G1 X155.523 Y78.412 E.03944
G1 X156.223 Y78.766 E.03937
G1 X156.694 Y79.158 E.03075
G1 X157.066 Y79.61 E.02938
G1 X157.437 Y80.359 E.04195
G1 X157.605 Y81.295 E.04772
G1 X157.605 Y132.441 E2.56681
G1 X157.944 Y132.495 E.01723
G1 X159.056 Y132.91 E.05957
G1 X159.962 Y133.494 E.0541
G1 X160.748 Y134.269 E.0554
G1 X161.462 Y135.41 E.06755
G1 X161.817 Y136.458 E.05553
G1 X161.946 Y137.545 E.05493
G1 X161.83 Y138.721 E.05931
G1 X161.473 Y139.806 E.05732
G1 X160.827 Y140.871 E.06251
G1 X159.882 Y141.808 E.06679
G1 X158.749 Y142.474 E.06596
G1 X157.739 Y142.792 E.05314
G1 X156.664 Y142.904 E.05424
G1 X127.489 Y142.904 E1.46417
G1 X126.49 Y142.742 E.05079
M73 Q5 S30
G1 X125.56 Y142.306 E.05155
G1 X124.973 Y141.825 E.03809
G1 X124.512 Y141.258 E.03667
G1 X124.108 Y140.425 E.04646
G1 X123.915 Y139.33 E.0558
G1 X123.953 Y79.901 E2.9825
M204 S1000
G1 X124.295 Y79.901 F10800
M204 S800
G1 F1200
G1 X124.301 Y69.993 E.49724
G1 X124.435 Y69.337 E.0336
G1 X124.664 Y68.836 E.02765
G1 X124.984 Y68.389 E.02759
G1 X125.645 Y67.842 E.04306
G1 X126.43 Y67.52 E.04258
G1 X127.033 Y67.441 E.03052
G1 X133.611 Y67.443 E.33012
G1 X134.344 Y67.566 E.0373
G1 X135.008 Y67.87 E.03665
G1 X135.569 Y68.334 E.03654
G1 X135.983 Y68.912 E.03568
G1 X136.256 Y69.644 E.03921
G1 X136.385 Y71.245 E.08061
