; generated by PrusaSlicer 2.9.4 on 2025-11-16 at 05:14:37 UTC


;
;
; 

; external perimeters extrusion width = 0.60mm
; perimeters extrusion width = 0.50mm
; infill extrusion width = 0.50mm
; solid infill extrusion width = 0.50mm
; top infill extrusion width = 0.45mm
; support material extrusion width = 0.38mm
; first layer extrusion width = 0.42mm

M73 P0 R116
M73 Q0 S116
M201 X1000 Y1000 Z200 E5000 ; sets maximum accelerations, mm/sec^2
M203 X200 Y200 Z12 E120 ; sets maximum feedrates, mm / sec
M204 S1250 T1250 ; sets acceleration (S) and retract acceleration (R), mm/sec^2
M205 X8.00 Y8.00 Z0.40 E4.50 ; sets the jerk limits, mm/sec
M205 S0 T0 ; sets the minimum extruding and travel feed rate, mm/sec

; printing object rh_sofle_pico_backplate_v3.4.stl id:0 copy 0
; stop printing object rh_sofle_pico_backplate_v3.4.stl id:0 copy 0

;TYPE:Custom
M862.3 P "MK3S" ; printer model check
M862.1 P0.4 ; nozzle diameter check
M115 U3.14.1 ; tell printer latest fw version
G90 ; use absolute coordinates
M83 ; extruder relative mode
M104 S215 ; set extruder temp
M140 S60 ; set bed temp
M190 S60 ; wait for bed temp
M109 S215 ; wait for extruder temp
G28 W ; home all without mesh bed level
G80 X45.0127 Y39.57 W159.975 H130.855 ; mesh bed levelling

G1 Z0.2 F720
G1 Y-3 F1000 ; go outside print area
G92 E0
G1 X60 E9 F1000 ; intro line
G1 X100 E12.5 F1000 ; intro line

G92 E0
M221 S95

; Don't change E values below. Excessive value can damage the printer.

M907 E538 ; set extruder motor current
G21 ; set units to millimeters
G90 ; use absolute coordinates
M83 ; use relative distances for extrusion

M900 K0.05 ; Filament gcode LA 1.5
M900 K30 ; Filament gcode LA 1.0




M107
;LAYER_CHANGE
;Z:0.2
;HEIGHT:0.2
G1 E-.8 F2100
G1 Z.6 F720
G1 X57.691 Y43.247 F10800
G1 Z.2 F720
G1 E.8 F2100
M204 S800
;TYPE:Skirt/Brim
;WIDTH:0.42
G1 F1200
G1 X58.385 Y42.421 E.03383
G1 X59.212 Y41.658 E.03528
G1 X59.885 Y41.171 E.02605
G1 X60.863 Y40.614 E.03529
G1 X61.628 Y40.291 E.02604
G1 X62.706 Y39.97 E.03527
G1 X63.525 Y39.828 E.02606
G1 X65.229 Y39.781 E.05345
G1 X159.801 Y55.503 E3.00593
G1 X199.446 Y70.09 E1.32451
M73 P0 R115
G1 X200.888 Y70.844 E.05102
G1 X201.772 Y71.502 E.03455
G1 X202.98 Y72.757 E.05462
G1 X203.624 Y73.71 E.03606
G1 X204.018 Y74.461 E.02659
G1 X204.425 Y75.536 E.03604
G1 X204.635 Y76.358 E.0266
G1 X204.799 Y77.912 E.049
G1 X204.799 Y154.391 E2.39795
G1 X204.668 Y155.751 E.04284
G1 X204.392 Y156.866 E.03602
G1 X203.662 Y158.53 E.05697
G1 X202.827 Y159.734 E.04594
G1 X201.525 Y161.002 E.05698
G1 X200.578 Y161.652 E.03601
G1 X198.926 Y162.409 E.05698
G1 X197.526 Y162.745 E.04514
G1 X139.352 Y170.232 E1.83905
G1 X53.635 Y170.237 E2.6876
G1 X52.171 Y170.085 E.04615
M73 Q0 S115
G1 X50.973 Y169.764 E.03889
G1 X49.786 Y169.252 E.04053
G1 X48.969 Y168.758 E.02994
G1 X48.17 Y168.145 E.03158
G1 X47.293 Y167.268 E.03889
G1 X46.521 Y166.231 E.04054
G1 X46.06 Y165.396 E.02991
G1 X45.674 Y164.465 E.0316
G1 X45.409 Y163.548 E.02993
G1 X45.201 Y161.802 E.05513
G1 X45.201 Y69.518 E2.8935
G1 X45.262 Y68.527 E.03113
G1 X45.544 Y67.158 E.04383
G1 X46.094 Y65.753 E.04731
G1 X57.009 Y44.332 E.75381
G1 X57.659 Y43.298 E.03829
M204 S1000
;WIPE_START
G1 F8640
G1 X57.691 Y43.247 E-.0139
G1 X58.385 Y42.421 E-.24911
G1 X59.212 Y41.658 E-.25981
G1 X59.885 Y41.171 E-.19182
G1 X60.206 Y40.988 E-.08536
;WIPE_END
G1 Z.6 F720
G1 X59.673 Y44.804 F10800
G1 Z.2 F720
G1 E.8 F2100
M204 S800
G1 F1200
G1 X60.185 Y44.121 E.02676
G1 X60.944 Y43.453 E.0317
G1 X61.779 Y42.925 E.03098
G1 X63.417 Y42.355 E.05438
G1 X65.196 Y42.263 E.05585
G1 X66.139 Y42.432 E.03004
G1 X120.652 Y57.787 E1.77573
G1 X159.358 Y57.942 E1.21361
G1 X198.591 Y72.413 E1.31113
G1 X200.213 Y73.426 E.05996
G1 X201.072 Y74.346 E.03947
G1 X201.735 Y75.436 E.04
G1 X202.157 Y76.638 E.03994
G1 X202.324 Y77.919 E.0405
G1 X202.324 Y154.41 E2.39832
G1 X202.03 Y156.129 E.05468
G1 X201.607 Y157.12 E.03378
G1 X201.022 Y158.032 E.03397
G1 X199.313 Y159.527 E.07119
G1 X198.229 Y160.025 E.0374
G1 X197.083 Y160.31 E.03703
G1 X139.196 Y167.762 E1.82998
G1 X53.614 Y167.762 E2.68336
G1 X51.767 Y167.42 E.0589
G1 X50.715 Y166.93 E.03639
G1 X49.764 Y166.256 E.03655
G1 X48.277 Y164.303 E.07696
G1 X47.849 Y163.081 E.0406
G1 X47.676 Y161.787 E.04093
G1 X47.712 Y68.904 E2.91228
G1 X47.914 Y67.882 E.03266
G1 X48.295 Y66.885 E.03347
G1 X59.333 Y45.26 E.76126
G1 X59.637 Y44.852 E.01595
M204 S1000
G1 X59.939 Y45.077 F10800
M204 S800
G1 F1200
G1 X60.449 Y44.39 E.02683
G1 X61.158 Y43.764 E.02966
G1 X61.962 Y43.255 E.02984
G1 X63.515 Y42.72 E.0515
G1 X65.151 Y42.638 E.05136
G1 X66.046 Y42.798 E.02851
G1 X120.6 Y58.164 E1.77706
G1 X159.259 Y58.307 E1.21213
G1 X198.443 Y72.76 E1.3095
G1 X199.955 Y73.701 E.05584
G1 X200.783 Y74.588 E.03805
G1 X201.402 Y75.613 E.03754
G1 X201.794 Y76.742 E.03747
G1 X201.947 Y77.931 E.03759
G1 X201.947 Y154.394 E2.39744
G1 X201.674 Y156.001 E.05111
M73 P1 R115
M73 Q1 S115
G1 X201.266 Y156.957 E.03259
G1 X200.719 Y157.805 E.03164
G1 X199.13 Y159.196 E.06621
G1 X198.12 Y159.664 E.0349
G1 X197.024 Y159.937 E.03541
G1 X139.184 Y167.385 E1.82851
M73 P1 R114
G1 X53.631 Y167.385 E2.68245
G1 X51.904 Y167.068 E.05505
G1 X50.89 Y166.595 E.03508
G1 X50.006 Y165.966 E.03402
G1 X48.623 Y164.15 E.07157
G1 X48.211 Y162.975 E.03904
G1 X48.053 Y161.775 E.03795
G1 X48.084 Y68.963 E2.91006
G1 X48.272 Y68.001 E.03073
G1 X48.636 Y67.047 E.03202
G1 X59.645 Y45.472 E.75945
G1 X59.903 Y45.125 E.01356
M204 S1000
G1 X60.205 Y45.348 F10800
M204 S800
G1 F1200
G1 X60.714 Y44.659 E.02686
G1 X61.396 Y44.056 E.02854
G1 X62.144 Y43.586 E.0277
G1 X63.561 Y43.095 E.04702
G1 X65.107 Y43.013 E.04854
G1 X65.953 Y43.163 E.02694
G1 X120.547 Y58.541 E1.77837
G1 X159.16 Y58.672 E1.21069
M73 Q1 S114
G1 X198.294 Y73.108 E1.30784
G1 X199.697 Y73.978 E.05176
G1 X200.471 Y74.802 E.03545
G1 X201.053 Y75.757 E.03507
G1 X201.423 Y76.811 E.03502
G1 X201.57 Y77.943 E.03579
G1 X201.57 Y154.379 E2.3966
G1 X201.318 Y155.875 E.04757
G1 X200.94 Y156.767 E.03038
G1 X200.417 Y157.578 E.03026
G1 X198.948 Y158.866 E.06126
G1 X197.978 Y159.314 E.0335
G1 X196.965 Y159.564 E.03271
G1 X139.172 Y167.008 E1.82703
G1 X53.648 Y167.008 E2.68154
G1 X52.04 Y166.715 E.05125
G1 X51.094 Y166.278 E.03267
G1 X50.248 Y165.675 E.03257
G1 X48.969 Y163.996 E.06618
G1 X48.582 Y162.905 E.0363
G1 X48.43 Y161.762 E.03615
G1 X48.46 Y68.997 E2.90858
G1 X48.639 Y68.09 E.02899
G1 X48.976 Y67.209 E.02958
G1 X59.957 Y45.683 E.75768
G1 X60.169 Y45.396 E.01119
M204 S1000
G1 X60.472 Y45.619 F10800
M204 S800
G1 F1200
G1 X60.98 Y44.928 E.02689
G1 X61.611 Y44.367 E.02647
G1 X62.326 Y43.917 E.02649
G1 X63.658 Y43.461 E.04414
G1 X65.062 Y43.388 E.04408
G1 X65.86 Y43.529 E.02541
G1 X120.494 Y58.917 E1.77966
G1 X159.06 Y59.038 E1.20922
G1 X198.146 Y73.455 E1.30622
G1 X199.441 Y74.255 E.04773
G1 X200.161 Y75.016 E.03285
G1 X200.704 Y75.902 E.03258
G1 X201.06 Y76.917 E.03373
G1 X201.193 Y77.955 E.03281
G1 X201.193 Y154.363 E2.39572
G1 X200.962 Y155.75 E.04409
G1 X200.614 Y156.576 E.0281
G1 X200.114 Y157.352 E.02894
G1 X198.764 Y158.535 E.05628
G1 X197.869 Y158.952 E.03096
G1 X196.906 Y159.192 E.03112
G1 X139.16 Y166.631 E1.82555
G1 X53.665 Y166.631 E2.68064
G1 X52.175 Y166.362 E.04747
G1 X51.298 Y165.96 E.03025
G1 X50.489 Y165.384 E.03114
G1 X49.314 Y163.842 E.06079
G1 X48.953 Y162.835 E.03354
G1 X48.807 Y161.749 E.03436
G1 X48.836 Y69.031 E2.90711
G1 X49.006 Y68.18 E.02721
M73 P1 R113
G1 X49.316 Y67.372 E.02713
G1 X60.271 Y45.894 E.75597
G1 X60.437 Y45.667 E.00882
M204 S1000
G1 X60.741 Y45.888 F10800
M204 S800
G1 F1200
G1 X61.246 Y45.196 E.02686
G1 X61.849 Y44.66 E.0253
G1 X62.508 Y44.248 E.02437
G1 X63.705 Y43.836 E.03969
G1 X65.019 Y43.764 E.04126
G1 X65.767 Y43.895 E.02381
G1 X120.442 Y59.294 E1.78099
G1 X158.961 Y59.403 E1.20774
G1 X197.998 Y73.802 E1.30459
M73 P2 R113
M73 Q2 S114
G1 X199.185 Y74.533 E.04371
G1 X199.85 Y75.231 E.03023
G1 X200.372 Y76.081 E.03128
G1 X200.697 Y77.021 E.03118
G1 X200.815 Y77.967 E.02989
G1 X200.815 Y154.348 E2.39487
G1 X200.606 Y155.624 E.04054
M73 Q2 S113
G1 X200.274 Y156.415 E.0269
G1 X199.812 Y157.124 E.02653
G1 X198.579 Y158.206 E.05143
G1 X197.759 Y158.591 E.0284
G1 X196.847 Y158.819 E.02948
G1 X139.148 Y166.253 E1.82407
G1 X53.681 Y166.253 E2.67976
G1 X52.311 Y166.01 E.04363
G1 X51.472 Y165.625 E.02894
G1 X50.732 Y165.094 E.02856
G1 X49.659 Y163.687 E.05548
G1 X49.315 Y162.727 E.03197
G1 X49.185 Y161.737 E.03131
G1 X49.212 Y69.065 E2.90567
G1 X49.364 Y68.299 E.02449
G1 X49.657 Y67.534 E.02569
G1 X60.584 Y46.103 E.75426
G1 X60.706 Y45.937 E.00646
M204 S1000
G1 X61.01 Y46.157 F10800
M204 S800
G1 F1200
G1 X61.512 Y45.463 E.02686
G1 X62.063 Y44.971 E.02316
G1 X62.689 Y44.579 E.02316
G1 X63.802 Y44.201 E.03686
G1 X64.975 Y44.139 E.03683
G1 X65.674 Y44.26 E.02224
G1 X120.389 Y59.671 E1.7823
G1 X158.861 Y59.768 E1.20627
G1 X197.85 Y74.15 E1.30299
G1 X198.93 Y74.812 E.03972
G1 X199.54 Y75.447 E.02761
G1 X200.023 Y76.226 E.02874
G1 X200.326 Y77.088 E.02865
G1 X200.438 Y77.979 E.02816
G1 X200.438 Y154.333 E2.39403
G1 X200.249 Y155.5 E.03707
G1 X199.948 Y156.224 E.02458
G1 X199.51 Y156.897 E.02518
G1 X198.395 Y157.876 E.04652
G1 X197.616 Y158.242 E.02699
G1 X196.788 Y158.447 E.02675
G1 X139.136 Y165.876 E1.82258
G1 X53.697 Y165.876 E2.67888
G1 X52.444 Y165.656 E.03989
G1 X51.677 Y165.308 E.02641
G1 X50.975 Y164.804 E.0271
G1 X50.003 Y163.531 E.05022
G1 X49.686 Y162.656 E.02918
G1 X49.562 Y161.725 E.02945
G1 X49.587 Y69.1 E2.90419
G1 X49.73 Y68.39 E.02271
G1 X49.997 Y67.697 E.02329
G1 X60.899 Y46.312 E.75262
G1 X60.975 Y46.206 E.00409
M204 S1000
G1 X61.281 Y46.425 F10800
M204 S800
G1 F1200
G1 X61.78 Y45.729 E.02685
G1 X62.277 Y45.282 E.02096
G1 X62.871 Y44.91 E.02198
G1 X63.849 Y44.576 E.0324
G1 X64.933 Y44.514 E.03404
G1 X65.581 Y44.626 E.02062
G1 X120.337 Y60.048 E1.78363
G1 X158.762 Y60.133 E1.20479
G1 X197.703 Y74.497 E1.30138
G1 X198.677 Y75.092 E.03579
M73 P2 R112
G1 X199.232 Y75.664 E.02499
G1 X199.675 Y76.372 E.02619
G1 X199.954 Y77.157 E.02612
G1 X200.061 Y77.991 E.02636
G1 X200.061 Y154.319 E2.39321
G1 X199.892 Y155.376 E.03356
G1 X199.607 Y156.062 E.02329
G1 X199.209 Y156.669 E.02276
G1 X198.209 Y157.546 E.0417
G1 X197.506 Y157.881 E.02442
G1 X196.729 Y158.074 E.0251
G1 X139.124 Y165.499 E1.82111
G1 X53.713 Y165.499 E2.678
G1 X52.578 Y165.303 E.03611
G1 X51.85 Y164.972 E.02507
G1 X51.218 Y164.515 E.02445
G1 X50.347 Y163.374 E.04501
G1 X50.057 Y162.585 E.02636
G1 X49.939 Y161.712 E.02762
G1 X49.963 Y69.135 E2.90269
G1 X50.096 Y68.481 E.02093
M73 Q2 S112
G1 X50.337 Y67.86 E.02089
G1 X61.214 Y46.52 E.751
G1 X61.246 Y46.474 E.00176
M73 P3 R112
M73 Q3 S112
M204 S1000
G1 X61.554 Y46.692 F10800
M204 S800
G1 F1200
G1 X62.049 Y45.995 E.0268
G1 X62.517 Y45.573 E.01976
G1 X63.05 Y45.242 E.01967
G1 X63.945 Y44.942 E.0296
G1 X64.89 Y44.889 E.02968
G1 X65.489 Y44.991 E.01905
G1 X120.284 Y60.425 E1.78491
G1 X158.663 Y60.499 E1.20335
G1 X197.556 Y74.845 E1.29978
G1 X198.423 Y75.372 E.03181
G1 X198.947 Y75.912 E.02359
G1 X199.343 Y76.553 E.02362
G1 X199.592 Y77.262 E.02356
G1 X199.684 Y78.002 E.02338
G1 X199.684 Y154.304 E2.3924
G1 X199.535 Y155.254 E.03015
G1 X199.281 Y155.871 E.02092
G1 X198.908 Y156.441 E.02136
G1 X198.024 Y157.217 E.03688
G1 X197.362 Y157.532 E.02299
G1 X196.671 Y157.701 E.0223
G1 X139.112 Y165.122 E1.81966
G1 X53.729 Y165.122 E2.67712
G1 X52.71 Y164.949 E.03241
G1 X52.055 Y164.655 E.02251
G1 X51.462 Y164.226 E.02295
G1 X50.691 Y163.217 E.03982
G1 X50.418 Y162.475 E.02479
G1 X50.316 Y161.7 E.02451
G1 X50.339 Y69.17 E2.90121
G1 X50.454 Y68.602 E.01817
G1 X50.678 Y68.023 E.01947
G1 X61.521 Y46.742 E.74887
M204 S1000
G1 X61.857 Y46.914 F10800
M204 S800
G1 F1200
G1 X61.859 Y46.91 E.00014
G1 X62.318 Y46.259 E.02498
G1 X62.73 Y45.884 E.01747
G1 X63.23 Y45.575 E.01843
G1 X64.039 Y45.308 E.02671
G1 X64.848 Y45.264 E.0254
G1 X65.396 Y45.357 E.01743
G1 X120.232 Y60.802 E1.78624
G1 X158.563 Y60.864 E1.20184
G1 X197.408 Y75.192 E1.29817
G1 X198.171 Y75.654 E.02797
G1 X198.639 Y76.13 E.02093
G1 X198.995 Y76.7 E.02107
G1 X199.22 Y77.33 E.02098
G1 X199.307 Y78.014 E.02162
G1 X199.307 Y154.29 E2.39158
G1 X199.178 Y155.131 E.02668
G1 X198.94 Y155.71 E.01963
G1 X198.607 Y156.212 E.01889
G1 X197.836 Y156.889 E.03217
G1 X197.251 Y157.17 E.02035
G1 X196.611 Y157.329 E.02068
G1 X139.099 Y164.745 E1.81818
G1 X53.744 Y164.745 E2.67625
G1 X52.842 Y164.595 E.02867
M73 P3 R111
G1 X52.228 Y164.319 E.02111
G1 X51.706 Y163.938 E.02026
G1 X51.034 Y163.059 E.03469
G1 X50.789 Y162.403 E.02196
G1 X50.693 Y161.687 E.02265
G1 X50.714 Y69.206 E2.89968
G1 X51.018 Y68.186 E.03337
G1 X61.83 Y46.967 E.7467
M204 S1000
G1 X62.166 Y47.138 F10800
M204 S800
G1 F1200
G1 X62.189 Y47.092 E.00161
G1 X62.587 Y46.524 E.02175
G1 X63.408 Y45.908 E.03218
G1 X64.086 Y45.682 E.02241
G1 X64.807 Y45.64 E.02264
G1 X65.304 Y45.723 E.0158
G1 X120.18 Y61.179 E1.78754
G1 X158.464 Y61.229 E1.20037
G1 X197.261 Y75.54 E1.29657
G1 X197.92 Y75.936 E.02411
M73 Q3 S111
G1 X198.332 Y76.351 E.01834
G1 X198.648 Y76.847 E.01844
G1 X198.858 Y77.437 E.01964
G1 X198.93 Y78.025 E.01857
G1 X198.93 Y154.276 E2.3908
G1 X198.819 Y155.011 E.02331
G1 X198.614 Y155.518 E.01715
G1 X198.307 Y155.983 E.01747
G1 X197.648 Y156.561 E.02748
G1 X197.14 Y156.81 E.01774
G1 X196.552 Y156.956 E.019
G1 X139.087 Y164.368 E1.8167
G1 X53.759 Y164.368 E2.6754
G1 X52.971 Y164.24 E.02503
G1 X52.434 Y164.003 E.0184
G1 X51.951 Y163.65 E.01876
G1 X51.378 Y162.9 E.02959
G1 X51.15 Y162.291 E.02039
G1 X51.07 Y161.675 E.01948
G1 X51.09 Y69.243 E2.89814
G1 X51.358 Y68.349 E.02926
M73 P4 R111
M73 Q4 S111
G1 X62.139 Y47.192 E.74452
M204 S1000
G1 X62.475 Y47.363 F10800
M204 S800
G1 F1200
G1 X62.52 Y47.275 E.0031
G1 X62.859 Y46.787 E.01863
G1 X63.585 Y46.241 E.02848
G1 X64.179 Y46.049 E.01957
G1 X64.766 Y46.015 E.01844
G1 X65.212 Y46.089 E.01418
G1 X120.127 Y61.556 E1.78881
G1 X158.365 Y61.595 E1.19893
G1 X197.115 Y75.888 E1.29499
G1 X197.672 Y76.221 E.02035
G1 X198.026 Y76.572 E.01563
G1 X198.317 Y77.03 E.01701
G1 X198.495 Y77.54 E.01694
G1 X198.553 Y78.036 E.01566
G1 X198.553 Y154.263 E2.39004
G1 X198.461 Y154.891 E.0199
G1 X198.272 Y155.358 E.0158
G1 X198.008 Y155.752 E.01487
G1 X197.459 Y156.234 E.02291
G1 X196.993 Y156.462 E.01627
G1 X196.494 Y156.584 E.01611
G1 X139.075 Y163.991 E1.81525
G1 X53.773 Y163.991 E2.67458
G1 X53.1 Y163.885 E.02136
G1 X52.606 Y163.667 E.01693
G1 X52.197 Y163.363 E.01598
G1 X51.72 Y162.74 E.0246
G1 X51.521 Y162.219 E.01749
G1 X51.447 Y161.663 E.01759
G1 X51.465 Y69.28 E2.8966
G1 X51.698 Y68.513 E.02513
G1 X62.447 Y47.416 E.74239
M204 S1000
G1 X62.783 Y47.588 F10800
M204 S800
G1 F1200
G1 X62.85 Y47.456 E.00464
G1 X63.13 Y47.05 E.01546
G1 X63.761 Y46.576 E.02474
G1 X64.227 Y46.423 E.01538
G1 X64.728 Y46.391 E.01574
G1 X120.075 Y61.933 E1.80249
G1 X158.266 Y61.96 E1.19745
G1 X196.969 Y76.236 E1.29343
M73 P4 R110
G1 X197.426 Y76.507 E.01666
G1 X197.97 Y77.179 E.02711
G1 X198.123 Y77.607 E.01425
G1 X198.176 Y78.047 E.0139
G1 X198.176 Y154.25 E2.38929
G1 X198.102 Y154.774 E.01659
G1 X197.709 Y155.521 E.02647
G1 X197.269 Y155.908 E.01837
G1 X196.435 Y156.211 E.02782
G1 X139.063 Y163.614 E1.81377
G1 X53.787 Y163.614 E2.67377
G1 X53.226 Y163.528 E.0178
M73 Q4 S110
G1 X52.812 Y163.35 E.01413
G1 X52.443 Y163.076 E.01441
G1 X52.061 Y162.577 E.0197
G1 X51.891 Y162.145 E.01456
G1 X51.824 Y161.65 E.01566
G1 X51.841 Y69.317 E2.89504
G1 X52.038 Y68.676 E.02103
G1 X62.756 Y47.641 E.74022
M204 S1000
G1 X63.092 Y47.812 F10800
M204 S800
G1 F1200
G1 X63.181 Y47.638 E.00613
G1 X63.404 Y47.309 E.01246
G1 X63.936 Y46.911 E.02083
G1 X64.318 Y46.79 E.01256
G1 X65.029 Y46.821 E.02231
G1 X120.023 Y62.31 E1.79138
G1 X158.167 Y62.325 E1.19598
G1 X196.823 Y76.584 E1.29186
G1 X197.179 Y76.793 E.01294
G1 X197.639 Y77.361 E.02292
G1 X197.799 Y78.057 E.02239
G1 X197.799 Y154.238 E2.3886
G1 X197.743 Y154.658 E.01329
G1 X197.412 Y155.288 E.02231
G1 X197.078 Y155.581 E.01393
G1 X196.378 Y155.838 E.02338
G1 X139.051 Y163.237 E1.81236
G1 X53.8 Y163.237 E2.67299
G1 X53.352 Y163.172 E.01419
M73 P5 R110
M73 Q5 S110
G1 X52.692 Y162.792 E.02388
G1 X52.402 Y162.414 E.01494
G1 X52.201 Y161.639 E.0251
G1 X52.216 Y69.356 E2.89347
G1 X52.377 Y68.84 E.01695
