; generated by PrusaSlicer 2.9.3 on 2025-10-31 at 14:51:51 UTC


;
;
; 

; external perimeters extrusion width = 0.60mm
; perimeters extrusion width = 0.50mm
; infill extrusion width = 0.50mm
; solid infill extrusion width = 0.50mm
; top infill extrusion width = 0.45mm
; support material extrusion width = 0.38mm
; first layer extrusion width = 0.42mm

M73 P0 R91
M73 Q0 S92
M201 X1000 Y1000 Z200 E5000 ; sets maximum accelerations, mm/sec^2
M203 X200 Y200 Z12 E120 ; sets maximum feedrates, mm / sec
M204 S1250 T1250 ; sets acceleration (S) and retract acceleration (R), mm/sec^2
M205 X8.00 Y8.00 Z0.40 E4.50 ; sets the jerk limits, mm/sec
M205 S0 T0 ; sets the minimum extruding and travel feed rate, mm/sec

; printing object sofle_pico_keyplate_notched_no_tenting_puck.stl id:0 copy 0
; stop printing object sofle_pico_keyplate_notched_no_tenting_puck.stl id:0 copy 0

;TYPE:Custom
M862.3 P "MK3S" ; printer model check
M862.1 P0.4 ; nozzle diameter check
M115 U3.14.1 ; tell printer latest fw version
G90 ; use absolute coordinates
M83 ; extruder relative mode
M104 S215 ; set extruder temp
M140 S60 ; set bed temp
M190 S60 ; wait for bed temp
M109 S215 ; wait for extruder temp
G28 W ; home all without mesh bed level
G80 X39.7649 Y35.9761 W170.068 H140.913 ; mesh bed levelling

G1 Z0.2 F720
G1 Y-3 F1000 ; go outside print area
G92 E0
G1 X60 E9 F1000 ; intro line
G1 X100 E12.5 F1000 ; intro line

G92 E0
M221 S95

; Don't change E values below. Excessive value can damage the printer.

M907 E538 ; set extruder motor current
G21 ; set units to millimeters
G90 ; use absolute coordinates
M83 ; use relative distances for extrusion

M900 K0.05 ; Filament gcode LA 1.5
M900 K30 ; Filament gcode LA 1.0




M107
;LAYER_CHANGE
;Z:0.4
;HEIGHT:0.4
G1 E-.8 F2100
M73 Q0 S91
G1 Z.8 F720
G1 X44.484 Y67.961 F10800
G1 Z.4 F720
G1 E.8 F2100
M204 S800
;TYPE:Skirt/Brim
;WIDTH:0.42
G1 F1200
G1 X45.602 Y67.301 E.07215
G1 X46.561 Y66.883 E.05813
G1 X47.79 Y66.515 E.07129
G1 X184.162 Y36.386 E7.76107
G1 X185.388 Y36.188 E.06901
G1 X186.434 Y36.144 E.05818
G1 X187.977 Y36.287 E.08611
G1 X189.307 Y36.617 E.07615
G1 X190.737 Y37.213 E.08609
G1 X192.113 Y38.074 E.0902
G1 X193.149 Y38.971 E.07615
G1 X194.154 Y40.151 E.08613
G1 X194.875 Y41.317 E.07618
G1 X195.483 Y42.742 E.0861
G1 X209.43 Y101.295 E3.34488
G1 X209.629 Y102.573 E.07188
G1 X209.656 Y103.871 E.07215
G1 X209.445 Y105.479 E.09012
G1 X208.949 Y107.076 E.09293
G1 X182.571 Y170.732 E3.82911
G1 X182.034 Y171.833 E.06807
G1 X181.511 Y172.655 E.05414
G1 X180.859 Y173.474 E.05817
G1 X179.989 Y174.337 E.0681
G1 X178.402 Y175.462 E.1081
G1 X176.622 Y176.248 E.10813
G1 X174.721 Y176.66 E.10809
G1 X172.759 Y176.683 E.10904
G1 X48.671 Y166.326 E6.91966
G1 X46.833 Y165.967 E.10407
M73 P0 R90
G1 X45.034 Y165.225 E.10814
G1 X43.616 Y164.297 E.09417
G1 X42.264 Y163.001 E.10408
G1 X41.315 Y161.686 E.09012
G1 X40.598 Y160.23 E.09019
G1 X40.135 Y158.675 E.09016
G1 X39.937 Y156.993 E.09412
G1 X40.277 Y75.902 E4.50634
G1 X40.359 Y74.679 E.06812
G1 X40.534 Y73.721 E.05412
G1 X41.169 Y71.882 E.10812
G1 X42.159 Y70.207 E.10812
G1 X42.775 Y69.453 E.05411
G1 X43.518 Y68.716 E.05816
G1 X44.437 Y67.998 E.06481
M204 S1000
;WIPE_START
G1 F8640
G1 X44.484 Y67.961 E-.01381
G1 X45.602 Y67.301 E-.29978
G1 X46.561 Y66.883 E-.24156
G1 X47.577 Y66.578 E-.24485
;WIPE_END
G1 Z.8 F720
; printing object sofle_pico_keyplate_notched_no_tenting_puck.stl id:0 copy 0
G1 X127.639 Y106.43 F10800
G1 Z.4 F720
G1 E.8 F2100
M204 S800
;TYPE:Perimeter
;WIDTH:0.42
G1 F1200
G1 X127.706 Y106.48 E.00465
G1 X127.779 Y106.618 E.00868
G1 X127.806 Y106.781 E.00918
G1 X127.806 Y121.266 E.80494
G1 X127.742 Y121.512 E.01413
G1 X127.605 Y121.667 E.0115
G1 X127.481 Y121.736 E.00789
G1 X127.305 Y121.768 E.00994
G1 X112.819 Y121.768 E.805
G1 X112.643 Y121.736 E.00994
G1 X112.419 Y121.569 E.01553
G1 X112.328 Y121.367 E.01231
G1 X112.318 Y120.288 E.05996
G1 X112.318 Y106.781 E.7506
G1 X112.345 Y106.618 E.00918
G1 X112.518 Y106.38 E.01635
G1 X112.819 Y106.279 E.01764
G1 X127.305 Y106.279 E.805
G1 X127.481 Y106.311 E.00994
G1 X127.591 Y106.394 E.00766
M204 S1000
G1 X127.412 Y106.675 F10800
M204 S800
;TYPE:External perimeter
G1 F1200
G1 X127.463 Y106.727 E.00405
G1 X127.472 Y106.781 E.00304
G1 X127.472 Y121.266 E.80494
G1 X127.405 Y121.4 E.00833
G1 X127.305 Y121.434 E.00587
G1 X112.819 Y121.434 E.805
G1 X112.686 Y121.367 E.00828
G1 X112.652 Y121.266 E.00592
G1 X112.652 Y106.781 E.80494
G1 X112.719 Y106.647 E.00833
G1 X112.819 Y106.614 E.00585
G1 X127.363 Y106.624 E.80822
G1 X127.37 Y106.632 E.00059
M204 S1000
;WIPE_START
G1 F8640
G1 X127.412 Y106.675 E-.01388
G1 X127.463 Y106.727 E-.01682
G1 X127.472 Y106.781 E-.01264
G1 X127.472 Y110.058 E-.75666
;WIPE_END
G1 Z.8 F720
G1 X127.639 Y102.568 F10800
G1 Z.4 F720
G1 E.8 F2100
M204 S800
;TYPE:Perimeter
G1 F1200
G1 X127.481 Y102.686 E.01096
G1 X127.305 Y102.718 E.00994
G1 X112.819 Y102.718 E.805
G1 X112.643 Y102.686 E.00994
G1 X112.419 Y102.519 E.01553
G1 X112.328 Y102.317 E.01231
G1 X112.318 Y101.238 E.05996
G1 X112.318 Y87.731 E.7506
G1 X112.345 Y87.568 E.00918
G1 X112.518 Y87.33 E.01635
G1 X112.819 Y87.23 E.01763
G1 X127.305 Y87.23 E.805
G1 X127.481 Y87.262 E.00994
G1 X127.706 Y87.43 E.0156
G1 X127.779 Y87.568 E.00868
G1 X127.806 Y87.731 E.00918
G1 X127.796 Y102.317 E.81056
G1 X127.704 Y102.519 E.01233
G1 X127.687 Y102.532 E.00119
M204 S1000
G1 X127.429 Y102.313 F10800
M204 S800
;TYPE:External perimeter
G1 F1200
G1 X127.405 Y102.35 E.00245
G1 X127.305 Y102.384 E.00587
G1 X112.819 Y102.384 E.805
G1 X112.686 Y102.317 E.00828
G1 X112.652 Y102.217 E.00587
G1 X112.652 Y87.731 E.805
G1 X112.719 Y87.597 E.00833
G1 X112.819 Y87.564 E.00585
G1 X127.305 Y87.564 E.805
G1 X127.438 Y87.631 E.00828
G1 X127.472 Y87.731 E.00587
G1 X127.468 Y102.25 E.80683
G1 X127.461 Y102.262 E.00077
M204 S1000
;WIPE_START
G1 F8640
G1 X127.429 Y102.313 E-.0139
G1 X127.405 Y102.35 E-.01018
G1 X127.305 Y102.384 E-.02439
G1 X124.05 Y102.384 E-.75153
;WIPE_END
G1 Z.8 F720
G1 X146.688 Y84.88 F10800
G1 Z.4 F720
G1 E.8 F2100
M204 S800
;TYPE:Perimeter
G1 F1200
G1 X146.755 Y84.93 E.00465
G1 X146.829 Y85.068 E.0087
G1 X146.856 Y85.231 E.00918
G1 X146.856 Y98.661 E.74632
;WIDTH:0.469453
G1 X146.88 Y98.938 E.01774
;WIDTH:0.518906
G1 X146.905 Y99.215 E.02003
G1 X146.895 Y99.717 E.03616
;WIDTH:0.498795
G1 X146.85 Y99.835 E.00867
;WIDTH:0.467439
G1 X146.806 Y99.952 E.00793
;WIDTH:0.436083
G1 X146.579 Y100.165 E.01813
;WIDTH:0.42
G1 X146.509 Y100.194 E.00421
G1 X146.354 Y100.218 E.00872
G1 X131.869 Y100.218 E.80494
G1 X131.693 Y100.186 E.00994
G1 X131.468 Y100.017 E.01564
G1 X131.375 Y99.803 E.01297
G1 X131.367 Y99.717 E.0048
G1 X131.367 Y85.231 E.805
G1 X131.432 Y84.985 E.01414
G1 X131.568 Y84.83 E.01146
G1 X131.869 Y84.73 E.01763
G1 X146.354 Y84.73 E.80494
G1 X146.53 Y84.762 E.00994
G1 X146.64 Y84.844 E.00762
M204 S1000
G1 X146.44 Y85.107 F10800
M204 S800
;TYPE:External perimeter
G1 F1200
G1 X146.488 Y85.131 E.00298
G1 X146.521 Y85.231 E.00585
G1 X146.521 Y99.717 E.805
G1 X146.474 Y99.833 E.00696
G1 X146.406 Y99.876 E.00447
G1 X131.869 Y99.884 E.80783
G1 X131.735 Y99.817 E.00833
G1 X131.702 Y99.717 E.00585
G1 X131.702 Y85.231 E.805
G1 X131.768 Y85.097 E.0083
G1 X131.869 Y85.064 E.0059
G1 X146.354 Y85.064 E.80494
G1 X146.386 Y85.08 E.00199
M204 S1000
;WIPE_START
G1 F8640
G1 X146.44 Y85.107 E-.01394
G1 X146.488 Y85.131 E-.01239
G1 X146.521 Y85.231 E-.02432
G1 X146.521 Y88.476 E-.74935
;WIPE_END
G1 Z.8 F720
G1 X149.182 Y101.499 F10800
G1 Z.4 F720
G1 E.8 F2100
M204 S800
;TYPE:Perimeter
G1 F1200
G1 X149.116 Y101.506 E.00369
G1 X148.642 Y101.426 E.02671
G1 X148.191 Y101.216 E.02765
G1 X147.81 Y100.89 E.02787
G1 X147.554 Y100.528 E.02464
;WIDTH:0.436083
G1 X147.375 Y100.062 E.02908
;WIDTH:0.467498
G1 X147.341 Y99.805 E.01645
;WIDTH:0.498914
G1 X147.306 Y99.547 E.01789
;WIDTH:0.518906
G1 X147.336 Y99.244 E.02193
G1 X147.478 Y98.965 E.02255
;WIDTH:0.469453
G1 X147.619 Y98.686 E.01994
;WIDTH:0.42
G1 X147.925 Y98.315 E.02672
G1 X148.332 Y98.03 E.02761
G1 X148.814 Y97.862 E.02837
G1 X149.247 Y97.822 E.02416
G1 X149.721 Y97.901 E.0267
M73 Q1 S91
G1 X150.181 Y98.119 E.02829
G1 X150.56 Y98.446 E.02782
G1 X150.809 Y98.799 E.02401
M73 P1 R90
G1 X150.98 Y99.266 E.02764
G1 X151.017 Y99.775 E.02836
G1 X150.944 Y100.204 E.02418
G1 X150.744 Y100.641 E.02671
;WIDTH:0.456105
G1 X150.449 Y101.027 E.02991
G1 X150.047 Y101.294 E.02972
;WIDTH:0.424576
G1 X149.595 Y101.46 E.02712
;WIDTH:0.42
G1 X149.241 Y101.494 E.01976
M204 S1000
G1 X149.182 Y101.172 F10800
M204 S800
;TYPE:External perimeter
G1 F1200
G1 X149.16 Y101.174 E.00123
G1 X148.769 Y101.117 E.02196
G1 X148.403 Y100.958 E.02218
G1 X148.07 Y100.68 E.02411
G1 X147.862 Y100.4 E.01938
G1 X147.716 Y100.028 E.02221
G1 X147.677 Y99.596 E.0241
G1 X147.728 Y99.252 E.01933
G1 X147.884 Y98.89 E.02191
G1 X148.129 Y98.58 E.02196
G1 X148.45 Y98.342 E.02221
G1 X148.913 Y98.186 E.02715
G1 X149.203 Y98.153 E.01622
G1 X149.594 Y98.21 E.02196
G1 X149.97 Y98.378 E.02289
G1 X150.294 Y98.649 E.02347
G1 X150.501 Y98.927 E.01926
G1 X150.647 Y99.299 E.02221
G1 X150.686 Y99.731 E.0241
G1 X150.635 Y100.076 E.01938
G1 X150.479 Y100.438 E.02191
G1 X150.166 Y100.8 E.02659
G1 X149.918 Y100.983 E.01713
G1 X149.551 Y101.129 E.02195
G1 X149.241 Y101.165 E.01734
M204 S1000
;WIPE_START
G1 F8640
G1 X149.182 Y101.172 E-.01372
G1 X149.16 Y101.174 E-.0051
G1 X148.769 Y101.117 E-.09124
G1 X148.403 Y100.958 E-.09214
G1 X148.07 Y100.68 E-.10016
G1 X147.862 Y100.4 E-.08054
G1 X147.716 Y100.028 E-.09227
G1 X147.677 Y99.596 E-.10016
G1 X147.728 Y99.252 E-.0803
G1 X147.884 Y98.89 E-.09102
G1 X148.027 Y98.709 E-.05335
;WIPE_END
G1 Z.8 F720
G1 X150.559 Y82.398 F10800
G1 Z.4 F720
G1 E.8 F2100
M204 S800
;TYPE:Perimeter
G1 F1200
G1 X150.588 Y82.355 E.00288
G1 X150.819 Y82.24 E.01434
G1 X165.404 Y82.23 E.8105
G1 X165.664 Y82.302 E.01499
G1 X165.849 Y82.499 E.01502
G1 X165.906 Y82.731 E.01328
G1 X165.906 Y97.217 E.805
G1 X165.831 Y97.479 E.01514
G1 X165.681 Y97.634 E.01199
G1 X165.513 Y97.706 E.01016
G1 X165.404 Y97.718 E.00609
G1 X150.917 Y97.718 E.80506
G1 X150.673 Y97.654 E.01402
G1 X150.499 Y97.491 E.01325
G1 X150.417 Y97.217 E.01589
G1 X150.417 Y82.731 E.805
G1 X150.446 Y82.565 E.00936
G1 X150.525 Y82.447 E.00789
M204 S1000
G1 X150.806 Y82.626 F10800
M204 S800
;TYPE:External perimeter
G1 F1200
G1 X150.847 Y82.58 E.00342
G1 X152.049 Y82.564 E.0668
G1 X165.404 Y82.564 E.74215
G1 X165.537 Y82.629 E.00823
G1 X165.571 Y82.731 E.00597
G1 X165.571 Y97.217 E.805
G1 X165.515 Y97.342 E.00761
G1 X165.404 Y97.384 E.0066
G1 X150.918 Y97.384 E.805
G1 X150.811 Y97.344 E.00635
G1 X150.751 Y97.217 E.00781
G1 X150.761 Y82.676 E.80806
G1 X150.766 Y82.67 E.00043
M204 S1000
;WIPE_START
G1 F8640
G1 X150.806 Y82.626 E-.01373
G1 X150.847 Y82.58 E-.01423
G1 X152.049 Y82.564 E-.27757
G1 X154.191 Y82.564 E-.49447
;WIPE_END
G1 Z.8 F720
G1 X151.816 Y63.362 F10800
G1 Z.4 F720
G1 E.8 F2100
M204 S800
;TYPE:Perimeter
G1 F1200
G1 X151.859 Y63.277 E.00529
G1 X152.024 Y63.151 E.01154
G1 X152.111 Y63.118 E.00517
G1 X166.103 Y59.369 E.80497
G1 X166.315 Y59.359 E.01179
G1 X166.566 Y59.479 E.01546
G1 X166.683 Y59.633 E.01075
G1 X166.923 Y60.493 E.04962
G1 X170.466 Y73.716 E.76073
G1 X170.477 Y73.923 E.01152
G1 X170.404 Y74.116 E.01147
G1 X170.207 Y74.293 E.01472
G1 X164.56 Y75.817 E.32504
G1 X156.12 Y78.079 E.48557
G1 X155.903 Y78.088 E.01207
M73 Q1 S90
G1 X155.701 Y78.004 E.01216
G1 X155.542 Y77.819 E.01356
G1 X155.269 Y76.842 E.05637
G1 X151.757 Y63.732 E.75422
G1 X151.753 Y63.486 E.01367
G1 X151.789 Y63.416 E.00437
M204 S1000
G1 X152.127 Y63.496 F10800
M204 S800
;TYPE:External perimeter
G1 F1200
G1 X152.197 Y63.441 E.00495
G1 X166.19 Y59.692 E.80503
G1 X166.321 Y59.711 E.00736
G1 X166.394 Y59.81 E.00684
G1 X170.144 Y73.802 E.80499
G1 X170.123 Y73.936 E.00754
G1 X170.025 Y74.007 E.00672
G1 X164.474 Y75.494 E.31935
G1 X156.033 Y77.756 E.48562
G1 X155.893 Y77.731 E.0079
G1 X155.829 Y77.638 E.00627
G1 X152.079 Y63.646 E.80499
G1 X152.093 Y63.54 E.00594
M204 S1000
;WIPE_START
G1 F8640
G1 X152.127 Y63.496 E-.01284
G1 X152.197 Y63.441 E-.02056
G1 X155.404 Y62.582 E-.7666
;WIPE_END
G1 Z.8 F720
G1 X176.039 Y78.183 F10800
G1 Z.4 F720
G1 E.8 F2100
M204 S800
;TYPE:Perimeter
G1 F1200
G1 X175.986 Y78.222 E.00366
G1 X175.535 Y78.39 E.02674
G1 X175.056 Y78.436 E.02674
G1 X174.581 Y78.356 E.02677
G1 X174.144 Y78.156 E.02671
G1 X173.773 Y77.85 E.02672
G1 X173.493 Y77.458 E.02677
G1 X173.323 Y76.992 E.02757
G1 X173.285 Y76.483 E.02836
G1 X173.359 Y76.054 E.02419
G1 X173.559 Y75.616 E.02676
G1 X173.865 Y75.245 E.02672
G1 X174.272 Y74.96 E.02761
G1 X174.753 Y74.792 E.02831
G1 X175.187 Y74.752 E.02422
G1 X175.661 Y74.832 E.02671
G1 X176.112 Y75.041 E.02762
G1 X176.46 Y75.331 E.02517
G1 X176.749 Y75.73 E.02738
G1 X176.917 Y76.18 E.02669
G1 X176.963 Y76.659 E.02674
G1 X176.884 Y77.134 E.02676
G1 X176.684 Y77.572 E.02676
G1 X176.377 Y77.943 E.02676
G1 X176.088 Y78.149 E.01972
M204 S1000
G1 X175.876 Y77.9 F10800
M204 S800
;TYPE:External perimeter
G1 F1200
G1 X175.858 Y77.913 E.00123
G1 X175.491 Y78.059 E.02195
G1 X175.099 Y78.105 E.02193
G1 X174.709 Y78.047 E.02191
G1 X174.347 Y77.891 E.02191
G1 X174.038 Y77.647 E.02188
G1 X173.802 Y77.33 E.02196
G1 X173.656 Y76.958 E.02221
G1 X173.617 Y76.526 E.0241
G1 X173.668 Y76.182 E.01933
G1 X173.824 Y75.82 E.02191
G1 X174.068 Y75.51 E.02192
G1 X174.39 Y75.272 E.02225
G1 X174.797 Y75.123 E.02409
G1 X175.143 Y75.083 E.01936
G1 X175.533 Y75.14 E.0219
G1 X175.9 Y75.3 E.02225
G1 X176.22 Y75.563 E.02302
G1 X176.44 Y75.857 E.02041
G1 X176.586 Y76.224 E.02195
G1 X176.632 Y76.616 E.02193
G1 X176.575 Y77.006 E.0219
G1 X176.419 Y77.368 E.02191
G1 X176.174 Y77.677 E.02191
G1 X175.924 Y77.864 E.01735
M204 S1000
;WIPE_START
G1 F8640
G1 X175.876 Y77.9 E-.01385
G1 X175.858 Y77.913 E-.00513
G1 X175.491 Y78.059 E-.0912
G1 X175.099 Y78.105 E-.09113
G1 X174.709 Y78.047 E-.09104
G1 X174.347 Y77.891 E-.09102
G1 X174.038 Y77.647 E-.09091
G1 X173.802 Y77.33 E-.09125
G1 X173.656 Y76.958 E-.09227
G1 X173.617 Y76.526 E-.10016
G1 X173.644 Y76.346 E-.04204
;WIPE_END
G1 Z.8 F720
G1 X170.341 Y85.796 F10800
G1 Z.4 F720
G1 E.8 F2100
M204 S800
G1 F1200
G1 X170.361 Y85.753 E.00264
G1 X170.468 Y85.714 E.00633
G1 X172.833 Y85.714 E.13143
G1 X186.554 Y85.714 E.76249
G1 X186.676 Y85.767 E.00739
G1 X186.721 Y85.881 E.00681
G1 X186.721 Y99.367 E.74943
G1 X186.554 Y99.534 E.01312
G1 X170.468 Y99.534 E.89391
G1 X170.34 Y99.473 E.00788
G1 X170.301 Y99.367 E.00628
G1 X170.301 Y85.881 E.74943
G1 X170.315 Y85.851 E.00184
M204 S1000
;WIPE_START
G1 F8640
G1 X170.341 Y85.796 E-.01405
G1 X170.361 Y85.753 E-.01095
G1 X170.468 Y85.714 E-.0263
G1 X172.833 Y85.714 E-.54609
G1 X173.71 Y85.714 E-.20261
;WIPE_END
G1 Z.8 F720
G1 X165.741 Y101.429 F10800
G1 Z.4 F720
G1 E.8 F2100
M204 S800
;TYPE:Perimeter
G1 F1200
G1 X165.806 Y101.481 E.00463
G1 X165.896 Y101.682 E.01224
G1 X165.906 Y116.267 E.8105
G1 X165.805 Y116.567 E.01759
G1 X165.597 Y116.729 E.01465
G1 X165.386 Y116.768 E.01192
G1 X150.919 Y116.768 E.80394
G1 X150.743 Y116.736 E.00994
G1 X150.518 Y116.567 E.01564
G1 X150.425 Y116.353 E.01297
G1 X150.417 Y116.267 E.0048
G1 X150.417 Y101.781 E.805
;WIDTH:0.444809
G1 X150.479 Y101.515 E.0163
;WIDTH:0.456105
G1 X150.655 Y101.333 E.01559
G1 X150.919 Y101.28 E.01658
;WIDTH:0.42
G1 X165.404 Y101.28 E.80494
G1 X165.607 Y101.322 E.01152
G1 X165.694 Y101.392 E.00621
M204 S1000
G1 X165.516 Y101.682 F10800
M204 S800
;TYPE:External perimeter
G1 F1200
G1 X165.568 Y101.748 E.00467
G1 X165.571 Y116.267 E.80683
G1 X165.538 Y116.367 E.00585
G1 X165.386 Y116.434 E.00923
G1 X150.919 Y116.434 E.80394
G1 X150.785 Y116.367 E.00833
G1 X150.751 Y116.267 E.00587
G1 X150.751 Y101.781 E.805
G1 X150.817 Y101.648 E.00825
G1 X151.059 Y101.614 E.01358
G1 X165.404 Y101.614 E.79716
G1 X165.472 Y101.628 E.00386
G1 X165.478 Y101.636 E.00056
M204 S1000
;WIPE_START
G1 F8640
G1 X165.516 Y101.682 E-.01378
G1 X165.568 Y101.748 E-.0194
G1 X165.569 Y105.069 E-.76682
;WIPE_END
G1 Z.8 F720
G1 X172.343 Y108.662 F10800
G1 Z.4 F720
G1 E.8 F2100
M204 S800
G1 F1200
G1 X171.847 Y108.289 E.03449
G1 X171.429 Y107.745 E.03812
G1 X171.2 Y107.192 E.03326
G1 X171.111 Y106.555 E.03574
