; generated by PrusaSlicer 2.9.3 on 2025-10-30 at 16:15:38 UTC


;
;
; 

; external perimeters extrusion width = 0.45mm
; perimeters extrusion width = 0.45mm
; infill extrusion width = 0.45mm
; solid infill extrusion width = 0.45mm
; top infill extrusion width = 0.40mm
; first layer extrusion width = 0.42mm

M73 P0 R160
M73 Q0 S160
M201 X1000 Y1000 Z200 E5000 ; sets maximum accelerations, mm/sec^2
M203 X200 Y200 Z12 E120 ; sets maximum feedrates, mm / sec
M204 S1250 T1250 ; sets acceleration (S) and retract acceleration (R), mm/sec^2
M205 X8.00 Y8.00 Z0.40 E4.50 ; sets the jerk limits, mm/sec
M205 S0 T0 ; sets the minimum extruding and travel feed rate, mm/sec

; printing object sofle_pico_keyplate_notched_no_tenting_puck.stl id:0 copy 0
; stop printing object sofle_pico_keyplate_notched_no_tenting_puck.stl id:0 copy 0

;TYPE:Custom
M862.3 P "MK3" ; printer model check
M862.1 P0.4 ; nozzle diameter check
M115 U3.14.1 ; tell printer latest fw version
G90 ; use absolute coordinates
M83 ; extruder relative mode
M104 S215 ; set extruder temp
M140 S60 ; set bed temp
M190 S60 ; wait for bed temp
M109 S215 ; wait for extruder temp
G28 W ; home all without mesh bed level
G80 X40.8226 Y36.8324 W168.859 H140.157 ; mesh bed levelling

G1 Z0.2 F720
G1 Y-3 F1000 ; go outside print area
G92 E0
G1 X60 E9 F1000 ; intro line
G1 X100 E12.5 F1000 ; intro line

G92 E0
M221 S95

; Don't change E values below. Excessive value can damage the printer.
M907 E430 ; set extruder motor current
G21 ; set units to millimeters
G90 ; use absolute coordinates
M83 ; use relative distances for extrusion

M900 K0.05 ; Filament gcode LA 1.5
M900 K30 ; Filament gcode LA 1.0




M107
;LAYER_CHANGE
;Z:0.2
;HEIGHT:0.2
G1 E-.8 F2100
M73 P0 R159
G1 Z.6 F720
G1 X45.944 Y67.048 F10800
G1 Z.2 F720
G1 E.8 F2100
M204 S800
;TYPE:Skirt/Brim
;WIDTH:0.42
G1 F900
G1 X47.065 Y66.387 E.0408
G1 X48.264 Y65.882 E.04079
G1 X49.274 Y65.594 E.03293
G1 X184.067 Y37.207 E4.31904
G1 X185.1 Y37.059 E.03272
G1 X186.076 Y37.022 E.03062
G1 X187.621 Y37.165 E.04865
G1 X188.955 Y37.496 E.04309
G1 X190.388 Y38.093 E.04867
G1 X191.563 Y38.807 E.04311
G1 X192.753 Y39.804 E.04868
G1 X193.662 Y40.835 E.0431
G1 X194.501 Y42.141 E.04867
G1 X195.062 Y43.396 E.0431
G1 X195.347 Y44.32 E.03032
G1 X209.256 Y101.277 E1.83832
G1 X209.457 Y102.562 E.04078
G1 X209.484 Y103.863 E.0408
G1 X209.272 Y105.475 E.05098
G1 X208.885 Y106.794 E.0431
G1 X184.028 Y170.732 E2.1509
G1 X183.585 Y171.68 E.03281
G1 X182.939 Y172.724 E.03849
G1 X182.285 Y173.546 E.03294
G1 X181.414 Y174.41 E.03847
G1 X179.823 Y175.538 E.06115
G1 X178.039 Y176.325 E.06114
G1 X176.134 Y176.739 E.06112
G1 X174.174 Y176.762 E.06146
G1 X49.769 Y166.744 E3.91326
G1 X47.927 Y166.384 E.05885
G1 X46.348 Y165.757 E.05327
G1 X44.761 Y164.755 E.05885
G1 X43.515 Y163.6 E.05327
G1 X42.53 Y162.307 E.05096
G1 X41.679 Y160.635 E.05882
G1 X41.215 Y159.077 E.05097
G1 X41.016 Y157.389 E.05329
G1 X41.728 Y75.006 E2.58316
G1 X41.811 Y73.781 E.0385
G1 X41.986 Y72.821 E.0306
G1 X42.622 Y70.977 E.06116
G1 X43.076 Y70.113 E.0306
G1 X43.658 Y69.24 E.0329
G1 X44.977 Y67.804 E.06114
G1 X45.897 Y67.085 E.03661
M204 S1000
;WIPE_START
G1 F8640
G1 X45.944 Y67.048 E-.01381
G1 X47.065 Y66.387 E-.30049
G1 X48.264 Y65.882 E-.30041
G1 X49.035 Y65.662 E-.18529
;WIPE_END
G1 Z.6 F720
; printing object sofle_pico_keyplate_notched_no_tenting_puck.stl id:0 copy 0
G1 X132.417 Y100.089 F10800
G1 Z.2 F720
G1 E.8 F2100
M204 S800
;TYPE:Perimeter
;WIDTH:0.419999
G1 F900
G1 X132.344 Y100.035 E.00285
G1 X132.24 Y99.793 E.00826
G1 X132.231 Y99.695 E.00309
G1 X132.231 Y85.252 E.45285
G1 X132.305 Y84.973 E.00905
G1 X132.457 Y84.8 E.00722
G1 X132.747 Y84.689 E.00974
G1 X147.24 Y84.687 E.45442
G1 X147.438 Y84.723 E.00631
G1 X147.692 Y84.913 E.00995
G1 X147.775 Y85.069 E.00554
G1 X147.805 Y85.252 E.00581
G1 X147.805 Y98.663 E.42049
;WIDTH:0.454339
G1 X147.822 Y99.218 E.019
G1 X147.81 Y99.733 E.01762
;WIDTH:0.431495
G1 X147.73 Y99.977 E.0083
;WIDTH:0.420809
G1 X147.495 Y100.2 E.01018
;WIDTH:0.419999
G1 X147.24 Y100.261 E.00822
G1 X132.797 Y100.261 E.45285
G1 X132.598 Y100.225 E.00634
G1 X132.465 Y100.125 E.00522
M204 S1000
G1 X132.694 Y99.832 F10800
M204 S800
;TYPE:External perimeter
G1 F900
G1 X132.646 Y99.808 E.00168
G1 X132.608 Y99.695 E.00374
G1 X132.608 Y85.252 E.45285
G1 X132.673 Y85.11 E.0049
G1 X132.797 Y85.064 E.00415
G1 X147.24 Y85.064 E.45285
G1 X147.39 Y85.139 E.00526
G1 X147.428 Y85.252 E.00374
G1 X147.428 Y99.695 E.45285
G1 X147.373 Y99.828 E.00451
G1 X147.24 Y99.884 E.00452
G1 X132.797 Y99.884 E.45285
G1 X132.748 Y99.859 E.00172
M204 S1000
;WIPE_START
G1 F8640
G1 X132.694 Y99.832 E-.01394
G1 X132.646 Y99.808 E-.01239
G1 X132.608 Y99.695 E-.02753
G1 X132.608 Y96.464 E-.74614
;WIPE_END
G1 Z.6 F720
G1 X150.088 Y101.535 F10800
G1 Z.2 F720
G1 E.8 F2100
M204 S800
;TYPE:Perimeter
G1 F900
G1 X149.978 Y101.543 E.00346
G1 X149.529 Y101.465 E.01429
G1 X149.071 Y101.25 E.01586
G1 X148.686 Y100.921 E.01588
G1 X148.419 Y100.542 E.01454
;WIDTH:0.420809
G1 X148.249 Y100.08 E.01547
;WIDTH:0.430985
G1 X148.198 Y99.738 E.01116
;WIDTH:0.454339
G1 X148.232 Y99.245 E.01691
G1 X148.493 Y98.658 E.02198
;WIDTH:0.419999
G1 X148.808 Y98.279 E.01545
G1 X149.223 Y97.99 E.01586
G1 X149.708 Y97.82 E.01611
G1 X150.162 Y97.78 E.01429
M73 Q0 S159
G1 X150.647 Y97.863 E.01543
;WIDTH:0.454978
G1 X150.811 Y97.921 E.00596
;WIDTH:0.489957
G1 X150.975 Y97.979 E.00647
;WIDTH:0.524935
G1 X151.138 Y98.037 E.00693
G1 X151.278 Y98.167 E.00766
;WIDTH:0.498796
G1 X151.418 Y98.296 E.00722
;WIDTH:0.472656
G1 X151.587 Y98.541 E.01064
;WIDTH:0.446328
G1 X151.757 Y98.786 E.01
;WIDTH:0.419999
G1 X151.927 Y99.247 E.01541
G1 X151.972 Y99.738 E.01546
G1 X151.889 Y100.223 E.01543
G1 X151.683 Y100.67 E.01543
G1 X151.361 Y101.039 E.01536
;WIDTH:0.417677
G1 X150.966 Y101.331 E.01531
;WIDTH:0.419999
G1 X150.49 Y101.505 E.01589
G1 X150.148 Y101.53 E.01075
M204 S1000
G1 X150.088 Y101.164 F10800
M204 S800
;TYPE:External perimeter
G1 F900
G1 X150.028 Y101.169 E.00189
G1 X149.673 Y101.116 E.01125
G1 X149.308 Y100.956 E.0125
G1 X148.981 Y100.686 E.0133
G1 X148.768 Y100.398 E.01123
G1 X148.623 Y100.031 E.01237
G1 X148.578 Y99.688 E.01085
G1 X148.636 Y99.249 E.01388
G1 X148.792 Y98.887 E.01236
G1 X149.038 Y98.578 E.01238
G1 X149.359 Y98.342 E.01249
G1 X149.819 Y98.186 E.01523
G1 X150.113 Y98.153 E.00928
G1 X150.503 Y98.211 E.01236
G1 X150.886 Y98.385 E.01319
G1 X151.214 Y98.666 E.01354
G1 X151.408 Y98.93 E.01027
G1 X151.553 Y99.297 E.01237
G1 X151.598 Y99.688 E.01234
G1 X151.541 Y100.078 E.01236
G1 X151.384 Y100.44 E.01237
G1 X151.076 Y100.797 E.01478
G1 X150.822 Y100.984 E.00989
G1 X150.45 Y101.13 E.01253
G1 X150.148 Y101.158 E.00951
M204 S1000
;WIPE_START
G1 F8640
G1 X150.088 Y101.164 E-.01392
G1 X150.028 Y101.169 E-.0139
G1 X149.673 Y101.116 E-.08288
G1 X149.308 Y100.956 E-.09202
G1 X148.981 Y100.686 E-.09792
G1 X148.768 Y100.398 E-.08271
G1 X148.623 Y100.031 E-.09112
G1 X148.578 Y99.688 E-.07988
G1 X148.636 Y99.249 E-.10225
G1 X148.792 Y98.887 E-.09102
G1 X148.933 Y98.71 E-.05238
;WIPE_END
G1 Z.6 F720
G1 X151.406 Y97.574 F10800
G1 Z.2 F720
G1 E.8 F2100
M204 S800
;TYPE:Perimeter
;WIDTH:0.524935
G1 F900
G1 X151.396 Y97.55 E.00104
;WIDTH:0.489957
G1 X151.345 Y97.434 E.00471
;WIDTH:0.454978
G1 X151.295 Y97.319 E.0043
;WIDTH:0.419999
G1 X151.281 Y96.089 E.03857
G1 X151.281 Y82.752 E.41817
G1 X151.355 Y82.473 E.00905
G1 X151.477 Y82.325 E.00601
G1 X151.735 Y82.198 E.00902
G1 X166.289 Y82.187 E.45633
G1 X166.582 Y82.268 E.00953
G1 X166.756 Y82.432 E.0075
G1 X166.85 Y82.679 E.00829
G1 X166.855 Y97.195 E.45514
G1 X166.772 Y97.49 E.00961
G1 X166.602 Y97.667 E.00769
G1 X166.411 Y97.747 E.00649
G1 X166.289 Y97.761 E.00385
G1 X151.847 Y97.761 E.45282
;WIDTH:0.4571
G1 X151.746 Y97.753 E.00349
;WIDTH:0.4942
G1 X151.646 Y97.746 E.00376
;WIDTH:0.5313
G1 X151.546 Y97.739 E.00407
G1 X151.446 Y97.666 E.00503
;WIDTH:0.524935
G1 X151.43 Y97.629 E.00162
M204 S1000
G1 X151.705 Y97.297 F10800
M204 S800
;TYPE:External perimeter
;WIDTH:0.419999
G1 F900
G1 X151.658 Y97.195 E.00352
G1 X151.658 Y96.089 E.03468
G1 X151.658 Y82.752 E.41817
G1 X151.723 Y82.61 E.0049
G1 X151.847 Y82.564 E.00415
G1 X166.289 Y82.564 E.45282
G1 X166.431 Y82.628 E.00488
G1 X166.478 Y82.752 E.00416
G1 X166.478 Y97.195 E.45285
G1 X166.414 Y97.336 E.00486
G1 X166.289 Y97.384 E.0042
G1 X151.847 Y97.384 E.45282
G1 X151.738 Y97.344 E.00364
M204 S1000
;WIPE_START
G1 F8640
G1 X151.705 Y97.297 E-.01326
G1 X151.658 Y97.195 E-.02593
G1 X151.658 Y96.089 E-.25538
G1 X151.658 Y93.9 E-.50543
;WIPE_END
G1 Z.6 F720
G1 X132.417 Y81.039 F10800
G1 Z.2 F720
G1 E.8 F2100
M204 S800
;TYPE:Perimeter
G1 F900
G1 X132.344 Y80.985 E.00285
G1 X132.24 Y80.743 E.00826
G1 X132.231 Y80.645 E.00309
G1 X132.231 Y66.202 E.45285
G1 X132.32 Y65.898 E.00993
G1 X132.558 Y65.69 E.00991
G1 X132.797 Y65.637 E.00768
G1 X147.24 Y65.637 E.45285
G1 X147.518 Y65.71 E.00901
G1 X147.719 Y65.902 E.00872
G1 X147.805 Y66.202 E.00979
G1 X147.805 Y78.145 E.37446
G1 X147.805 Y80.645 E.07839
M73 P0 R158
G1 X147.731 Y80.925 E.00908
G1 X147.579 Y81.098 E.00722
G1 X147.438 Y81.175 E.00504
G1 X147.24 Y81.211 E.00631
G1 X132.797 Y81.211 E.45285
G1 X132.598 Y81.175 E.00634
G1 X132.465 Y81.075 E.00522
M204 S1000
G1 X132.694 Y80.782 F10800
M204 S800
;TYPE:External perimeter
G1 F900
G1 X132.646 Y80.758 E.00168
G1 X132.608 Y80.645 E.00374
G1 X132.608 Y66.202 E.45285
G1 X132.654 Y66.079 E.00412
G1 X132.797 Y66.014 E.00493
G1 X147.24 Y66.014 E.45285
G1 X147.378 Y66.074 E.00472
G1 X147.428 Y66.202 E.00431
G1 X147.428 Y78.145 E.37446
G1 X147.428 Y80.645 E.07839
G1 X147.363 Y80.788 E.00493
G1 X147.24 Y80.834 E.00412
G1 X132.797 Y80.834 E.45285
G1 X132.748 Y80.809 E.00172
M204 S1000
;WIPE_START
G1 F8640
G1 X132.694 Y80.782 E-.01394
G1 X132.646 Y80.758 E-.01239
G1 X132.608 Y80.645 E-.02753
G1 X132.608 Y77.414 E-.74614
;WIPE_END
G1 Z.6 F720
G1 X152.695 Y63.346 F10800
G1 Z.2 F720
G1 E.8 F2100
M204 S800
;TYPE:Perimeter
G1 F900
G1 X152.743 Y63.251 E.00334
G1 X152.929 Y63.108 E.00736
G1 X153.027 Y63.071 E.00328
G1 X166.978 Y59.333 E.45285
G1 X167.216 Y59.321 E.00747
G1 X167.421 Y59.398 E.00687
G1 X167.587 Y59.554 E.00714
G1 X167.671 Y59.733 E.0062
G1 X171.409 Y73.684 E.45285
G1 X171.421 Y73.921 E.00744
G1 X171.338 Y74.136 E.00723
G1 X171.118 Y74.335 E.0093
G1 X170.549 Y74.5 E.01858
G1 X157.058 Y78.115 E.43792
G1 X156.912 Y78.134 E.00462
G1 X156.727 Y78.103 E.00588
G1 X156.478 Y77.931 E.00949
G1 X156.365 Y77.715 E.00764
G1 X152.627 Y63.764 E.45285
G1 X152.624 Y63.486 E.00872
G1 X152.668 Y63.399 E.00306
M204 S1000
G1 X153.038 Y63.502 F10800
M204 S800
;TYPE:External perimeter
G1 F900
G1 X153.125 Y63.435 E.00344
G1 X167.076 Y59.697 E.45285
G1 X167.223 Y59.719 E.00466
G1 X167.306 Y59.831 E.00437
G1 X171.045 Y73.781 E.45283
G1 X171.021 Y73.932 E.00479
G1 X170.911 Y74.012 E.00426
G1 X156.912 Y77.757 E.45436
G1 X156.767 Y77.689 E.00502
G1 X156.499 Y76.756 E.03044
G1 X152.992 Y63.666 E.4249
G1 X153.007 Y63.548 E.00373
M204 S1000
;WIPE_START
G1 F8640
G1 X153.038 Y63.502 E-.01281
G1 X153.125 Y63.435 E-.02536
G1 X156.312 Y62.581 E-.76183
;WIPE_END
G1 Z.6 F720
G1 X171.255 Y85.8 F10800
G1 Z.2 F720
G1 E.8 F2100
M204 S800
G1 F900
G1 X171.274 Y85.759 E.00142
G1 X171.396 Y85.714 E.00408
G1 X187.439 Y85.714 E.50302
G1 X187.577 Y85.774 E.00472
G1 X187.628 Y85.902 E.00432
G1 X187.628 Y99.345 E.4215
G1 X187.439 Y99.534 E.00838
G1 X171.396 Y99.534 E.50302
G1 X171.252 Y99.466 E.00499
G1 X171.208 Y99.345 E.00404
G1 X171.208 Y85.902 E.4215
G1 X171.23 Y85.855 E.00163
M204 S1000
;WIPE_START
G1 F8640
G1 X171.255 Y85.8 E-.01395
G1 X171.274 Y85.759 E-.01043
G1 X171.396 Y85.714 E-.03003
G1 X174.625 Y85.714 E-.74559
;WIPE_END
G1 Z.6 F720
G1 X176.967 Y78.22 F10800
G1 Z.2 F720
G1 E.8 F2100
M204 S800
;TYPE:Perimeter
G1 F900
G1 X176.906 Y78.263 E.00234
G1 X176.444 Y78.433 E.01544
G1 X175.954 Y78.478 E.01543
G1 X175.469 Y78.395 E.01543
G1 X175.022 Y78.189 E.01543
G1 X174.643 Y77.874 E.01545
G1 X174.359 Y77.472 E.01543
G1 X174.187 Y76.996 E.01587
G1 X174.148 Y76.484 E.0161
G1 X174.189 Y76.178 E.00968
G1 X174.392 Y75.649 E.01777
G1 X174.748 Y75.209 E.01775
G1 X175.163 Y74.92 E.01586
G1 X175.647 Y74.75 E.01608
G1 X176.102 Y74.71 E.01432
G1 X176.587 Y74.793 E.01543
G1 X177.045 Y75.008 E.01586
G1 X177.434 Y75.343 E.0161
G1 X177.697 Y75.716 E.01431
G1 X177.867 Y76.178 E.01544
G1 X177.912 Y76.668 E.01543
G1 X177.829 Y77.153 E.01543
G1 X177.623 Y77.6 E.01543
G1 X177.308 Y77.978 E.01543
G1 X177.016 Y78.185 E.01122
M204 S1000
G1 X176.782 Y77.899 F10800
M204 S800
;TYPE:External perimeter
G1 F900
G1 X176.762 Y77.914 E.00078
G1 X176.395 Y78.059 E.01237
G1 X176.003 Y78.104 E.01237
G1 X175.613 Y78.046 E.01236
G1 X175.251 Y77.89 E.01236
G1 X174.943 Y77.644 E.01236
G1 X174.708 Y77.328 E.01235
G1 X174.562 Y76.956 E.01253
G1 X174.522 Y76.533 E.01332
G1 X174.563 Y76.227 E.00968
G1 X174.732 Y75.817 E.0139
G1 X174.977 Y75.509 E.01234
G1 X175.299 Y75.272 E.01254
G1 X175.697 Y75.124 E.01331
G1 X176.053 Y75.084 E.01123
G1 X176.443 Y75.141 E.01236
G1 X176.808 Y75.301 E.0125
G1 X177.135 Y75.572 E.01332
G1 X177.348 Y75.86 E.01123
G1 X177.493 Y76.227 E.01237
G1 X177.538 Y76.618 E.01234
G1 X177.48 Y77.009 E.01239
G1 X177.324 Y77.37 E.01233
G1 X177.078 Y77.679 E.01238
G1 X176.83 Y77.863 E.00968
M204 S1000
;WIPE_START
G1 F8640
G1 X176.782 Y77.899 E-.01385
G1 X176.762 Y77.914 E-.00577
G1 X176.395 Y78.059 E-.09112
G1 X176.003 Y78.104 E-.09111
G1 X175.613 Y78.046 E-.09104
G1 X175.251 Y77.89 E-.09102
G1 X174.943 Y77.644 E-.09102
G1 X174.708 Y77.328 E-.09093
G1 X174.562 Y76.956 E-.09227
G1 X174.522 Y76.533 E-.09811
G1 X174.547 Y76.345 E-.04376
;WIPE_END
G1 Z.6 F720
G1 X179.509 Y73.532 F10800
G1 Z.2 F720
G1 E.8 F2100
M204 S800
;TYPE:Perimeter
G1 F900
G1 X179.47 Y73.526 E.00124
G1 X179.234 Y73.36 E.00905
G1 X178.91 Y72.758 E.02144
G1 X172.605 Y60.384 E.43544
G1 X172.546 Y60.177 E.00675
G1 X172.577 Y59.936 E.00762
G1 X172.725 Y59.712 E.00842
G1 X172.853 Y59.623 E.00489
G1 X184.264 Y53.809 E.40155
G1 X184.972 Y53.448 E.02492
G1 X185.247 Y53.387 E.00883
G1 X186.212 Y53.418 E.03027
G1 X186.434 Y53.474 E.00718
G1 X186.557 Y53.554 E.0046
G1 X186.692 Y53.727 E.00688
G1 X193.039 Y66.182 E.4383
G1 X193.1 Y66.45 E.00862
G1 X193.043 Y66.688 E.00767
G1 X192.923 Y66.851 E.00635
G1 X192.397 Y67.144 E.01888
G1 X179.923 Y73.5 E.43896
G1 X179.705 Y73.56 E.00709
G1 X179.568 Y73.54 E.00434
M204 S1000
G1 X179.641 Y73.17 F10800
M204 S800
;TYPE:External perimeter
G1 F900
G1 X179.601 Y73.173 E.00126
G1 X179.498 Y73.081 E.00433
G1 X172.941 Y60.213 E.45283
G1 X172.932 Y60.064 E.00468
G1 X173.024 Y59.959 E.00438
G1 X184.435 Y54.145 E.40155
G1 X185.143 Y53.784 E.02492
G1 X186.196 Y53.795 E.03302
G1 X186.311 Y53.84 E.00387
G1 X186.664 Y54.502 E.02352
G1 X192.703 Y66.353 E.41704
G1 X192.704 Y66.522 E.0053
G1 X192.621 Y66.607 E.00372
G1 X179.752 Y73.164 E.45285
G1 X179.701 Y73.167 E.0016
M204 S1000
;WIPE_START
G1 F8640
G1 X179.641 Y73.17 E-.01387
G1 X179.601 Y73.173 E-.00926
G1 X179.498 Y73.081 E-.03189
G1 X178.033 Y70.206 E-.74498
;WIPE_END
G1 Z.6 F720
G1 X192.556 Y93.676 F10800
G1 Z.2 F720
G1 E.8 F2100
M204 S800
;TYPE:Perimeter
G1 F900
G1 X193.164 Y93.405 E.02087
G1 X193.895 Y93.29 E.0232
G1 X194.631 Y93.367 E.0232
G1 X195.322 Y93.632 E.0232
G1 X195.921 Y94.067 E.02321
G1 X196.386 Y94.643 E.02321
;WIDTH:0.451566
G1 X196.551 Y94.975 E.0126
;WIDTH:0.483132
G1 X196.716 Y95.307 E.01357
;WIDTH:0.516746
G1 X196.747 Y95.355 E.00225
;WIDTH:0.55036
G1 X196.777 Y95.403 E.00239
;WIDTH:0.583974
G1 X196.807 Y95.451 E.00255
G1 X196.865 Y96.042 E.02672
;WIDTH:0.555712
G1 X196.85 Y96.361 E.01362
G1 X196.796 Y96.55 E.00838
;WIDTH:0.510475
G1 X196.741 Y96.739 E.00765
;WIDTH:0.465237
G1 X196.687 Y96.929 E.00694
;WIDTH:0.419999
G1 X196.468 Y97.457 E.01792
G1 X196.295 Y97.686 E.009
G1 X195.674 Y98.122 E.02379
G1 X195.015 Y98.709 E.02767
G1 X194.714 Y98.863 E.0106
G1 X194.043 Y98.958 E.02125
G1 X193.307 Y98.88 E.02321
G1 X192.616 Y98.615 E.0232
G1 X192.017 Y98.18 E.02321
G1 X191.551 Y97.605 E.02321
G1 X191.25 Y96.929 E.0232
G1 X191.135 Y96.198 E.0232
G1 X191.212 Y95.462 E.0232
G1 X191.477 Y94.771 E.0232
G1 X191.913 Y94.172 E.02323
G1 X192.488 Y93.706 E.02321
M73 Q1 S159
