; generated by PrusaSlicer 2.9.3 on 2025-10-30 at 16:22:33 UTC


;
;
; 

; external perimeters extrusion width = 0.45mm
; perimeters extrusion width = 0.45mm
; infill extrusion width = 0.45mm
; solid infill extrusion width = 0.45mm
; top infill extrusion width = 0.40mm
; first layer extrusion width = 0.42mm

M73 P0 R173
M73 Q0 S174
M201 X1000 Y1000 Z200 E5000 ; sets maximum accelerations, mm/sec^2
M203 X200 Y200 Z12 E120 ; sets maximum feedrates, mm / sec
M204 S1250 T1250 ; sets acceleration (S) and retract acceleration (R), mm/sec^2
M205 X8.00 Y8.00 Z0.40 E4.50 ; sets the jerk limits, mm/sec
M205 S0 T0 ; sets the minimum extruding and travel feed rate, mm/sec

; printing object sofle_pico_keyplate_notched_no_tenting_puck.stl id:0 copy 0
; stop printing object sofle_pico_keyplate_notched_no_tenting_puck.stl id:0 copy 0

;TYPE:Custom
M862.3 P "MK3S" ; printer model check
M862.1 P0.4 ; nozzle diameter check
M115 U3.14.1 ; tell printer latest fw version
G90 ; use absolute coordinates
M83 ; extruder relative mode
M104 S215 ; set extruder temp
M140 S60 ; set bed temp
M190 S60 ; wait for bed temp
M109 S215 ; wait for extruder temp
G28 W ; home all without mesh bed level
G80 X39.7649 Y36.1829 W169.85 H140.185 ; mesh bed levelling

G1 Z0.2 F720
G1 Y-3 F1000 ; go outside print area
G92 E0
G1 X60 E9 F1000 ; intro line
G1 X100 E12.5 F1000 ; intro line

G92 E0
M221 S95

; Don't change E values below. Excessive value can damage the printer.
M907 E430 ; set extruder motor current
G21 ; set units to millimeters
G90 ; use absolute coordinates
M83 ; use relative distances for extrusion

M900 K0.05 ; Filament gcode LA 1.5
M900 K30 ; Filament gcode LA 1.0




M107
;LAYER_CHANGE
;Z:0.2
;HEIGHT:0.2
G1 E-.8 F2100
G1 Z.6 F720
G1 X44.952 Y66.171 F10800
G1 Z.2 F720
G1 E.8 F2100
M204 S800
;TYPE:Skirt/Brim
;WIDTH:0.42
G1 F900
G1 X46.012 Y65.551 E.0385
G1 X47.211 Y65.046 E.04079
G1 X48.221 Y64.759 E.03292
G1 X184.689 Y36.556 E4.36928
G1 X185.714 Y36.409 E.03247
G1 X186.69 Y36.372 E.03062
G1 X188.236 Y36.515 E.04868
G1 X189.57 Y36.847 E.0431
G1 X191.003 Y37.444 E.04867
G1 X192.381 Y38.306 E.05096
G1 X193.42 Y39.206 E.0431
G1 X194.426 Y40.388 E.04867
G1 X195.15 Y41.557 E.04311
G1 X195.759 Y42.984 E.04865
G1 X209.195 Y101.688 E1.88822
G1 X209.39 Y102.95 E.04004
G1 X209.417 Y104.251 E.0408
G1 X209.205 Y105.863 E.05098
G1 X208.709 Y107.461 E.05246
G1 X182.851 Y170.152 E2.12627
G1 X182.424 Y171.06 E.03146
M73 Q0 S173
G1 X181.778 Y172.103 E.03847
G1 X181.124 Y172.925 E.03294
G1 X180.252 Y173.789 E.03849
G1 X178.662 Y174.917 E.06112
G1 X177.117 Y175.623 E.05326
G1 X175.223 Y176.086 E.06113
G1 X173.29 Y176.162 E.06065
G1 X48.785 Y167.641 E3.9129
G1 X47.112 Y167.343 E.05328
M73 P0 R172
G1 X45.291 Y166.647 E.06112
G1 X43.703 Y165.646 E.05886
G1 X42.457 Y164.491 E.05327
G1 X41.339 Y162.983 E.05886
G1 X40.621 Y161.525 E.05096
G1 X40.157 Y159.967 E.05097
G1 X39.958 Y158.279 E.05329
G1 X40.675 Y74.171 E2.63724
G1 X40.879 Y72.231 E.06116
G1 X41.205 Y71.048 E.03847
G1 X41.569 Y70.142 E.03061
G1 X42.023 Y69.278 E.0306
G1 X42.605 Y68.405 E.0329
G1 X43.924 Y66.969 E.06114
G1 X44.905 Y66.208 E.03893
M204 S1000
;WIPE_START
G1 F8640
G1 X44.952 Y66.171 E-.01381
G1 X46.012 Y65.551 E-.28355
G1 X47.211 Y65.046 E-.30041
G1 X48.053 Y64.807 E-.20223
;WIPE_END
G1 Z.6 F720
; printing object sofle_pico_keyplate_notched_no_tenting_puck.stl id:0 copy 0
G1 X127.459 Y106.424 F10800
G1 Z.2 F720
G1 E.8 F2100
M204 S800
;TYPE:Perimeter
;WIDTH:0.419999
G1 F900
G1 X127.6 Y106.619 E.00754
G1 X127.631 Y106.802 E.00582
G1 X127.631 Y121.245 E.45285
G1 X127.557 Y121.524 E.00905
G1 X127.405 Y121.698 E.00724
G1 X127.264 Y121.775 E.00504
G1 X127.065 Y121.811 E.00634
G1 X112.623 Y121.811 E.45282
G1 X112.424 Y121.775 E.00634
G1 X112.174 Y121.589 E.00977
G1 X112.069 Y121.36 E.0079
G1 X112.057 Y120.281 E.03383
G1 X112.057 Y106.802 E.42262
G1 X112.088 Y106.619 E.00582
G1 X112.283 Y106.35 E.01042
G1 X112.573 Y106.239 E.00974
G1 X112.623 Y106.237 E.00157
G1 X127.065 Y106.237 E.45282
G1 X127.264 Y106.273 E.00634
G1 X127.405 Y106.35 E.00504
G1 X127.424 Y106.376 E.00101
M204 S1000
G1 X127.203 Y106.699 F10800
M204 S800
;TYPE:External perimeter
G1 F900
G1 X127.254 Y106.802 E.0036
G1 X127.254 Y121.245 E.45285
G1 X127.189 Y121.388 E.00493
G1 X127.065 Y121.434 E.00415
G1 X112.623 Y121.434 E.45282
G1 X112.473 Y121.36 E.00524
G1 X112.434 Y121.245 E.00381
G1 X112.434 Y106.802 E.45285
G1 X112.51 Y106.651 E.0053
G1 X112.623 Y106.614 E.00373
G1 X127.065 Y106.614 E.45282
G1 X127.173 Y106.649 E.00356
M204 S1000
;WIPE_START
G1 F8640
G1 X127.203 Y106.699 E-.01346
G1 X127.254 Y106.802 E-.02654
G1 X127.254 Y110.093 E-.76
;WIPE_END
G1 Z.6 F720
G1 X146.497 Y100.106 F10800
G1 Z.2 F720
G1 E.8 F2100
M204 S800
;TYPE:Perimeter
G1 F900
G1 X146.292 Y100.233 E.00756
G1 X146.115 Y100.261 E.00562
G1 X131.623 Y100.259 E.45439
G1 X131.333 Y100.148 E.00974
G1 X131.137 Y99.879 E.01044
G1 X131.107 Y99.695 E.00585
G1 X131.107 Y85.252 E.45285
G1 X131.181 Y84.973 E.00905
G1 X131.333 Y84.8 E.00722
G1 X131.623 Y84.689 E.00974
G1 X146.115 Y84.687 E.45439
G1 X146.314 Y84.723 E.00634
G1 X146.568 Y84.913 E.00995
G1 X146.65 Y85.069 E.00553
G1 X146.681 Y85.252 E.00582
G1 X146.681 Y98.663 E.42049
;WIDTH:0.454339
G1 X146.698 Y99.218 E.019
G1 X146.688 Y99.734 E.01766
;WIDTH:0.435831
G1 X146.613 Y99.965 E.00793
;WIDTH:0.422017
G1 X146.539 Y100.064 E.0039
M204 S1000
G1 X146.216 Y99.842 F10800
M204 S800
;TYPE:External perimeter
;WIDTH:0.419999
G1 F900
G1 X146.115 Y99.884 E.00343
G1 X131.656 Y99.883 E.45335
G1 X131.522 Y99.808 E.00481
G1 X131.484 Y99.695 E.00374
G1 X131.484 Y85.252 E.45285
G1 X131.549 Y85.11 E.0049
G1 X131.672 Y85.064 E.00412
G1 X146.115 Y85.064 E.45285
G1 X146.266 Y85.139 E.00529
G1 X146.304 Y85.252 E.00374
G1 X146.304 Y99.699 E.45297
G1 X146.258 Y99.806 E.00365
M204 S1000
;WIPE_START
G1 F8640
G1 X146.216 Y99.842 E-.01277
G1 X146.115 Y99.884 E-.02526
G1 X142.815 Y99.884 E-.76197
;WIPE_END
G1 Z.6 F720
G1 X112.244 Y102.591 F10800
G1 Z.2 F720
G1 E.8 F2100
M204 S800
;TYPE:Perimeter
G1 F900
G1 X112.174 Y102.539 E.00273
G1 X112.069 Y102.31 E.0079
G1 X112.057 Y101.231 E.03383
G1 X112.057 Y87.752 E.42262
G1 X112.088 Y87.569 E.00582
G1 X112.283 Y87.3 E.01042
G1 X112.573 Y87.189 E.00974
G1 X112.623 Y87.187 E.00157
G1 X127.065 Y87.187 E.45282
G1 X127.264 Y87.223 E.00634
G1 X127.518 Y87.413 E.00995
G1 X127.6 Y87.569 E.00553
G1 X127.631 Y87.752 E.00582
G1 X127.631 Y102.195 E.45285
G1 X127.557 Y102.474 E.00905
G1 X127.405 Y102.648 E.00724
G1 X127.264 Y102.725 E.00504
G1 X127.065 Y102.761 E.00634
G1 X112.623 Y102.761 E.45282
G1 X112.424 Y102.725 E.00634
G1 X112.292 Y102.627 E.00515
M204 S1000
G1 X112.52 Y102.333 F10800
M204 S800
;TYPE:External perimeter
G1 F900
G1 X112.473 Y102.31 E.00164
G1 X112.434 Y102.195 E.00381
G1 X112.434 Y87.752 E.45285
G1 X112.51 Y87.602 E.00527
G1 X112.623 Y87.564 E.00374
G1 X127.132 Y87.576 E.45492
G1 X127.244 Y87.691 E.00503
G1 X127.254 Y87.752 E.00194
G1 X127.254 Y102.195 E.45285
G1 X127.189 Y102.338 E.00493
G1 X127.065 Y102.384 E.00415
G1 X112.623 Y102.384 E.45282
G1 X112.574 Y102.36 E.00171
M204 S1000
;WIPE_START
G1 F8640
G1 X112.52 Y102.333 E-.01394
G1 X112.473 Y102.31 E-.01208
G1 X112.434 Y102.195 E-.02804
G1 X112.434 Y98.965 E-.74594
;WIPE_END
G1 Z.6 F720
G1 X127.461 Y83.534 F10800
G1 Z.2 F720
G1 E.8 F2100
M204 S800
;TYPE:Perimeter
G1 F900
G1 X127.405 Y83.598 E.00267
G1 X127.264 Y83.675 E.00504
G1 X127.065 Y83.711 E.00634
G1 X112.623 Y83.711 E.45282
G1 X112.424 Y83.675 E.00634
G1 X112.174 Y83.489 E.00977
G1 X112.069 Y83.26 E.0079
G1 X112.057 Y82.181 E.03383
G1 X112.057 Y68.702 E.42262
G1 X112.093 Y68.504 E.00631
G1 X112.188 Y68.341 E.00592
G1 X112.372 Y68.195 E.00736
G1 X112.623 Y68.137 E.00808
G1 X127.065 Y68.137 E.45282
G1 X127.344 Y68.21 E.00904
G1 X127.5 Y68.341 E.00639
G1 X127.595 Y68.504 E.00592
G1 X127.631 Y68.702 E.00631
G1 X127.631 Y83.145 E.45285
G1 X127.557 Y83.424 E.00905
G1 X127.501 Y83.489 E.00269
M204 S1000
G1 X127.207 Y83.247 F10800
M204 S800
;TYPE:External perimeter
G1 F900
G1 X127.189 Y83.288 E.0014
G1 X127.065 Y83.334 E.00415
G1 X112.623 Y83.334 E.45282
G1 X112.473 Y83.26 E.00524
G1 X112.434 Y83.145 E.00381
G1 X112.434 Y68.702 E.45285
G1 X112.478 Y68.582 E.00401
G1 X112.623 Y68.514 E.00502
G1 X127.065 Y68.514 E.45282
G1 X127.21 Y68.582 E.00502
G1 X127.254 Y68.702 E.00401
G1 X127.254 Y83.145 E.45285
G1 X127.232 Y83.193 E.00166
M204 S1000
;WIPE_START
G1 F8640
G1 X127.207 Y83.247 E-.01374
G1 X127.189 Y83.288 E-.01034
G1 X127.065 Y83.334 E-.03054
G1 X123.837 Y83.334 E-.74538
;WIPE_END
G1 Z.6 F720
G1 X108.402 Y65.799 F10800
G1 Z.2 F720
G1 E.8 F2100
M204 S800
;TYPE:Perimeter
G1 F900
G1 X108.436 Y65.824 E.00132
G1 X108.538 Y65.985 E.00598
G1 X108.581 Y66.202 E.00694
G1 X108.581 Y80.645 E.45285
G1 X108.551 Y80.829 E.00585
G1 X108.355 Y81.098 E.01044
G1 X108.214 Y81.175 E.00504
G1 X108.016 Y81.211 E.00631
G1 X93.573 Y81.211 E.45285
G1 X93.374 Y81.175 E.00634
G1 X93.12 Y80.985 E.00995
G1 X93.016 Y80.743 E.00826
G1 X93.007 Y79.585 E.03631
G1 X93.007 Y66.202 E.41961
G1 X93.03 Y66.044 E.00501
G1 X93.11 Y65.877 E.00581
G1 X93.298 Y65.708 E.00793
G1 X93.573 Y65.637 E.00891
G1 X108.016 Y65.637 E.45285
G1 X108.255 Y65.69 E.00768
M73 Q0 S172
G1 X108.353 Y65.763 E.00383
M204 S1000
G1 X108.117 Y66.059 F10800
M204 S800
;TYPE:External perimeter
G1 F900
G1 X108.156 Y66.076 E.00133
G1 X108.204 Y66.202 E.00423
G1 X108.204 Y80.645 E.45285
G1 X108.129 Y80.796 E.00529
G1 X108.016 Y80.834 E.00374
G1 X93.573 Y80.834 E.45285
G1 X93.422 Y80.758 E.0053
G1 X93.384 Y80.645 E.00374
G1 X93.384 Y66.202 E.45285
G1 X93.419 Y66.094 E.00356
G1 X93.573 Y66.014 E.00544
G1 X108.016 Y66.014 E.45285
G1 X108.062 Y66.035 E.00159
M204 S1000
;WIPE_START
G1 F8640
G1 X108.117 Y66.059 E-.01386
G1 X108.156 Y66.076 E-.00982
G1 X108.204 Y66.202 E-.03113
G1 X108.204 Y69.429 E-.74519
;WIPE_END
G1 Z.6 F720
G1 X108.409 Y100.073 F10800
G1 Z.2 F720
G1 E.8 F2100
M204 S800
;TYPE:Perimeter
G1 F900
G1 X108.355 Y100.148 E.0029
G1 X108.214 Y100.225 E.00504
G1 X108.016 Y100.261 E.00631
G1 X93.573 Y100.261 E.45285
G1 X93.374 Y100.225 E.00634
G1 X93.12 Y100.035 E.00995
G1 X93.016 Y99.793 E.00826
G1 X93.007 Y97.867 E.06039
G1 X93.007 Y85.252 E.39553
G1 X93.038 Y85.069 E.00582
G1 X93.233 Y84.8 E.01042
G1 X93.524 Y84.689 E.00977
G1 X93.573 Y84.687 E.00154
G1 X108.016 Y84.687 E.45285
G1 X108.214 Y84.723 E.00631
G1 X108.465 Y84.908 E.00978
G1 X108.569 Y85.138 E.00791
G1 X108.581 Y86.217 E.03383
G1 X108.581 Y99.695 E.42259
G1 X108.551 Y99.879 E.00585
G1 X108.445 Y100.024 E.00563
M204 S1000
G1 X108.153 Y99.798 F10800
M204 S800
;TYPE:External perimeter
G1 F900
G1 X108.129 Y99.846 E.00168
G1 X108.016 Y99.884 E.00374
G1 X93.573 Y99.884 E.45285
G1 X93.422 Y99.808 E.0053
G1 X93.384 Y99.695 E.00374
G1 X93.384 Y97.867 E.05732
G1 X93.384 Y85.252 E.39553
G1 X93.46 Y85.102 E.00527
G1 X93.573 Y85.064 E.00374
G1 X108.016 Y85.064 E.45285
G1 X108.165 Y85.138 E.00522
G1 X108.204 Y85.252 E.00378
G1 X108.204 Y99.695 E.45285
G1 X108.18 Y99.744 E.00171
M73 P0 R171
M204 S1000
;WIPE_START
G1 F8640
G1 X108.153 Y99.798 E-.01394
G1 X108.129 Y99.846 E-.01239
G1 X108.016 Y99.884 E-.02753
G1 X104.785 Y99.884 E-.74614
;WIPE_END
G1 Z.6 F720
G1 X108.409 Y119.123 F10800
G1 Z.2 F720
G1 E.8 F2100
M204 S800
;TYPE:Perimeter
G1 F900
G1 X108.355 Y119.198 E.0029
G1 X108.214 Y119.275 E.00504
G1 X108.016 Y119.311 E.00631
G1 X93.573 Y119.311 E.45285
G1 X93.374 Y119.275 E.00634
G1 X93.12 Y119.084 E.00996
G1 X93.016 Y118.843 E.00823
G1 X93.007 Y104.302 E.45592
G1 X93.038 Y104.119 E.00582
G1 X93.233 Y103.85 E.01042
G1 X93.524 Y103.739 E.00977
G1 X93.573 Y103.737 E.00154
G1 X108.016 Y103.737 E.45285
G1 X108.214 Y103.773 E.00631
G1 X108.465 Y103.958 E.00978
G1 X108.569 Y104.188 E.00791
G1 X108.581 Y106.034 E.05788
G1 X108.581 Y118.745 E.39854
G1 X108.551 Y118.928 E.00581
G1 X108.445 Y119.074 E.00566
M204 S1000
G1 X108.153 Y118.848 F10800
M204 S800
;TYPE:External perimeter
G1 F900
G1 X108.129 Y118.896 E.00168
G1 X108.016 Y118.934 E.00374
G1 X93.573 Y118.934 E.45285
G1 X93.422 Y118.858 E.0053
G1 X93.384 Y118.745 E.00374
G1 X93.384 Y104.302 E.45285
G1 X93.46 Y104.151 E.0053
G1 X93.573 Y104.114 E.00373
G1 X108.016 Y104.114 E.45285
G1 X108.165 Y104.188 E.00522
G1 X108.204 Y104.302 E.00378
G1 X108.204 Y106.034 E.05431
G1 X108.204 Y118.745 E.39854
G1 X108.18 Y118.794 E.00171
M204 S1000
;WIPE_START
G1 F8640
G1 X108.153 Y118.848 E-.01394
G1 X108.129 Y118.896 E-.01239
G1 X108.016 Y118.934 E-.02753
G1 X104.785 Y118.934 E-.74614
;WIPE_END
G1 Z.6 F720
G1 X127.461 Y140.683 F10800
G1 Z.2 F720
M73 Q1 S172
G1 E.8 F2100
M73 P1 R171
M204 S800
;TYPE:Perimeter
G1 F900
G1 X127.405 Y140.747 E.00267
G1 X127.264 Y140.824 E.00504
G1 X127.065 Y140.861 E.00635
G1 X112.623 Y140.861 E.45282
G1 X112.424 Y140.824 E.00635
G1 X112.174 Y140.639 E.00975
G1 X112.069 Y140.41 E.0079
G1 X112.057 Y139.331 E.03383
G1 X112.057 Y125.852 E.42262
G1 X112.088 Y125.669 E.00582
G1 X112.283 Y125.4 E.01042
G1 X112.573 Y125.289 E.00974
G1 X127.065 Y125.286 E.45439
G1 X127.264 Y125.322 E.00634
G1 X127.518 Y125.513 E.00996
G1 X127.6 Y125.669 E.00553
G1 X127.631 Y125.852 E.00582
G1 X127.631 Y140.295 E.45285
G1 X127.557 Y140.574 E.00905
G1 X127.501 Y140.638 E.00267
M204 S1000
G1 X127.207 Y140.397 F10800
M204 S800
;TYPE:External perimeter
G1 F900
G1 X127.189 Y140.438 E.0014
G1 X127.065 Y140.483 E.00414
G1 X112.623 Y140.483 E.45282
G1 X112.473 Y140.41 E.00523
G1 X112.434 Y140.295 E.00381
G1 X112.434 Y125.852 E.45285
G1 X112.51 Y125.701 E.0053
G1 X112.606 Y125.664 E.00323
G1 X127.065 Y125.664 E.45335
G1 X127.216 Y125.739 E.00529
G1 X127.254 Y125.852 E.00374
G1 X127.254 Y140.295 E.45285
G1 X127.232 Y140.342 E.00163
M204 S1000
;WIPE_START
G1 F8640
G1 X127.207 Y140.397 E-.01395
G1 X127.189 Y140.438 E-.01034
G1 X127.065 Y140.483 E-.03046
G1 X123.837 Y140.483 E-.74525
;WIPE_END
G1 Z.6 F720
G1 X108.409 Y138.173 F10800
G1 Z.2 F720
G1 E.8 F2100
M204 S800
;TYPE:Perimeter
G1 F900
G1 X108.355 Y138.247 E.00287
G1 X108.214 Y138.325 E.00505
G1 X108.016 Y138.361 E.00631
G1 X93.573 Y138.361 E.45285
G1 X93.374 Y138.325 E.00634
G1 X93.12 Y138.134 E.00996
G1 X93.016 Y137.893 E.00823
G1 X93.007 Y137.795 E.00309
G1 X93.007 Y123.352 E.45285
G1 X93.038 Y123.169 E.00582
G1 X93.233 Y122.9 E.01042
G1 X93.524 Y122.789 E.00977
G1 X93.573 Y122.786 E.00154
G1 X108.016 Y122.786 E.45285
G1 X108.214 Y122.822 E.00631
G1 X108.465 Y123.008 E.0098
G1 X108.569 Y123.237 E.00789
G1 X108.581 Y124.316 E.03383
G1 X108.581 Y137.795 E.42262
G1 X108.551 Y137.978 E.00581
G1 X108.445 Y138.124 E.00566
M204 S1000
G1 X108.153 Y137.898 F10800
M204 S800
;TYPE:External perimeter
G1 F900
G1 X108.129 Y137.946 E.00168
G1 X108.016 Y137.983 E.00373
G1 X93.573 Y137.983 E.45285
G1 X93.422 Y137.908 E.00529
G1 X93.384 Y137.795 E.00374
G1 X93.384 Y123.352 E.45285
G1 X93.46 Y123.201 E.0053
G1 X93.573 Y123.164 E.00373
G1 X108.016 Y123.164 E.45285
G1 X108.165 Y123.237 E.0052
G1 X108.204 Y123.352 E.00381
G1 X108.204 Y137.795 E.45285
G1 X108.18 Y137.844 E.00171
M204 S1000
;WIPE_START
G1 F8640
G1 X108.153 Y137.898 E-.01394
G1 X108.129 Y137.946 E-.01239
G1 X108.016 Y137.983 E-.02746
G1 X104.784 Y137.983 E-.74621
;WIPE_END
G1 Z.6 F720
G1 X74.125 Y137.107 F10800
G1 Z.2 F720
G1 E.8 F2100
M204 S800
;TYPE:Perimeter
G1 F900
G1 X74.169 Y137.061 E.002
G1 X74.338 Y136.967 E.00606
G1 X74.783 Y136.936 E.01399
G1 X88.966 Y136.936 E.4447
G1 X89.164 Y136.972 E.00631
G1 X89.418 Y137.163 E.00996
G1 X89.501 Y137.319 E.00554
G1 X89.531 Y138.196 E.02751
G1 X89.531 Y151.945 E.43109
G1 X89.496 Y152.14 E.00621
G1 X89.403 Y152.303 E.00588
G1 X89.149 Y152.48 E.00971
G1 X88.966 Y152.51 E.00581
G1 X74.523 Y152.51 E.45285
G1 X74.254 Y152.443 E.00869
G1 X74.09 Y152.308 E.00666
G1 X73.978 Y152.097 E.00749
G1 X73.957 Y151.945 E.00481
G1 X73.957 Y137.502 E.45285
G1 X73.981 Y137.34 E.00513
G1 X74.067 Y137.168 E.00603
G1 X74.083 Y137.15 E.00076
M204 S1000
G1 X74.417 Y137.365 F10800
M204 S800
;TYPE:External perimeter
G1 F900
G1 X74.51 Y137.314 E.00333
G1 X75.189 Y137.313 E.02129
G1 X88.966 Y137.313 E.43197
G1 X89.117 Y137.389 E.0053
G1 X89.154 Y137.502 E.00373
G1 X89.154 Y151.945 E.45285
G1 X89.112 Y152.064 E.00396
G1 X88.966 Y152.133 E.00506
