; generated by PrusaSlicer 2.9.3 on 2025-11-01 at 15:08:52 UTC


;
;
; 

; external perimeters extrusion width = 0.60mm
; perimeters extrusion width = 0.50mm
; infill extrusion width = 0.50mm
; solid infill extrusion width = 0.50mm
; top infill extrusion width = 0.45mm
; support material extrusion width = 0.38mm
; first layer extrusion width = 0.42mm

; external perimeters extrusion width = 0.60mm
; perimeters extrusion width = 0.50mm
; infill extrusion width = 0.50mm
; solid infill extrusion width = 0.50mm
; top infill extrusion width = 0.45mm
; support material extrusion width = 0.38mm
; first layer extrusion width = 0.42mm

M73 P0 R34
M73 Q0 S34
M201 X1000 Y1000 Z200 E5000 ; sets maximum accelerations, mm/sec^2
M203 X200 Y200 Z12 E120 ; sets maximum feedrates, mm / sec
M204 S1250 T1250 ; sets acceleration (S) and retract acceleration (R), mm/sec^2
M205 X8.00 Y8.00 Z0.40 E4.50 ; sets the jerk limits, mm/sec
M205 S0 T0 ; sets the minimum extruding and travel feed rate, mm/sec

; printing object Sofle_pico_OLED_circle_window_v3.4.stl id:0 copy 0
; stop printing object Sofle_pico_OLED_circle_window_v3.4.stl id:0 copy 0
; printing object Sofle_pico_OLED_circle_window_v3.4.stl id:1 copy 0
; stop printing object Sofle_pico_OLED_circle_window_v3.4.stl id:1 copy 0

;TYPE:Custom
M862.3 P "MK3S" ; printer model check
M862.1 P0.4 ; nozzle diameter check
M115 U3.14.1 ; tell printer latest fw version
G90 ; use absolute coordinates
M83 ; extruder relative mode
M104 S215 ; set extruder temp
M140 S60 ; set bed temp
M190 S60 ; wait for bed temp
M109 S215 ; wait for extruder temp
G28 W ; home all without mesh bed level
G80 X81.0051 Y61.9928 W87.9899 H86.0145 ; mesh bed levelling

G1 Z0.2 F720
G1 Y-3 F1000 ; go outside print area
G92 E0
G1 X60 E9 F1000 ; intro line
G1 X100 E12.5 F1000 ; intro line

G92 E0
M221 S95

; Don't change E values below. Excessive value can damage the printer.

M907 E538 ; set extruder motor current
G21 ; set units to millimeters
G90 ; use absolute coordinates
M83 ; use relative distances for extrusion

M900 K0.05 ; Filament gcode LA 1.5
M900 K30 ; Filament gcode LA 1.0




M107
;LAYER_CHANGE
;Z:0.35
;HEIGHT:0.35
G1 E-.8 F2100
G1 Z.75 F720
G1 X87.65 Y75.897 F10800
G1 Z.35 F720
G1 E.8 F2100
M204 S800
;TYPE:Skirt/Brim
;WIDTH:0.42
G1 F1200
G1 X88.336 Y75.237 E.04777
G1 X89.268 Y74.545 E.05826
G1 X110.854 Y63.044 E1.22748
G1 X111.853 Y62.62 E.05446
G1 X113.046 Y62.3 E.06199
G1 X114.38 Y62.165 E.06729
G1 X128.871 Y62.165 E.72724
G1 X136.098 Y62.192 E.3627
G1 X137.233 Y62.355 E.05755
G1 X138.147 Y62.62 E.04776
G1 X138.958 Y62.955 E.04404
G1 X160.732 Y74.545 E1.23791
G1 X161.664 Y75.237 E.05826
G1 X162.35 Y75.897 E.04777
G1 X163.071 Y76.806 E.05823
G1 X163.689 Y77.877 E.06206
G1 X164.116 Y78.956 E.05824
G1 X164.344 Y79.88 E.04776
G1 X164.451 Y80.713 E.04215
G1 X168.816 Y137.285 E2.84756
G1 X168.719 Y139.062 E.08931
M73 P0 R33
G1 X168.569 Y139.876 E.04154
G1 X168.097 Y141.404 E.08026
G1 X167.608 Y142.448 E.05786
G1 X167.188 Y143.161 E.04153
G1 X166.09 Y144.572 E.08973
G1 X164.915 Y145.657 E.08026
G1 X163.807 Y146.414 E.06734
G1 X162.37 Y147.116 E.08026
G1 X161.589 Y147.389 E.04152
G1 X160.47 Y147.665 E.05784
G1 X158.918 Y147.826 E.07831
G1 X91.35 Y147.835 E3.39096
G1 X89.344 Y147.627 E.10121
G1 X87.807 Y147.187 E.08023
G1 X86.753 Y146.72 E.05786
G1 X85.237 Y145.771 E.08976
G1 X84.597 Y145.246 E.04154
G1 X83.489 Y144.093 E.08025
G1 X82.723 Y143.022 E.06608
G1 X81.989 Y141.605 E.08009
G1 X81.689 Y140.809 E.04269
G1 X81.307 Y139.251 E.08051
G1 X81.178 Y137.467 E.08977
G1 X85.549 Y80.713 E2.85669
G1 X85.656 Y79.88 E.04215
M73 P1 R33
M73 Q1 S34
G1 X85.884 Y78.956 E.04776
G1 X86.437 Y77.622 E.07247
G1 X86.929 Y76.806 E.04782
G1 X87.613 Y75.944 E.05523
M204 S1000
;WIPE_START
G1 F8640
G1 X87.65 Y75.897 E-.01381
G1 X88.336 Y75.237 E-.21981
G1 X89.268 Y74.545 E-.26804
G1 X90.408 Y73.937 E-.29834
;WIPE_END
G1 Z.75 F720
G1 X89.357 Y77.789 F10800
G1 Z.35 F720
G1 E.8 F2100
M204 S800
G1 F1200
G1 X90.308 Y76.889 E.06571
G1 X91.59 Y76.188 E.07333
G1 X92.91 Y75.86 E.06826
G1 X103.918 Y75.782 E.55246
M73 Q1 S33
G1 X104.994 Y75.574 E.055
G1 X106.008 Y75.159 E.05499
G1 X106.48 Y74.879 E.02754
G1 X107.329 Y74.187 E.05497
G1 X108.027 Y73.342 E.055
G1 X108.309 Y72.872 E.02751
G1 X108.545 Y72.376 E.02757
G1 X108.864 Y71.328 E.05498
G1 X109.022 Y69.623 E.08593
G1 X109.297 Y68.392 E.0633
G1 X109.979 Y67.051 E.0755
G1 X110.603 Y66.313 E.0485
G1 X111.34 Y65.688 E.0485
G1 X112.762 Y64.974 E.07986
G1 X114.265 Y64.69 E.07676
G1 X121.191 Y64.687 E.34759
G1 X122.349 Y64.856 E.05873
G1 X123.443 Y65.26 E.05853
G1 X124.831 Y66.24 E.08527
G1 X125.006 Y66.438 E.01326
G1 X126.09 Y65.524 E.07116
G1 X127.598 Y64.871 E.08247
G1 X128.824 Y64.686 E.06222
G1 X135.7 Y64.686 E.34508
G1 X137.182 Y64.955 E.07559
G1 X138.455 Y65.556 E.07065
G1 X139.531 Y66.453 E.0703
G1 X140.342 Y67.577 E.06956
G1 X140.874 Y68.969 E.07479
G1 X141.136 Y71.328 E.11912
G1 X141.455 Y72.376 E.05498
G1 X141.691 Y72.872 E.02757
G1 X141.974 Y73.342 E.02753
G1 X142.671 Y74.187 E.05497
G1 X143.52 Y74.879 E.05497
G1 X143.992 Y75.159 E.02754
G1 X145.006 Y75.574 E.05499
G1 X146.082 Y75.782 E.055
G1 X157.063 Y75.857 E.5511
G1 X158.264 Y76.133 E.06184
G1 X159.405 Y76.692 E.06376
G1 X160.361 Y77.468 E.06179
G1 X161.102 Y78.403 E.05987
G1 X161.703 Y79.695 E.07151
G1 X161.963 Y81.191 E.0762
G1 X161.963 Y130.728 E2.48606
G1 X162.558 Y131.014 E.03313
G1 X163.633 Y131.79 E.06654
G1 X164.56 Y132.74 E.06661
G1 X165.305 Y133.827 E.06613
G1 X165.859 Y135.038 E.06683
G1 X166.181 Y136.244 E.06264
G1 X166.303 Y137.473 E.06198
G1 X166.217 Y138.773 E.06538
G1 X165.905 Y140.07 E.06695
G1 X165.183 Y141.62 E.08581
G1 X164.244 Y142.862 E.07814
G1 X163.267 Y143.746 E.06612
G1 X162.155 Y144.451 E.06608
G1 X160.878 Y144.976 E.06929
G1 X159.764 Y145.23 E.05734
G1 X158.644 Y145.318 E.05638
G1 X129.273 Y145.313 E1.47401
G1 X127.877 Y145.096 E.0709
G1 X126.825 Y144.694 E.05652
G1 X125.845 Y144.089 E.0578
G1 X125.014 Y143.263 E.0588
G1 X124.108 Y144.125 E.06276
G1 X123.178 Y144.692 E.05466
G1 X122.08 Y145.108 E.05893
G1 X120.726 Y145.313 E.06873
G1 X91.343 Y145.318 E1.47461
G1 X89.894 Y145.17 E.0731
G1 X88.695 Y144.829 E.06256
G1 X87.57 Y144.301 E.06237
G1 X86.563 Y143.614 E.06118
G1 X85.674 Y142.772 E.06145
G1 X84.794 Y141.582 E.07428
G1 X84.144 Y140.209 E.07624
G1 X83.782 Y138.772 E.07437
G1 X83.698 Y137.432 E.06738
G1 X83.827 Y136.204 E.06197
G1 X84.151 Y135.011 E.06204
G1 X84.714 Y133.793 E.06734
G1 X85.463 Y132.712 E.066
G1 X86.407 Y131.756 E.06743
G1 X87.522 Y130.966 E.06858
G1 X88.037 Y130.723 E.02858
G1 X88.037 Y81.233 E2.4837
G1 X88.181 Y80.122 E.05622
G1 X88.542 Y79.056 E.05648
G1 X89.3 Y77.843 E.07178
G1 X89.314 Y77.83 E.00096
M204 S1000
G1 X89.553 Y78.078 F10800
M204 S800
G1 F1200
G1 X90.529 Y77.156 E.06738
G1 X91.734 Y76.502 E.06881
G1 X92.972 Y76.2 E.06395
G1 X103.95 Y76.126 E.55095
G1 X105.093 Y75.905 E.05842
G1 X106.17 Y75.465 E.05839
G1 X106.671 Y75.167 E.02925
G1 X107.573 Y74.432 E.05839
G1 X108.313 Y73.534 E.0584
G1 X108.614 Y73.035 E.02925
G1 X108.864 Y72.509 E.02923
G1 X109.203 Y71.396 E.05839
G1 X109.361 Y69.685 E.08623
G1 X109.629 Y68.488 E.06156
G1 X110.256 Y67.258 E.06929
G1 X110.837 Y66.567 E.04531
G1 X111.548 Y65.964 E.04679
G1 X112.851 Y65.308 E.07321
G1 X114.282 Y65.035 E.07311
G1 X121.155 Y65.03 E.34493
G1 X122.247 Y65.186 E.05536
G1 X123.302 Y65.576 E.05645
G1 X124.606 Y66.503 E.08029
G1 X124.947 Y66.943 E.02794
G1 X126.252 Y65.829 E.08611
G1 X127.672 Y65.208 E.07778
G1 X128.837 Y65.031 E.05914
G1 X135.655 Y65.029 E.34217
G1 X137.056 Y65.277 E.0714
G1 X138.288 Y65.859 E.06838
G1 X139.265 Y66.673 E.06382
G1 X140.028 Y67.722 E.0651
G1 X140.545 Y69.074 E.07264
G1 X140.797 Y71.396 E.11722
M73 Q2 S33
G1 X141.136 Y72.509 E.05839
M73 P2 R33
G1 X141.386 Y73.035 E.02923
G1 X141.687 Y73.534 E.02925
G1 X142.427 Y74.432 E.0584
G1 X143.329 Y75.167 E.05839
G1 X143.83 Y75.465 E.02925
G1 X144.907 Y75.905 E.05839
G1 X146.05 Y76.126 E.05842
G1 X157.042 Y76.202 E.55166
G1 X158.166 Y76.464 E.05792
G1 X159.235 Y76.993 E.05986
G1 X160.104 Y77.698 E.05616
G1 X160.799 Y78.568 E.05588
G1 X161.381 Y79.819 E.06924
G1 X161.618 Y81.206 E.07062
G1 X161.618 Y130.947 E2.4963
G1 X162.37 Y131.303 E.04176
G1 X163.419 Y132.061 E.06495
G1 X164.303 Y132.97 E.06363
G1 X164.998 Y133.984 E.06169
G1 X165.529 Y135.142 E.06393
G1 X165.839 Y136.292 E.05977
G1 X165.958 Y137.493 E.06057
G1 X165.874 Y138.735 E.06247
G1 X165.585 Y139.941 E.06224
G1 X164.897 Y141.427 E.08218
G1 X164 Y142.618 E.07483
G1 X163.07 Y143.463 E.06306
G1 X161.984 Y144.151 E.06452
G1 X160.787 Y144.643 E.06495
G1 X159.724 Y144.887 E.05473
G1 X158.637 Y144.973 E.05472
G1 X129.287 Y144.968 E1.47296
G1 X127.949 Y144.758 E.06797
G1 X126.965 Y144.378 E.05294
G1 X126.044 Y143.807 E.05438
G1 X125.02 Y142.779 E.07282
G1 X123.912 Y143.841 E.07702
G1 X123.04 Y144.376 E.05134
G1 X122.009 Y144.769 E.05537
G1 X120.712 Y144.968 E.06585
G1 X91.351 Y144.973 E1.47351
G1 X89.973 Y144.834 E.06951
G1 X88.829 Y144.511 E.05966
G1 X87.753 Y144.008 E.05961
G1 X86.769 Y143.337 E.05977
G1 X85.923 Y142.533 E.05857
G1 X85.098 Y141.419 E.06957
G1 X84.474 Y140.108 E.07287
G1 X84.121 Y138.703 E.0727
G1 X84.043 Y137.425 E.06426
G1 X84.168 Y136.255 E.05905
G1 X84.48 Y135.116 E.05927
G1 X85.007 Y133.977 E.06298
G1 X85.719 Y132.944 E.06296
G1 X86.641 Y132.009 E.0659
G1 X87.707 Y131.258 E.06544
G1 X88.382 Y130.943 E.03738
G1 X88.382 Y81.244 E2.49419
G1 X88.513 Y80.214 E.05211
G1 X88.846 Y79.22 E.05261
G1 X89.522 Y78.129 E.06441
M204 S1000
G1 X89.814 Y78.312 F10800
M204 S800
G1 F1200
G1 X89.834 Y78.28 E.00189
G1 X90.748 Y77.423 E.06288
G1 X91.877 Y76.817 E.06431
G1 X93.032 Y76.54 E.05961
G1 X103.982 Y76.47 E.54955
G1 X105.191 Y76.236 E.0618
G1 X106.331 Y75.77 E.06181
G1 X106.861 Y75.455 E.03094
G1 X107.816 Y74.677 E.06182
G1 X108.6 Y73.727 E.06182
G1 X108.918 Y73.198 E.03098
G1 X109.182 Y72.642 E.03089
G1 X109.541 Y71.463 E.06185
G1 X109.701 Y69.745 E.08659
G1 X109.947 Y68.624 E.0576
G1 X110.533 Y67.464 E.06522
G1 X111.091 Y66.8 E.04353
G1 X111.754 Y66.242 E.04349
G1 X112.983 Y65.628 E.06895
G1 X114.329 Y65.377 E.06871
G1 X121.119 Y65.373 E.34076
G1 X122.145 Y65.516 E.05199
G1 X123.161 Y65.891 E.05435
G1 X124.381 Y66.767 E.07538
G1 X124.988 Y67.583 E.05104
G1 X125.378 Y67.018 E.03445
G1 X126.413 Y66.135 E.06828
G1 X127.789 Y65.534 E.07536
G1 X128.874 Y65.374 E.05504
G1 X135.64 Y65.374 E.33956
G1 X136.931 Y65.599 E.06577
G1 X138.085 Y66.138 E.06392
G1 X139.027 Y66.924 E.06157
G1 X139.735 Y67.905 E.06072
G1 X140.215 Y69.177 E.06823
G1 X140.368 Y70.853 E.08446
G1 X140.609 Y72.061 E.06182
G1 X141.082 Y73.198 E.0618
G1 X141.4 Y73.727 E.03098
G1 X142.184 Y74.677 E.06182
G1 X143.139 Y75.455 E.06182
G1 X143.669 Y75.77 E.03094
G1 X144.809 Y76.236 E.06181
G1 X146.018 Y76.47 E.0618
G1 X156.982 Y76.542 E.55025
G1 X158.068 Y76.795 E.05596
G1 X159.064 Y77.293 E.05589
G1 X159.847 Y77.929 E.05063
G1 X160.495 Y78.732 E.05178
G1 X161.058 Y79.944 E.06707
G1 X161.273 Y81.22 E.06494
G1 X161.273 Y131.166 E2.50659
G1 X162.182 Y131.592 E.05038
G1 X163.182 Y132.312 E.06184
G1 X164.045 Y133.2 E.06214
G1 X164.705 Y134.166 E.05871
G1 X165.2 Y135.246 E.05962
G1 X165.497 Y136.342 E.05699
G1 X165.613 Y137.485 E.05766
G1 X165.536 Y138.669 E.05955
G1 X165.254 Y139.843 E.06059
G1 X164.592 Y141.265 E.07872
G1 X163.755 Y142.374 E.06973
G1 X162.872 Y143.18 E.06
G1 X161.838 Y143.838 E.06151
G1 X160.695 Y144.31 E.06206
G1 X159.683 Y144.545 E.05214
G1 X158.63 Y144.629 E.05301
G1 X129.3 Y144.623 E1.47195
G1 X128.022 Y144.421 E.06493
M73 P3 R33
M73 Q3 S33
G1 X127.105 Y144.062 E.04942
G1 X126.274 Y143.549 E.04901
G1 X125.201 Y142.472 E.0763
G1 X124.982 Y142.139 E.02
G1 X124.668 Y142.638 E.02959
G1 X123.687 Y143.579 E.06822
G1 X122.874 Y144.073 E.04774
G1 X121.938 Y144.432 E.05031
G1 X120.699 Y144.623 E.06291
G1 X91.36 Y144.629 E1.4724
G1 X90.051 Y144.498 E.06602
G1 X88.961 Y144.192 E.05682
G1 X87.935 Y143.715 E.05678
G1 X86.996 Y143.077 E.05697
G1 X86.171 Y142.293 E.05712
G1 X85.402 Y141.255 E.06483
G1 X84.793 Y139.975 E.07114
G1 X84.464 Y138.665 E.06779
G1 X84.387 Y137.448 E.0612
G1 X84.51 Y136.305 E.05769
G1 X84.809 Y135.221 E.05643
G1 X85.299 Y134.16 E.05865
G1 X85.976 Y133.174 E.06002
G1 X86.853 Y132.282 E.06278
G1 X87.893 Y131.549 E.06385
G1 X88.727 Y131.164 E.0461
G1 X88.727 Y81.255 E2.50473
G1 X88.853 Y80.276 E.04954
G1 X89.166 Y79.349 E.0491
G1 X89.782 Y78.362 E.05839
M204 S1000
G1 X90.07 Y78.542 F10800
M204 S800
G1 F1200
G1 X90.086 Y78.516 E.00153
G1 X90.967 Y77.69 E.06061
G1 X92.018 Y77.132 E.05972
G1 X93.091 Y76.88 E.05531
G1 X103.265 Y76.846 E.51059
G1 X104.658 Y76.722 E.07019
G1 X105.904 Y76.351 E.06524
G1 X106.493 Y76.075 E.03264
G1 X107.576 Y75.357 E.06521
G1 X108.059 Y74.922 E.03262
G1 X108.887 Y73.919 E.06527
G1 X109.501 Y72.774 E.0652
G1 X109.721 Y72.162 E.03264
G1 X109.88 Y71.531 E.03266
G1 X110.041 Y69.804 E.08705
G1 X110.265 Y68.758 E.05368
G1 X110.81 Y67.671 E.06102
G1 X111.345 Y67.034 E.04175
G1 X111.96 Y66.519 E.04026
G1 X113.113 Y65.948 E.06457
G1 X114.375 Y65.719 E.06437
G1 X121.085 Y65.717 E.33675
G1 X122.046 Y65.847 E.04867
G1 X122.979 Y66.186 E.04982
G1 X124.157 Y67.03 E.07273
G1 X124.999 Y68.19 E.07194
G1 X125.621 Y67.265 E.05594
G1 X126.618 Y66.414 E.06578
G1 X127.862 Y65.872 E.0681
G1 X128.887 Y65.719 E.05201
G1 X135.626 Y65.718 E.3382
G1 X136.807 Y65.922 E.06015
G1 X137.883 Y66.419 E.05948
G1 X138.761 Y67.144 E.05714
G1 X139.441 Y68.088 E.05839
G1 X139.876 Y69.243 E.06194
G1 X140.024 Y70.887 E.08284
G1 X140.279 Y72.162 E.06525
G1 X140.778 Y73.362 E.06522
G1 X141.113 Y73.919 E.03262
G1 X141.941 Y74.922 E.06527
G1 X142.948 Y75.743 E.0652
G1 X143.507 Y76.075 E.03263
G1 X144.71 Y76.567 E.06523
G1 X145.986 Y76.814 E.06523
G1 X156.924 Y76.882 E.54894
G1 X157.932 Y77.113 E.0519
G1 X158.892 Y77.592 E.05384
G1 X159.614 Y78.184 E.04686
G1 X160.192 Y78.898 E.0461
G1 X160.722 Y80.025 E.0625
G1 X160.928 Y81.235 E.0616
G1 X160.928 Y131.387 E2.51692
G1 X161.994 Y131.882 E.05898
M73 P3 R32
G1 X162.946 Y132.563 E.05874
G1 X163.787 Y133.429 E.06058
G1 X164.411 Y134.348 E.05575
G1 X164.871 Y135.35 E.05533
G1 X165.16 Y136.418 E.05553
G1 X165.269 Y137.504 E.05478
G1 X165.193 Y138.631 E.05669
G1 X164.923 Y139.745 E.05753
G1 X164.287 Y141.102 E.07521
G1 X163.511 Y142.13 E.06464
G1 X162.673 Y142.898 E.05705
G1 X161.691 Y143.526 E.0585
G1 X160.603 Y143.977 E.05911
G1 X159.618 Y144.206 E.05075
G1 X158.623 Y144.284 E.05009
G1 X129.314 Y144.278 E1.4709
G1 X128.095 Y144.083 E.06195
G1 X127.272 Y143.76 E.04437
G1 X126.503 Y143.291 E.0452
G1 X125.461 Y142.245 E.0741
G1 X124.983 Y141.463 E.046
G1 X124.412 Y142.406 E.05533
G1 X123.462 Y143.316 E.06602
G1 X122.71 Y143.769 E.04406
G1 X121.867 Y144.094 E.04534
G1 X120.685 Y144.278 E.06003
G1 X91.368 Y144.284 E1.4713
G1 X90.13 Y144.162 E.06243
G1 X89.068 Y143.864 E.05536
G1 X88.094 Y143.408 E.05397
G1 X87.203 Y142.8 E.05413
G1 X86.42 Y142.054 E.05428
G1 X85.706 Y141.092 E.06012
G1 X85.112 Y139.843 E.06941
G1 X84.807 Y138.627 E.06292
G1 X84.732 Y137.469 E.05824
G1 X84.846 Y136.383 E.0548
G1 X85.137 Y135.327 E.05497
G1 X85.592 Y134.342 E.05445
G1 X86.233 Y133.404 E.05702
G1 X87.065 Y132.555 E.05966
G1 X88.078 Y131.84 E.06223
G1 X89.072 Y131.387 E.05482
G1 X89.072 Y81.266 E2.51537
G1 X89.186 Y80.369 E.04538
M73 P4 R32
M73 Q4 S33
G1 X89.486 Y79.479 E.04713
G1 X90.038 Y78.593 E.05239
M204 S1000
G1 X90.33 Y78.776 F10800
M73 Q4 S32
M204 S800
G1 F1200
G1 X90.365 Y78.72 E.00331
G1 X91.184 Y77.959 E.05611
G1 X92.158 Y77.448 E.0552
G1 X93.149 Y77.221 E.05102
G1 X103.273 Y77.191 E.50808
G1 X104.724 Y77.061 E.07311
G1 X106.034 Y76.67 E.06861
G1 X106.654 Y76.38 E.03435
G1 X107.794 Y75.625 E.06862
G1 X108.303 Y75.166 E.0344
G1 X109.173 Y74.112 E.06859
G1 X109.82 Y72.907 E.06864
G1 X110.052 Y72.262 E.0344
G1 X110.219 Y71.598 E.03436
G1 X110.381 Y69.862 E.0875
G1 X110.584 Y68.891 E.04978
G1 X111.088 Y67.876 E.05687
G1 X111.579 Y67.289 E.03841
G1 X112.165 Y66.797 E.0384
G1 X113.243 Y66.268 E.06026
G1 X114.419 Y66.061 E.05993
G1 X121.073 Y66.062 E.33394
G1 X121.948 Y66.178 E.0443
G1 X122.798 Y66.48 E.04527
G1 X123.932 Y67.294 E.07005
G1 X124.731 Y68.412 E.06896
G1 X124.996 Y69.122 E.03803
